; generated by PrusaSlicer 2.5.0+win64 on 2022-10-14 at 18:15:00 UTC


;
;

;
;
; 

; external perimeters extrusion width = 0.45mm
; perimeters extrusion width = 0.45mm
; infill extrusion width = 0.45mm
; solid infill extrusion width = 0.45mm
; top infill extrusion width = 0.40mm
; support material extrusion width = 0.35mm
; first layer extrusion width = 0.42mm

M73 P0 R90
M201 X2500 Y2500 Z400 E5000 ; sets maximum accelerations, mm/sec^2
M203 X180 Y180 Z12 E80 ; sets maximum feedrates, mm / sec
M204 P1250 R1250 T2500 ; sets acceleration (P, T) and retract acceleration (R), mm/sec^2
M205 X8.00 Y8.00 Z2.00 E10.00 ; sets the jerk limits, mm/sec
M205 S0 T0 ; sets the minimum extruding and travel feed rate, mm/sec
M107
;TYPE:Custom
M862.3 P "MINI" ; printer model check
G90 ; use absolute coordinates
M83 ; extruder relative mode
M104 S170 ; set extruder temp for bed leveling
M140 S60 ; set bed temp
M109 R170 ; wait for bed leveling temp
M190 S60 ; wait for bed temp
M204 T1250 ; set travel acceleration
G28 ; home all without mesh bed level
G29 ; mesh bed leveling 
M204 T2500 ; restore travel acceleration
M104 S215 ; set extruder temp
G92 E0
G1 Y-2 X179 F2400
G1 Z3 F720
M109 S215 ; wait for extruder temp

; intro line
G1 X170 F1000
G1 Z0.2 F720
G1 X110 E8 F900
G1 X40 E10 F700
G92 E0

M221 S95 ; set flow
G21 ; set units to millimeters
G90 ; use absolute coordinates
M83 ; use relative distances for extrusion
M900 K0.2 ; Filament gcode LA 1.5
; ; Filament gcode LA 1.0
M107
;LAYER_CHANGE
;Z:0.2
;HEIGHT:0.2
;BEFORE_LAYER_CHANGE
G92 E0.0
;0.2


G1 E-3.2 F4200
G1 Z.2 F2400
;AFTER_LAYER_CHANGE
;0.2
G1 Z.4
G1 X79.329 Y79.837
G1 Z.2
G1 E3.2
M204 P800
;TYPE:Skirt/Brim
;WIDTH:0.42
G1 F1200
G1 X80.835 Y78.624 E.06062
G1 X82.383 Y77.665 E.05712
G1 X84.161 Y76.85 E.0613
G1 X85.965 Y76.287 E.05925
G1 X87.948 Y75.938 E.06315
G1 X89.727 Y75.852 E.05585
G1 X91.82 Y76.019 E.06582
G1 X93.919 Y76.488 E.06745
G1 X105.727 Y80.564 E.39167
G1 X106.774 Y81.219 E.03871
G1 X109.092 Y83.536 E.10278
G1 X109.898 Y85.484 E.06609
G1 X109.898 Y96.017 E.33026
G1 X109.092 Y97.965 E.06609
G1 X106.774 Y100.282 E.10278
G1 X105.833 Y100.898 E.03525
G1 X93.906 Y105.528 E.40114
G1 X92.264 Y105.521 E.05149
G1 X86.656 Y103.744 E.18446
G1 X83.619 Y102.638 E.10134
G1 X78.178 Y100.394 E.18453
G1 X76.905 Y99.327 E.05208
G1 X76.167 Y98.075 E.04557
G1 X75.851 Y96.793 E.04139
G1 X75.852 Y85.22 E.36287
G1 X76.13 Y84.018 E.03868
G1 X76.876 Y82.731 E.04664
G1 X78.012 Y81.208 E.05958
G1 X79.288 Y79.88 E.05773
M204 P1250
G1 X79.559 Y80.141 F2400
M204 P800
G1 F1200
G1 X81.054 Y78.931 E.06029
G1 X82.563 Y77.996 E.05567
G1 X84.293 Y77.203 E.05968
G1 X86.056 Y76.653 E.05789
G1 X87.994 Y76.312 E.06168
G1 X89.72 Y76.229 E.05418
G1 X91.766 Y76.392 E.06437
G1 X93.813 Y76.85 E.06578
G1 X105.604 Y80.92 E.39109
G1 X106.507 Y81.485 E.03341
G1 X108.825 Y83.803 E.10278
G1 X109.521 Y85.484 E.05704
G1 X109.521 Y96.017 E.33026
G1 X108.825 Y97.698 E.05704
G1 X106.507 Y100.016 E.10278
G1 X105.695 Y100.547 E.03042
G1 X93.796 Y105.168 E.40025
G1 X92.378 Y105.162 E.04444
G1 X86.77 Y103.384 E.18446
G1 X83.762 Y102.29 E.10035
G1 X78.322 Y100.046 E.18453
G1 X77.223 Y99.125 E.04495
G1 X76.501 Y97.899 E.04459
G1 X76.228 Y96.793 E.03572
G1 X76.229 Y85.221 E.36285
G1 X76.469 Y84.183 E.03338
G1 X77.19 Y82.94 E.04505
G1 X78.299 Y81.452 E.0582
G1 X79.518 Y80.184 E.05514
M204 P1250
; printing object kijelzo_tarto_base.stl id:0 copy 0
G1 E-2.24 F4200
;WIPE_START
G1 F1920
G1 X79.858 Y79.907 E-.912
;WIPE_END
G1 E-.048 F4200
G1 Z.4 F2400
G1 X89.548 Y88.661
G1 Z.2
G1 E3.2
M204 P800
;TYPE:Support material
G1 F1200
G1 X90.012 Y88.703 E.01464
G1 X90.413 Y88.817 E.01306
G1 X90.841 Y89.034 E.01504
G1 X91.187 Y89.305 E.01379
G1 X91.499 Y89.67 E.01504
G1 X91.616 Y89.856 E.00691
G1 X91.727 Y90.083 E.00791
G1 X91.865 Y90.515 E.01422
G1 X91.916 Y90.96 E.01404
G1 X91.912 Y91.165 E.00643
G1 X91.877 Y91.435 E.00854
G1 X91.757 Y91.856 E.01373
G1 X91.549 Y92.267 E.01445
G1 X91.272 Y92.621 E.01409
G1 X90.916 Y92.928 E.01475
G1 X90.511 Y93.155 E.01455
G1 X90.091 Y93.293 E.01384
G1 X89.629 Y93.351 E.0146
G1 X89.153 Y93.313 E.01498
G1 X88.73 Y93.195 E.01376
G1 X88.323 Y92.991 E.01428
G1 X87.98 Y92.728 E.01357
G1 X87.67 Y92.377 E.01468
G1 X87.515 Y92.134 E.00903
G1 X87.424 Y91.949 E.00648
G1 X87.282 Y91.518 E.01422
G1 X87.227 Y91.075 E.01401
G1 X87.265 Y90.577 E.01565
M73 P0 R89
G1 X87.378 Y90.175 E.01312
G1 X87.58 Y89.767 E.01428
G1 X87.849 Y89.415 E.01388
G1 X88.174 Y89.123 E.0137
G1 X88.413 Y88.966 E.00896
G1 X88.594 Y88.875 E.00637
G1 X88.804 Y88.79 E.00711
G1 X89.069 Y88.715 E.00863
G1 X89.491 Y88.663 E.01332
M204 P1250
G1 X91.545 Y91.921 F2400
M204 P800
G1 F1200
G1 X91.54 Y90.623 E.04069
G1 X91.477 Y90.38 E.00786
G1 X91.38 Y90.142 E.00806
G1 X91.268 Y89.936 E.00736
G1 X91.126 Y89.739 E.0076
G1 X91.126 Y92.272 E.07941
G1 X90.937 Y92.474 E.00869
G1 X90.707 Y92.658 E.00923
G1 X90.707 Y89.354 E.1036
G1 X90.522 Y89.24 E.00681
G1 X90.288 Y89.133 E.00806
G1 X90.288 Y92.879 E.11745
G1 X89.869 Y92.988 E.01357
G1 X89.869 Y89.023 E.12432
G1 X89.462 Y89.003 E.01277
G1 X89.45 Y93.008 E.12557
G1 X89.031 Y92.937 E.01332
G1 X89.031 Y89.075 E.1211
G1 X88.846 Y89.136 E.00614
G1 X88.612 Y89.244 E.00805
G1 X88.612 Y92.767 E.11046
G1 X88.41 Y92.642 E.00746
G1 X88.194 Y92.461 E.00884
G1 X88.194 Y89.549 E.0913
G1 X87.954 Y89.821 E.01137
G1 X87.775 Y90.117 E.01085
G1 X87.775 Y92.232 E.06629
M204 P1250
G1 E-2.24 F4200
;WIPE_START
G1 F1920
G1 X87.775 Y91.793 E-.912
;WIPE_END
G1 E-.048 F4200
G1 Z.4 F2400
G1 X104.826 Y85.484
G1 Z.2
G1 E3.2
M204 P800
G1 F1200
G1 X107.144 Y85.484 E.07267
G1 X107.144 Y96.017 E.33026
G1 X104.826 Y96.017 E.07267
G1 X104.826 Y98.335 E.07267
G1 X100.163 Y98.335 E.1462
G1 X100.71 Y97.475 E.03196
G1 X101.204 Y96.537 E.03322
G1 X101.586 Y95.65 E.0303
G1 X101.926 Y94.651 E.03308
G1 X102.183 Y93.624 E.03317
G1 X102.331 Y92.765 E.02735
G1 X102.433 Y91.706 E.03336
G1 X102.45 Y90.74 E.0303
G1 X102.384 Y89.684 E.03318
G1 X102.249 Y88.734 E.03006
G1 X102.042 Y87.782 E.03056
G1 X101.736 Y86.77 E.03316
G1 X101.567 Y86.314 E.01524
G1 X101.31 Y85.705 E.02073
G1 X100.922 Y84.917 E.02755
G1 X100.438 Y84.09 E.03004
G1 X100.116 Y83.608 E.01816
G1 X99.791 Y83.166 E.01721
G1 X104.826 Y83.166 E.15789
G1 X104.826 Y85.427 E.0709
M204 P1250
G1 X106.628 Y95.847 F2400
M204 P800
G1 F1200
G1 X106.628 Y85.823 E.3143
G1 X106.21 Y85.823 E.01314
G1 X106.21 Y95.678 E.30898
G1 X105.791 Y95.678 E.01314
G1 X105.791 Y85.823 E.30898
G1 X105.372 Y85.823 E.01314
G1 X105.372 Y95.678 E.30898
G1 X104.953 Y95.678 E.01314
G1 X104.953 Y85.823 E.30898
G1 X104.534 Y85.823 E.01314
G1 X104.534 Y95.678 E.30898
G1 X104.487 Y95.678 E.00147
G1 X104.487 Y97.996 E.07267
G1 X104.115 Y97.996 E.01167
G1 X104.115 Y83.505 E.45433
G1 X103.696 Y83.505 E.01314
G1 X103.696 Y97.996 E.45433
G1 X103.277 Y97.996 E.01314
G1 X103.277 Y83.505 E.45433
G1 X102.858 Y83.505 E.01314
G1 X102.858 Y97.996 E.45433
G1 X102.439 Y97.996 E.01314
G1 X102.439 Y94.036 E.12414
G1 X102.251 Y94.748 E.02308
G1 X102.02 Y95.455 E.02332
G1 X102.02 Y97.996 E.07966
G1 X101.601 Y97.996 E.01314
G1 X101.601 Y96.488 E.04729
G1 X101.182 Y97.324 E.02934
G1 X101.182 Y98.165 E.02637
M204 P1250
G1 E-2.24 F4200
;WIPE_START
G1 F1920
G1 X101.182 Y97.726 E-.912
;WIPE_END
G1 E-.048 F4200
G1 Z.4 F2400
G1 X102.439 Y88.832
G1 Z.2
G1 E3.2
M204 P800
G1 F1200
G1 X102.439 Y83.505 E.16701
G1 X102.02 Y83.505 E.01314
G1 X102.02 Y86.56 E.09576
G1 X101.601 Y85.524 E.03502
G1 X101.601 Y83.505 E.0633
G1 X101.182 Y83.505 E.01314
G1 X101.182 Y84.685 E.03698
G1 X100.763 Y83.972 E.02593
G1 X100.763 Y83.336 E.01994
M204 P1250
G1 E-2.24 F4200
;WIPE_START
G1 F1920
G1 X100.763 Y83.775 E-.912
;WIPE_END
G1 E-.048 F4200
G1 Z.4 F2400
G1 X93.172 Y90.918
G1 Z.2
G1 E3.2
M204 P800
;TYPE:Perimeter
;WIDTH:0.419999
G1 F1200
G1 X93.181 Y91.022 E.00328
G1 X93.115 Y91.7 E.02135
G1 X92.96 Y92.231 E.01734
G1 X92.784 Y92.63 E.01368
G1 X92.538 Y93.067 E.01572
G1 X92.172 Y93.511 E.01806
G1 X91.657 Y93.954 E.02128
G1 X91.114 Y94.269 E.01968
G1 X90.411 Y94.518 E.02338
G1 X89.687 Y94.614 E.0229
G1 X88.962 Y94.565 E.02278
G1 X88.305 Y94.388 E.02134
G1 X87.675 Y94.078 E.02201
G1 X87.132 Y93.668 E.02134
G1 X86.666 Y93.148 E.02189
G1 X86.329 Y92.596 E.02027
G1 X86.059 Y91.84 E.02518
G1 X85.963 Y91.133 E.02239
G1 X86.015 Y90.384 E.02352
G1 X86.212 Y89.683 E.02285
G1 X86.532 Y89.056 E.02207
G1 X86.968 Y88.504 E.02206
G1 X87.543 Y88.017 E.02364
G1 X88.093 Y87.712 E.01969
G1 X88.758 Y87.489 E.02201
G1 X89.314 Y87.413 E.01758
G1 X89.661 Y87.405 E.01089
G1 X90.203 Y87.451 E.01706
G1 X90.839 Y87.625 E.02068
G1 X91.486 Y87.944 E.02264
G1 X91.92 Y88.274 E.01708
G1 X92.165 Y88.502 E.0105
G1 X92.511 Y88.904 E.01662
G1 X92.834 Y89.459 E.02016
G1 X93.055 Y90.091 E.02096
G1 X93.134 Y90.485 E.01261
G1 X93.167 Y90.858 E.01176
M204 P1250
G1 X92.806 Y90.947 F2400
M204 P800
;TYPE:External perimeter
G1 F1200
G1 X92.74 Y91.659 E.02243
G1 X92.562 Y92.242 E.01911
G1 X92.307 Y92.716 E.01689
G1 X91.881 Y93.271 E.02194
G1 X91.415 Y93.665 E.01912
G1 X90.931 Y93.939 E.01746
G1 X90.294 Y94.159 E.02113
G1 X89.643 Y94.24 E.02056
G1 X88.994 Y94.189 E.0204
G1 X88.409 Y94.025 E.01906
G1 X87.846 Y93.742 E.01975
G1 X87.364 Y93.371 E.01909
G1 X86.951 Y92.901 E.01962
G1 X86.654 Y92.404 E.01813
G1 X86.416 Y91.719 E.02275
G1 X86.337 Y91.088 E.01992
G1 X86.391 Y90.416 E.02114
G1 X86.573 Y89.791 E.02043
G1 X86.865 Y89.233 E.01973
G1 X87.261 Y88.741 E.01978
G1 X87.771 Y88.318 E.02079
G1 X88.272 Y88.043 E.01792
G1 X88.873 Y87.848 E.01982
G1 X89.488 Y87.772 E.01944
G1 X90.171 Y87.827 E.02147
G1 X90.734 Y87.987 E.01835
G1 X91.315 Y88.28 E.02041
G1 X91.793 Y88.654 E.01902
G1 X92.188 Y89.103 E.01878
G1 X92.508 Y89.648 E.01981
G1 X92.696 Y90.209 E.01854
G1 X92.797 Y90.887 E.02151
M204 P1250
G1 X93.155 Y91.142 F2400
G1 E-2.24 F4200
;WIPE_START
G1 F1920
G1 X92.765 Y91.325 E-.912
;WIPE_END
G1 E-.048 F4200
G1 Z.4 F2400
G1 X93.104 Y102.061
G1 Z.2
G1 E3.2
M204 P800
;TYPE:Perimeter
G1 F1200
G1 X87.742 Y100.109 E.17893
G1 X87.452 Y100.036 E.00937
G1 X87.219 Y100.183 E.00864
G1 X85.476 Y99.548 E.05815
G1 X85.416 Y99.306 E.00783
G1 X85.231 Y99.195 E.00675
G1 X79.753 Y97.202 E.18276
G1 X79.392 Y96.592 E.02221
G1 X79.394 Y85.423 E.35022
G1 X79.69 Y84.905 E.01872
G1 X80.071 Y84.326 E.02172
G1 X80.6 Y83.633 E.02733
G1 X81.117 Y83.045 E.02455
G1 X81.607 Y82.554 E.02176
G1 X82.195 Y82.036 E.02459
G1 X82.744 Y81.612 E.02173
G1 X83.317 Y81.221 E.02176
G1 X84.07 Y80.779 E.02738
G1 X84.77 Y80.432 E.0245
G1 X85.412 Y80.163 E.02183
G1 X86.067 Y79.935 E.02174
G1 X86.886 Y79.709 E.02663
G1 X87.387 Y79.605 E.01604
G1 X87.898 Y79.52 E.01625
G1 X88.641 Y79.437 E.02345
;WIDTH:0.459354
G1 X88.786 Y79.447 E.00504
;WIDTH:0.498709
G1 X88.932 Y79.457 E.00552
;WIDTH:0.538064
G1 X89.077 Y79.467 E.00599
G1 X89.027 Y79.49 E.00226
;WIDTH:0.521738
G1 X88.841 Y79.592 E.00843
;WIDTH:0.487825
G1 X88.656 Y79.694 E.00783
;WIDTH:0.453912
G1 X88.47 Y79.796 E.00723
;WIDTH:0.419999
G1 X88.068 Y80.133 E.01645
G1 X87.777 Y80.545 E.0158
G1 X87.579 Y81.088 E.01815
G1 X87.545 Y81.296 E.00661
G1 X87.567 Y81.879 E.01829
G1 X87.716 Y82.341 E.01519
G1 X87.975 Y82.769 E.01571
G1 X88.348 Y83.129 E.01625
G1 X88.734 Y83.362 E.01413
G1 X89.247 Y83.517 E.01681
G1 X89.722 Y83.533 E.0149
G1 X90.408 Y83.365 E.02214
G1 X90.826 Y83.107 E.01539
G1 X91.187 Y82.74 E.01615
G1 X91.43 Y82.338 E.01474
G1 X91.525 Y82.069 E.00896
G1 X91.608 Y81.537 E.01685
G1 X91.559 Y81.062 E.015
G1 X91.322 Y80.483 E.0196
G1 X91.181 Y80.263 E.00821
G1 X90.673 Y79.795 E.02164
;WIDTH:0.455812
G1 X90.445 Y79.681 E.00874
;WIDTH:0.491624
G1 X90.217 Y79.568 E.0095
;WIDTH:0.527436
G1 X89.989 Y79.455 E.01026
G1 X90.142 Y79.446 E.00616
;WIDTH:0.491624
G1 X90.294 Y79.436 E.0057
;WIDTH:0.455812
G1 X90.447 Y79.426 E.00525
;WIDTH:0.419999
G1 X91.05 Y79.487 E.01901
G1 X91.995 Y79.649 E.03006
G1 X92.919 Y79.886 E.02992
G1 X93.906 Y80.233 E.03279
G1 X94.856 Y80.665 E.03273
G1 X95.685 Y81.134 E.02987
G1 X96.554 Y81.727 E.03296
G1 X97.349 Y82.382 E.03231
G1 X98.098 Y83.122 E.03302
G1 X98.498 Y83.577 E.01898
G1 X98.82 Y83.983 E.01626
G1 X99.369 Y84.772 E.03015
G1 X99.724 Y85.367 E.02172
G1 X100.156 Y86.227 E.03018
G1 X100.387 Y86.776 E.01868
G1 X100.699 Y87.684 E.03009
G1 X100.917 Y88.528 E.02735
G1 X101.093 Y89.553 E.03258
G1 X101.178 Y90.868 E.04134
G1 X101.167 Y91.641 E.02424
G1 X101.128 Y92.155 E.01614
G1 X101.052 Y92.757 E.01902
G1 X100.866 Y93.708 E.0304
G1 X100.581 Y94.702 E.03242
G1 X100.205 Y95.675 E.03271
G1 X99.866 Y96.382 E.02459
G1 X99.616 Y96.835 E.01622
G1 X99.293 Y97.358 E.01927
G1 X98.999 Y97.789 E.01636
G1 X98.688 Y98.2 E.01615
G1 X98.062 Y98.93 E.03016
G1 X97.38 Y99.601 E.02999
G1 X96.578 Y100.266 E.03267
G1 X95.718 Y100.859 E.03277
G1 X94.888 Y101.33 E.0299
G1 X93.94 Y101.765 E.03271
G1 X93.161 Y102.041 E.02592
M204 P1250
G1 X93.103 Y102.462 F2400
M204 P800
;TYPE:External perimeter
G1 F1200
G1 X87.476 Y100.416 E.18773
G1 X87.263 Y100.537 E.00766
G1 X87.243 Y100.593 E.00186
G1 X85.194 Y99.847 E.06835
G1 X85.215 Y99.791 E.00186
G1 X85.163 Y99.587 E.00662
G1 X85.102 Y99.55 E.00225
G1 X79.502 Y97.512 E.18685
G1 X79.015 Y96.69 E.02994
G1 X79.016 Y85.322 E.35642
G1 X79.369 Y84.707 E.02223
G1 X79.764 Y84.108 E.0225
G1 X80.308 Y83.394 E.02815
G1 X80.842 Y82.787 E.02534
G1 X81.349 Y82.279 E.02251
G1 X81.955 Y81.745 E.02534
G1 X82.522 Y81.307 E.02246
G1 X83.115 Y80.902 E.02251
G1 X83.891 Y80.447 E.0282
G1 X84.614 Y80.088 E.0253
G1 X85.277 Y79.811 E.02257
G1 X85.955 Y79.575 E.02249
G1 X86.821 Y79.335 E.02818
G1 X87.522 Y79.192 E.02244
G1 X88.324 Y79.08 E.02537
G1 X89.222 Y79.021 E.02822
G1 X89.938 Y79.021 E.02246
G1 X90.476 Y79.05 E.01689
G1 X91.101 Y79.113 E.0197
G1 X92.074 Y79.28 E.03095
G1 X93.029 Y79.525 E.03092
G1 X94.047 Y79.883 E.03383
G1 X95.027 Y80.328 E.03377
G1 X95.885 Y80.813 E.03089
G1 X96.777 Y81.422 E.03386
G1 X97.199 Y81.755 E.01686
G1 X97.605 Y82.105 E.0168
G1 X98.373 Y82.863 E.03383
G1 X98.787 Y83.335 E.01969
G1 X99.123 Y83.757 E.01693
G1 X99.686 Y84.568 E.03094
G1 X100.055 Y85.186 E.02256
G1 X100.498 Y86.069 E.03099
G1 X100.74 Y86.641 E.01948
G1 X101.061 Y87.575 E.03096
G1 X101.286 Y88.449 E.0283
G1 X101.468 Y89.506 E.03363
G1 X101.555 Y90.874 E.04296
G1 X101.544 Y91.658 E.02461
G1 X101.503 Y92.193 E.0168
G1 X101.425 Y92.817 E.01971
G1 X101.234 Y93.792 E.03117
G1 X101.099 Y94.308 E.01671
G1 X100.755 Y95.333 E.0339
G1 X100.549 Y95.829 E.01684
G1 X100.201 Y96.555 E.02525
G1 X99.942 Y97.026 E.01685
G1 X99.609 Y97.564 E.01983
G1 X99.305 Y98.009 E.01691
G1 X98.982 Y98.436 E.0168
G1 X98.338 Y99.187 E.03101
G1 X97.634 Y99.881 E.031
M73 P1 R89
G1 X96.806 Y100.567 E.0337
G1 X95.918 Y101.179 E.03381
G1 X95.06 Y101.666 E.03093
G1 X94.082 Y102.115 E.03375
G1 X93.159 Y102.442 E.03069
M204 P1250
G1 X92.94 Y102.096 F2400
G1 E-2.24 F4200
;WIPE_START
G1 F1920
G1 X92.746 Y102.294 E-.912
;WIPE_END
G1 E-.048 F4200
G1 Z.4 F2400
G1 X89.904 Y79.878
G1 Z.2
G1 E3.2
M204 P800
G1 F1200
G1 X90.228 Y79.981 E.01065
G1 X90.572 Y80.193 E.01268
G1 X90.956 Y80.589 E.0173
G1 X91.171 Y81.068 E.01647
G1 X91.233 Y81.5 E.01369
G1 X91.165 Y81.956 E.01444
G1 X90.95 Y82.433 E.01643
G1 X90.557 Y82.843 E.01779
G1 X90.184 Y83.049 E.01338
G1 X89.644 Y83.164 E.01729
G1 X89.239 Y83.134 E.01274
G1 X88.788 Y82.962 E.01512
G1 X88.541 Y82.792 E.00941
G1 X88.22 Y82.471 E.01422
G1 X88.027 Y82.114 E.01273
G1 X87.935 Y81.778 E.01093
G1 X87.924 Y81.255 E.01641
G1 X88.161 Y80.621 E.02123
G1 X88.387 Y80.342 E.01125
G1 X88.655 Y80.125 E.01081
G1 X88.925 Y79.977 E.00965
G1 X89.288 Y79.877 E.01182
G1 X89.568 Y79.846 E.00883
G1 X89.844 Y79.872 E.0087
M204 P1250
G1 X90.13 Y79.625 F2400
G1 X89.077 Y79.467
M204 P800
;TYPE:Perimeter
;WIDTH:0.538064
G1 F1200
G1 X89.602 Y79.434 E.02168
;WIDTH:0.527436
G1 X89.989 Y79.455 E.01561
M204 P1250
G1 E-2.24 F4200
;WIPE_START
G1 F1920
G1 X89.602 Y79.434 E-.805
G1 X89.551 Y79.437 E-.10699
;WIPE_END
G1 E-.048 F4200
G1 Z.4 F2400
G1 X96.19 Y81.615
G1 Z.2
G1 E3.2
M204 P800
;TYPE:Solid infill
;WIDTH:0.421829
G1 F1200
G1 X97.902 Y83.327 E.07627
G1 X98.281 Y83.758 E.01808
G1 X98.593 Y84.151 E.01583
G1 X99.131 Y84.925 E.0297
G1 X99.377 Y85.338 E.01515
G1 X95.253 Y81.214 E.18378
G1 X94.728 Y80.917 E.01901
