; generated by PrusaSlicer 2.5.0+win64 on 2022-10-14 at 18:15:09 UTC


;
;

;
;
; 

; external perimeters extrusion width = 0.45mm
; perimeters extrusion width = 0.45mm
; infill extrusion width = 0.45mm
; solid infill extrusion width = 0.45mm
; top infill extrusion width = 0.40mm
; first layer extrusion width = 0.42mm

M73 P0 R7
M201 X2500 Y2500 Z400 E5000 ; sets maximum accelerations, mm/sec^2
M203 X180 Y180 Z12 E80 ; sets maximum feedrates, mm / sec
M204 P1250 R1250 T2500 ; sets acceleration (P, T) and retract acceleration (R), mm/sec^2
M205 X8.00 Y8.00 Z2.00 E10.00 ; sets the jerk limits, mm/sec
M205 S0 T0 ; sets the minimum extruding and travel feed rate, mm/sec
M107
;TYPE:Custom
M862.3 P "MINI" ; printer model check
G90 ; use absolute coordinates
M83 ; extruder relative mode
M104 S170 ; set extruder temp for bed leveling
M140 S60 ; set bed temp
M109 R170 ; wait for bed leveling temp
M190 S60 ; wait for bed temp
M204 T1250 ; set travel acceleration
G28 ; home all without mesh bed level
G29 ; mesh bed leveling 
M204 T2500 ; restore travel acceleration
M104 S215 ; set extruder temp
G92 E0
G1 Y-2 X179 F2400
G1 Z3 F720
M109 S215 ; wait for extruder temp

; intro line
G1 X170 F1000
M73 P1 R7
G1 Z0.2 F720
G1 X110 E8 F900
G1 X40 E10 F700
G92 E0

M221 S95 ; set flow
G21 ; set units to millimeters
G90 ; use absolute coordinates
M83 ; use relative distances for extrusion
M900 K0.2 ; Filament gcode LA 1.5
; ; Filament gcode LA 1.0
M107
;LAYER_CHANGE
;Z:0.2
;HEIGHT:0.2
;BEFORE_LAYER_CHANGE
G92 E0.0
;0.2


M73 P2 R7
G1 E-3.2 F4200
M73 P3 R7
G1 Z.2 F720
;AFTER_LAYER_CHANGE
;0.2
G1 Z.4
G1 X67.727 Y80.859 F9000
G1 Z.2 F720
G1 E3.2 F2400
M204 P800
;TYPE:Skirt/Brim
;WIDTH:0.42
G1 F1200
G1 X68.063 Y80.578 E.01374
G1 X69.002 Y80.385 E.03006
G1 X111 Y80.385 E1.31682
G1 X112.307 Y80.776 E.04278
M73 P4 R7
G1 X113.183 Y81.822 E.04278
G1 X113.377 Y82.762 E.03008
G1 X113.377 Y97.24 E.45394
G1 X112.985 Y98.547 E.04278
G1 X111.94 Y99.423 E.04278
G1 X111 Y99.617 E.03008
G1 X69.002 Y99.617 E1.31682
G1 X67.695 Y99.225 E.04278
G1 X66.819 Y98.179 E.04278
G1 X66.625 Y97.24 E.03008
G1 X66.625 Y82.761 E.45397
G1 X67.017 Y81.454 E.04278
G1 X67.681 Y80.898 E.02716
M204 P1000
; printing object kijelzo_tarto_mintaval.stl id:0 copy 0
G1 E-2.24 F4200
;WIPE_START
G1 F7200
G1 X68.063 Y80.578 E-.27607
G1 X69.002 Y80.385 E-.53131
G1 X69.191 Y80.385 E-.10462
;WIPE_END
G1 E-.048 F4200
G1 Z.4 F720
G1 X70.166 Y92.864 F9000
G1 Z.2 F720
G1 E3.2 F2400
M204 P800
;TYPE:Perimeter
;WIDTH:0.419999
G1 F1200
M73 P5 R7
G1 X86.712 Y92.864 E.51879
G1 X87.5 Y93.575 E.03329
G1 X88.086 Y93.917 E.02125
G1 X89.071 Y94.259 E.03272
G1 X90.065 Y94.362 E.03133
G1 X90.741 Y94.297 E.0213
G1 X91.74 Y93.997 E.03271
G1 X92.461 Y93.599 E.0258
G1 X92.837 Y93.289 E.01529
G1 X93.29 Y92.864 E.01946
G1 X109.836 Y92.864 E.51879
G1 X109.836 Y96.075 E.10068
G1 X70.166 Y96.075 E1.24381
G1 X70.166 Y92.924 E.0988
M204 P1000
G1 X69.789 Y92.487 F9000
M204 P800
G1 F1200
G1 X86.888 Y92.487 E.53613
G1 X87.01 Y92.634 E.00599
M73 P6 R7
G1 X87.699 Y93.255 E.02907
G1 X88.218 Y93.564 E.01895
G1 X89.117 Y93.885 E.02991
G1 X90.039 Y93.986 E.02909
G1 X90.642 Y93.933 E.01898
G1 X91.558 Y93.667 E.02991
G1 X92.279 Y93.269 E.0258
G1 X92.582 Y93.012 E.01247
G1 X93.114 Y92.487 E.02343
G1 X110.213 Y92.487 E.53614
G1 X110.213 Y96.452 E.12433
G1 X69.789 Y96.452 E1.26746
G1 X69.789 Y92.547 E.12245
M204 P1000
G1 X69.412 Y92.11 F9000
M204 P800
;TYPE:External perimeter
G1 F1200
G1 X87.076 Y92.11 E.55385
G1 X87.266 Y92.357 E.00976
M73 P7 R7
G1 X87.897 Y92.934 E.02683
G1 X88.351 Y93.211 E.01666
G1 X89.162 Y93.51 E.0271
G1 X90.013 Y93.61 E.02686
G1 X90.543 Y93.569 E.01666
G1 X91.376 Y93.337 E.02712
G1 X92.133 Y92.913 E.0272
G1 X92.736 Y92.357 E.02572
G1 X92.925 Y92.11 E.00974
G1 X110.59 Y92.11 E.55387
G1 X110.59 Y96.83 E.14798
G1 X69.412 Y96.83 E1.29111
G1 X69.412 Y92.17 E.1461
M204 P1000
G1 X69.812 Y92.125 F9000
G1 E-2.24 F4200
;WIPE_START
G1 F7200
G1 X71.058 Y92.164 E-.912
;WIPE_END
G1 E-.048 F4200
G1 Z.4 F720
G1 X109.723 Y93.747 F9000
G1 Z.2 F720
M73 P8 R7
G1 E3.2 F2400
M204 P800
;TYPE:Solid infill
;WIDTH:0.42336
G1 F1200
G1 X109.123 Y93.147 E.02683
G1 X108.585 Y93.147 E.01702
G1 X109.553 Y94.115 E.04331
G1 X109.553 Y94.653 E.01702
G1 X108.047 Y93.147 E.06738
G1 X107.509 Y93.147 E.01702
G1 X109.553 Y95.191 E.09145
G1 X109.553 Y95.729 E.01702
G1 X106.971 Y93.147 E.11552
G1 X106.433 Y93.147 E.01702
G1 X109.079 Y95.793 E.11836
G1 X108.541 Y95.793 E.01702
G1 X105.895 Y93.147 E.11836
G1 X105.357 Y93.147 E.01702
G1 X108.002 Y95.793 E.11836
G1 X107.464 Y95.793 E.01702
G1 X104.819 Y93.147 E.11836
G1 X104.281 Y93.147 E.01702
G1 X106.926 Y95.793 E.11836
G1 X106.388 Y95.793 E.01702
G1 X103.743 Y93.147 E.11836
G1 X103.205 Y93.147 E.01702
G1 X105.85 Y95.793 E.11836
G1 X105.312 Y95.793 E.01702
G1 X102.667 Y93.147 E.11836
G1 X102.129 Y93.147 E.01702
G1 X104.774 Y95.793 E.11836
G1 X104.236 Y95.793 E.01702
G1 X101.591 Y93.147 E.11836
G1 X101.053 Y93.147 E.01702
G1 X103.698 Y95.793 E.11836
G1 X103.16 Y95.793 E.01702
G1 X100.515 Y93.147 E.11836
G1 X99.977 Y93.147 E.01702
G1 X102.622 Y95.793 E.11836
G1 X102.084 Y95.793 E.01702
G1 X99.439 Y93.147 E.11836
G1 X98.901 Y93.147 E.01702
G1 X101.546 Y95.793 E.11836
G1 X101.008 Y95.793 E.01702
G1 X98.363 Y93.147 E.11836
G1 X97.825 Y93.147 E.01702
M73 P9 R7
G1 X100.47 Y95.793 E.11836
G1 X99.932 Y95.793 E.01702
G1 X97.287 Y93.147 E.11836
G1 X96.748 Y93.147 E.01702
G1 X99.394 Y95.793 E.11836
G1 X98.856 Y95.793 E.01702
G1 X96.21 Y93.147 E.11836
G1 X95.672 Y93.147 E.01702
G1 X98.318 Y95.793 E.11836
G1 X97.78 Y95.793 E.01702
G1 X95.134 Y93.147 E.11836
G1 X94.596 Y93.147 E.01702
G1 X97.242 Y95.793 E.11836
G1 X96.704 Y95.793 E.01702
G1 X94.058 Y93.147 E.11836
G1 X93.52 Y93.147 E.01702
G1 X96.166 Y95.793 E.11836
G1 X95.628 Y95.793 E.01702
G1 X93.187 Y93.351 E.10921
G1 X92.907 Y93.61 E.01204
G1 X95.09 Y95.793 E.09766
G1 X94.552 Y95.793 E.01702
G1 X92.603 Y93.844 E.08719
G1 X92.256 Y94.035 E.01253
G1 X94.014 Y95.793 E.07863
G1 X93.476 Y95.793 E.01702
G1 X91.91 Y94.226 E.07007
G1 X91.522 Y94.377 E.01316
G1 X92.938 Y95.793 E.06335
G1 X92.4 Y95.793 E.01702
G1 X91.097 Y94.49 E.05827
G1 X90.667 Y94.598 E.01403
G1 X91.862 Y95.793 E.05345
G1 X91.324 Y95.793 E.01702
M73 P9 R6
G1 X90.166 Y94.635 E.05179
G1 X89.998 Y94.647 E.00533
G1 X89.595 Y94.602 E.01282
G1 X90.786 Y95.793 E.05325
G1 X90.248 Y95.793 E.01702
G1 X88.982 Y94.527 E.05663
G1 X88.759 Y94.472 E.00727
G1 X88.167 Y94.249 E.02001
G1 X89.71 Y95.793 E.06904
G1 X89.172 Y95.793 E.01702
G1 X86.526 Y93.147 E.11836
G1 X85.988 Y93.147 E.01702
G1 X88.634 Y95.793 E.11836
G1 X88.096 Y95.793 E.01702
G1 X85.45 Y93.147 E.11836
G1 X84.912 Y93.147 E.01702
G1 X87.558 Y95.793 E.11836
G1 X87.02 Y95.793 E.01702
M73 P10 R6
G1 X84.374 Y93.147 E.11836
G1 X83.836 Y93.147 E.01702
G1 X86.482 Y95.793 E.11836
G1 X85.944 Y95.793 E.01702
G1 X83.298 Y93.147 E.11836
G1 X82.76 Y93.147 E.01702
G1 X85.406 Y95.793 E.11836
G1 X84.867 Y95.793 E.01702
G1 X82.222 Y93.147 E.11836
G1 X81.684 Y93.147 E.01702
G1 X84.329 Y95.793 E.11836
G1 X83.791 Y95.793 E.01702
G1 X81.146 Y93.147 E.11836
G1 X80.608 Y93.147 E.01702
G1 X83.253 Y95.793 E.11836
G1 X82.715 Y95.793 E.01702
G1 X80.07 Y93.147 E.11836
G1 X79.532 Y93.147 E.01702
G1 X82.177 Y95.793 E.11836
G1 X81.639 Y95.793 E.01702
G1 X78.994 Y93.147 E.11836
G1 X78.456 Y93.147 E.01702
G1 X81.101 Y95.793 E.11836
G1 X80.563 Y95.793 E.01702
G1 X77.918 Y93.147 E.11836
G1 X77.38 Y93.147 E.01702
G1 X80.025 Y95.793 E.11836
G1 X79.487 Y95.793 E.01702
G1 X76.842 Y93.147 E.11836
G1 X76.304 Y93.147 E.01702
G1 X78.949 Y95.793 E.11836
G1 X78.411 Y95.793 E.01702
G1 X75.766 Y93.147 E.11836
G1 X75.228 Y93.147 E.01702
G1 X77.873 Y95.793 E.11836
G1 X77.335 Y95.793 E.01702
G1 X74.69 Y93.147 E.11836
G1 X74.152 Y93.147 E.01702
G1 X76.797 Y95.793 E.11836
G1 X76.259 Y95.793 E.01702
M73 P11 R6
G1 X73.613 Y93.147 E.11836
G1 X73.075 Y93.147 E.01702
G1 X75.721 Y95.793 E.11836
G1 X75.183 Y95.793 E.01702
G1 X72.537 Y93.147 E.11836
G1 X71.999 Y93.147 E.01702
G1 X74.645 Y95.793 E.11836
G1 X74.107 Y95.793 E.01702
G1 X71.461 Y93.147 E.11836
G1 X70.923 Y93.147 E.01702
G1 X73.569 Y95.793 E.11836
G1 X73.031 Y95.793 E.01702
G1 X70.449 Y93.211 E.11551
G1 X70.449 Y93.749 E.01702
G1 X72.493 Y95.793 E.09144
G1 X71.955 Y95.793 E.01702
G1 X70.449 Y94.287 E.06737
G1 X70.449 Y94.825 E.01702
G1 X71.417 Y95.793 E.0433
G1 X70.879 Y95.793 E.01702
G1 X70.279 Y95.193 E.02682
M204 P1000
G1 E-2.24 F4200
;WIPE_START
G1 F7200
G1 X70.879 Y95.793 E-.46992
G1 X71.417 Y95.793 E-.29815
G1 X71.233 Y95.609 E-.14393
;WIPE_END
G1 E-.048 F4200
G1 Z.4 F720
G1 X70.166 Y87.136 F9000
G1 Z.2 F720
G1 E3.2 F2400
M204 P800
;TYPE:Perimeter
;WIDTH:0.419999
G1 F1200
G1 X70.166 Y83.926 E.10064
G1 X109.836 Y83.926 E1.24381
G1 X109.836 Y87.136 E.10064
M73 P12 R6
G1 X93.288 Y87.136 E.51884
G1 X92.461 Y86.401 E.03471
G1 X91.531 Y85.919 E.03284
G1 X90.562 Y85.674 E.03132
G1 X89.887 Y85.643 E.0212
G1 X88.851 Y85.795 E.03284
G1 X87.885 Y86.19 E.03271
G1 X87.066 Y86.772 E.0315
G1 X86.71 Y87.136 E.01596
G1 X70.226 Y87.136 E.51685
M204 P1000
G1 X69.789 Y87.513 F9000
M204 P800
G1 F1200
G1 X69.789 Y83.549 E.12429
G1 X110.213 Y83.549 E1.26746
G1 X110.213 Y87.513 E.12429
G1 X93.112 Y87.513 E.53617
M73 P13 R6
G1 X92.993 Y87.369 E.00588
G1 X92.279 Y86.731 E.03002
G1 X91.433 Y86.283 E.03002
G1 X90.535 Y86.051 E.02908
G1 X89.932 Y86.017 E.01892
G1 X88.984 Y86.148 E.03
G1 X88.098 Y86.501 E.02992
G1 X87.335 Y87.036 E.02921
G1 X86.89 Y87.513 E.02047
G1 X69.849 Y87.513 E.53429
M204 P1000
G1 X69.412 Y87.89 F9000
M204 P800
;TYPE:External perimeter
G1 F1200
G1 X69.412 Y83.172 E.14794
G1 X110.59 Y83.172 E1.29111
G1 X110.59 Y87.89 E.14794
G1 X92.925 Y87.89 E.55389
M73 P14 R6
G1 X92.736 Y87.646 E.00967
G1 X92.096 Y87.061 E.02718
G1 X91.334 Y86.647 E.0272
G1 X90.507 Y86.427 E.02683
G1 X89.977 Y86.391 E.01665
G1 X89.118 Y86.501 E.02716
G1 X88.311 Y86.812 E.02712
G1 X87.604 Y87.3 E.02693
G1 X87.077 Y87.89 E.0248
G1 X69.472 Y87.89 E.552
M204 P1000
G1 X69.608 Y87.541 F9000
G1 E-2.24 F4200
;WIPE_START
G1 F7200
G1 X69.451 Y86.244 E-.912
;WIPE_END
G1 E-.048 F4200
G1 Z.4 F720
G1 X109.723 Y84.808 F9000
G1 Z.2 F720
G1 E3.2 F2400
M204 P800
;TYPE:Solid infill
;WIDTH:0.423348
G1 F1200
G1 X109.123 Y84.209 E.02683
G1 X108.585 Y84.209 E.01702
G1 X109.553 Y85.177 E.0433
G1 X109.553 Y85.715 E.01702
G1 X108.047 Y84.209 E.06737
G1 X107.509 Y84.209 E.01702
G1 X109.553 Y86.253 E.09144
G1 X109.553 Y86.791 E.01702
G1 X106.971 Y84.209 E.11551
G1 X106.433 Y84.209 E.01702
G1 X109.077 Y86.853 E.1183
G1 X108.539 Y86.853 E.01702
G1 X105.895 Y84.209 E.1183
G1 X105.357 Y84.209 E.01702
G1 X108.001 Y86.853 E.1183
G1 X107.463 Y86.853 E.01702
G1 X104.819 Y84.209 E.1183
G1 X104.281 Y84.209 E.01702
G1 X106.925 Y86.853 E.1183
G1 X106.387 Y86.853 E.01702
M73 P15 R6
G1 X103.743 Y84.209 E.1183
G1 X103.205 Y84.209 E.01702
G1 X105.849 Y86.853 E.1183
G1 X105.311 Y86.853 E.01702
G1 X102.667 Y84.209 E.1183
G1 X102.129 Y84.209 E.01702
G1 X104.773 Y86.853 E.1183
G1 X104.235 Y86.853 E.01702
G1 X101.591 Y84.209 E.1183
G1 X101.053 Y84.209 E.01702
G1 X103.697 Y86.853 E.1183
G1 X103.159 Y86.853 E.01702
G1 X100.515 Y84.209 E.1183
G1 X99.977 Y84.209 E.01702
G1 X102.621 Y86.853 E.1183
G1 X102.083 Y86.853 E.01702
G1 X99.439 Y84.209 E.1183
G1 X98.901 Y84.209 E.01702
G1 X101.545 Y86.853 E.1183
G1 X101.007 Y86.853 E.01702
G1 X98.363 Y84.209 E.1183
G1 X97.825 Y84.209 E.01702
G1 X100.469 Y86.853 E.1183
G1 X99.931 Y86.853 E.01702
G1 X97.287 Y84.209 E.1183
G1 X96.749 Y84.209 E.01702
G1 X99.393 Y86.853 E.1183
G1 X98.855 Y86.853 E.01702
G1 X96.211 Y84.209 E.1183
G1 X95.673 Y84.209 E.01702
G1 X98.317 Y86.853 E.1183
G1 X97.779 Y86.853 E.01702
G1 X95.135 Y84.209 E.1183
G1 X94.597 Y84.209 E.01702
G1 X97.241 Y86.853 E.1183
G1 X96.703 Y86.853 E.01702
G1 X94.059 Y84.209 E.1183
G1 X93.521 Y84.209 E.01702
G1 X96.165 Y86.853 E.1183
G1 X95.627 Y86.853 E.01702
M73 P16 R6
G1 X92.983 Y84.209 E.1183
G1 X92.445 Y84.209 E.01702
G1 X95.089 Y86.853 E.1183
G1 X94.551 Y86.853 E.01702
G1 X91.907 Y84.209 E.1183
G1 X91.369 Y84.209 E.01702
G1 X94.013 Y86.853 E.1183
G1 X93.475 Y86.853 E.01702
G1 X90.831 Y84.209 E.1183
G1 X90.293 Y84.209 E.01702
G1 X91.813 Y85.729 E.06801
G1 X91.61 Y85.647 E.00692
G1 X91.039 Y85.493 E.01873
G1 X89.755 Y84.209 E.05743
G1 X89.217 Y84.209 E.01702
G1 X90.387 Y85.379 E.05236
G1 X89.998 Y85.353 E.01235
G1 X89.841 Y85.371 E.005
G1 X88.679 Y84.209 E.05197
G1 X88.141 Y84.209 E.01702
G1 X89.358 Y85.426 E.05444
G1 X88.887 Y85.493 E.01504
G1 X87.603 Y84.209 E.05745
G1 X87.065 Y84.209 E.01702
G1 X88.487 Y85.631 E.06362
G1 X88.097 Y85.779 E.0132
G1 X86.527 Y84.209 E.07023
G1 X85.989 Y84.209 E.01702
G1 X87.732 Y85.952 E.07799
G1 X87.413 Y86.17 E.01224
G1 X85.451 Y84.209 E.08776
G1 X84.913 Y84.209 E.01702
G1 X87.093 Y86.389 E.09754
G1 X86.803 Y86.637 E.01207
G1 X84.375 Y84.209 E.10861
G1 X83.837 Y84.209 E.01702
G1 X86.481 Y86.853 E.1183
G1 X85.943 Y86.853 E.01702
G1 X83.299 Y84.209 E.1183
G1 X82.761 Y84.209 E.01702
G1 X85.405 Y86.853 E.1183
G1 X84.867 Y86.853 E.01702
G1 X82.223 Y84.209 E.1183
G1 X81.685 Y84.209 E.01702
G1 X84.329 Y86.853 E.1183
G1 X83.791 Y86.853 E.01702
G1 X81.147 Y84.209 E.1183
G1 X80.609 Y84.209 E.01702
G1 X83.253 Y86.853 E.1183
G1 X82.715 Y86.853 E.01702
G1 X80.071 Y84.209 E.1183
G1 X79.533 Y84.209 E.01702
M73 P17 R6
G1 X82.177 Y86.853 E.1183
G1 X81.639 Y86.853 E.01702
G1 X78.995 Y84.209 E.1183
G1 X78.457 Y84.209 E.01702
G1 X81.101 Y86.853 E.1183
G1 X80.563 Y86.853 E.01702
G1 X77.919 Y84.209 E.1183
G1 X77.381 Y84.209 E.01702
G1 X80.025 Y86.853 E.1183
G1 X79.487 Y86.853 E.01702
G1 X76.843 Y84.209 E.1183
G1 X76.305 Y84.209 E.01702
G1 X78.949 Y86.853 E.1183
G1 X78.411 Y86.853 E.01702
G1 X75.767 Y84.209 E.1183
G1 X75.229 Y84.209 E.01702
G1 X77.873 Y86.853 E.1183
G1 X77.335 Y86.853 E.01702
G1 X74.691 Y84.209 E.1183
G1 X74.153 Y84.209 E.01702
G1 X76.797 Y86.853 E.1183
G1 X76.259 Y86.853 E.01702
G1 X73.615 Y84.209 E.1183
G1 X73.077 Y84.209 E.01702
G1 X75.721 Y86.853 E.1183
G1 X75.183 Y86.853 E.01702
G1 X72.539 Y84.209 E.1183
G1 X72.001 Y84.209 E.01702
G1 X74.645 Y86.853 E.1183
G1 X74.107 Y86.853 E.01702
G1 X71.463 Y84.209 E.1183
G1 X70.925 Y84.209 E.01702
G1 X73.569 Y86.853 E.1183
G1 X73.031 Y86.853 E.01702
G1 X70.449 Y84.271 E.11551
G1 X70.449 Y84.809 E.01702
G1 X72.493 Y86.853 E.09144
G1 X71.955 Y86.853 E.01702
G1 X70.449 Y85.347 E.06737
G1 X70.449 Y85.885 E.01702
G1 X71.417 Y86.853 E.0433
G1 X70.879 Y86.853 E.01702
M73 P18 R6
G1 X70.279 Y86.253 E.02683
M204 P1000
; stop printing object kijelzo_tarto_mintaval.stl id:0 copy 0
M106 S84.15
;LAYER_CHANGE
;Z:0.3
;HEIGHT:0.1
;BEFORE_LAYER_CHANGE
G92 E0.0
;0.3


G1 E-2.24 F4200
;WIPE_START
G1 F7200
G1 X70.879 Y86.853 E-.46995
G1 X71.417 Y86.853 E-.29814
G1 X71.233 Y86.669 E-.1439
;WIPE_END
G1 E-.048 F4200
G1 Z.4 F720
;AFTER_LAYER_CHANGE
;0.3
G1 X66.625 Y86.669 F9000
G1 Z.3 F720
G1 E3.2 F2400
;TYPE:Skirt/Brim
;WIDTH:0.42
G1 X66.625 Y82.761 E.06476
G1 X67.017 Y81.454 E.02261
G1 X68.063 Y80.578 E.02261
G1 X69.002 Y80.385 E.01589
G1 X111 Y80.385 E.69588
G1 X112.307 Y80.776 E.02261
G1 X113.183 Y81.822 E.02261
G1 X113.377 Y82.762 E.0159
G1 X113.377 Y97.24 E.23989
G1 X112.985 Y98.547 E.02261
G1 X111.94 Y99.423 E.02261
G1 X111 Y99.617 E.0159
G1 X69.002 Y99.617 E.69588
G1 X67.695 Y99.225 E.02261
G1 X66.819 Y98.179 E.02261
G1 X66.625 Y97.24 E.01589
G1 X66.625 Y86.729 E.17415
; printing object kijelzo_tarto_mintaval.stl id:0 copy 0
G1 E-2.24 F4200
;WIPE_START
G1 F7200
G1 X66.625 Y85.084 E-.912
;WIPE_END
G1 E-.048 F4200
G1 Z.5 F720
G1 X70.084 Y92.782 F9000
G1 Z.3 F720
G1 E3.2 F2400
M204 P600
;TYPE:Perimeter
;WIDTH:0.449999
G1 X86.751 Y92.782 E.29694
G1 X87.556 Y93.514 E.01938
M73 P19 R6
G1 X88.138 Y93.85 E.01198
G1 X89.107 Y94.182 E.01825
G1 X89.872 Y94.274 E.01372
G1 X90.128 Y94.274 E.00457
G1 X91.144 Y94.121 E.0183
G1 X92.094 Y93.73 E.01831
G1 X92.885 Y93.163 E.01735
G1 X93.254 Y92.782 E.00945
G1 X109.918 Y92.782 E.29689
G1 X109.918 Y95.944 E.05634
G1 X70.084 Y95.944 E.7097
G1 X70.084 Y92.842 E.05527
M204 P1000
G1 X69.656 Y92.354 F9000
M204 P600
G1 F2400
G1 X86.957 Y92.354 E.30825
G1 X87.118 Y92.554 E.00457
G1 X87.781 Y93.149 E.01588
G1 X88.289 Y93.449 E.0105
