; generated by PrusaSlicer 2.5.0+win64 on 2022-10-14 at 18:14:43 UTC


;
;

;
;
; 

; external perimeters extrusion width = 0.45mm
; perimeters extrusion width = 0.45mm
; infill extrusion width = 0.45mm
; solid infill extrusion width = 0.45mm
; top infill extrusion width = 0.40mm
; first layer extrusion width = 0.42mm

M73 P0 R2
M201 X2500 Y2500 Z400 E5000 ; sets maximum accelerations, mm/sec^2
M203 X180 Y180 Z12 E80 ; sets maximum feedrates, mm / sec
M204 P1250 R1250 T2500 ; sets acceleration (P, T) and retract acceleration (R), mm/sec^2
M205 X8.00 Y8.00 Z2.00 E10.00 ; sets the jerk limits, mm/sec
M205 S0 T0 ; sets the minimum extruding and travel feed rate, mm/sec
M107
;TYPE:Custom
M862.3 P "MINI" ; printer model check
G90 ; use absolute coordinates
M83 ; extruder relative mode
M104 S170 ; set extruder temp for bed leveling
M140 S60 ; set bed temp
M109 R170 ; wait for bed leveling temp
M190 S60 ; wait for bed temp
M204 T1250 ; set travel acceleration
G28 ; home all without mesh bed level
G29 ; mesh bed leveling 
M204 T2500 ; restore travel acceleration
M104 S215 ; set extruder temp
G92 E0
G1 Y-2 X179 F2400
G1 Z3 F720
M109 S215 ; wait for extruder temp

; intro line
M73 P3 R2
G1 X170 F1000
G1 Z0.2 F720
G1 X110 E8 F900
G1 X40 E10 F700
G92 E0

M221 S95 ; set flow
G21 ; set units to millimeters
G90 ; use absolute coordinates
M83 ; use relative distances for extrusion
M900 K0.2 ; Filament gcode LA 1.5
; ; Filament gcode LA 1.0
M107
;LAYER_CHANGE
;Z:0.2
;HEIGHT:0.2
;BEFORE_LAYER_CHANGE
G92 E0.0
;0.2


M73 P6 R2
G1 E-3.2 F4200
M73 P10 R2
G1 Z.2 F720
;AFTER_LAYER_CHANGE
;0.2
G1 Z.4
G1 X81.282 Y79.998 F9000
G1 Z.2 F720
M73 P11 R2
G1 E3.2 F2400
M204 P800
;TYPE:Skirt/Brim
;WIDTH:0.42
G1 F1200
G1 X81.955 Y79.325 E.02984
G1 X83.044 Y78.707 E.03926
G1 X84.074 Y78.403 E.03367
G1 X95.34 Y78.352 E.35323
G1 X95.926 Y78.403 E.01842
G1 X96.626 Y78.578 E.02264
G1 X97.48 Y78.963 E.02937
G1 X98.041 Y79.322 E.0209
G1 X98.849 Y80.178 E.03689
G1 X99.362 Y81.273 E.03792
M73 P12 R2
G1 X100.449 Y86.593 E.17025
G1 X100.503 Y87.139 E.0172
G1 X100.501 Y90.676 E.11091
G1 X100.433 Y91.689 E.03184
G1 X100.157 Y93.172 E.04729
G1 X99.676 Y94.597 E.04714
G1 X99.001 Y95.942 E.0472
G1 X98.177 Y97.157 E.04603
G1 X95.599 Y100.309 E.12767
G1 X94.999 Y100.836 E.02505
G1 X94.33 Y101.234 E.02439
G1 X93.547 Y101.517 E.02612
G1 X92.567 Y101.648 E.03101
G1 X87.349 Y101.646 E.16358
G1 X86.64 Y101.56 E.02242
M73 P13 R2
G1 X85.958 Y101.36 E.02227
G1 X85.146 Y100.937 E.02871
G1 X84.459 Y100.369 E.02794
G1 X81.722 Y97.025 E.13549
G1 X81.04 Y96.012 E.0383
G1 X80.564 Y95.131 E.03139
G1 X80.143 Y94.134 E.03393
G1 X79.799 Y92.996 E.03729
G1 X79.509 Y90.983 E.06377
G1 X79.497 Y87.139 E.12052
G1 X80.569 Y81.557 E.17821
G1 X80.802 Y80.81 E.02454
G1 X81.251 Y80.049 E.0277
M204 P1000
G1 X81.576 Y80.243 F9000
M204 P800
G1 F1200
G1 X81.605 Y80.196 E.00175
G1 X82.191 Y79.619 E.02576
G1 X83.198 Y79.051 E.03627
G1 X84.13 Y78.776 E.03047
M73 P14 R2
G1 X95.331 Y78.729 E.35119
G1 X96.507 Y78.936 E.03743
G1 X97.306 Y79.298 E.0275
G1 X97.806 Y79.617 E.0186
G1 X98.229 Y80.002 E.01794
G1 X98.587 Y80.464 E.01834
G1 X99.036 Y81.517 E.03589
G1 X100.126 Y87.139 E.17955
G1 X100.124 Y90.672 E.11078
G1 X100.058 Y91.649 E.0307
G1 X99.79 Y93.085 E.04582
G1 X99.326 Y94.456 E.04537
M73 P15 R2
G1 X98.667 Y95.766 E.04598
G1 X97.885 Y96.919 E.04369
G1 X95.328 Y100.047 E.12666
G1 X94.857 Y100.471 E.01987
G1 X94.237 Y100.86 E.02295
G1 X93.449 Y101.153 E.02636
G1 X92.558 Y101.271 E.0282
G1 X87.358 Y101.269 E.16302
G1 X86.712 Y101.19 E.02043
G1 X86.09 Y101.007 E.02031
G1 X85.359 Y100.626 E.02586
G1 X84.73 Y100.107 E.02556
G1 X82.028 Y96.805 E.13377
G1 X81.362 Y95.815 E.03743
G1 X80.902 Y94.964 E.03032
G1 X80.499 Y94.009 E.03251
G1 X80.164 Y92.903 E.03621
G1 X79.885 Y90.963 E.06148
M73 P16 R2
G1 X79.874 Y87.139 E.11989
G1 X80.939 Y81.632 E.17587
G1 X81.147 Y80.962 E.02199
G1 X81.546 Y80.295 E.02438
M204 P1000
; printing object display_clamp_2pcs.stl id:0 copy 0
G1 E-2.24 F4200
;WIPE_START
G1 F7200
G1 X81.605 Y80.196 E-.06411
G1 X82.191 Y79.619 E-.45527
G1 X82.808 Y79.271 E-.39262
;WIPE_END
G1 E-.048 F4200
G1 Z.4 F720
G1 X84.125 Y82.137 F9000
G1 Z.2 F720
G1 E3.2 F2400
M204 P800
;TYPE:Perimeter
;WIDTH:0.419999
G1 F1200
G1 X84.553 Y81.922 E.01501
G1 X84.754 Y81.905 E.00634
G1 X85.036 Y81.97 E.00906
G1 X85.31 Y82.175 E.01072
G1 X85.418 Y82.377 E.00719
G1 X85.462 Y82.651 E.00871
G1 X85.462 Y94.255 E.36381
G1 X85.526 Y94.563 E.00986
M73 P17 R2
G1 X85.756 Y94.809 E.01058
;WIDTH:0.452546
G1 X86.132 Y95.13 E.01684
;WIDTH:0.485092
G1 X86.508 Y95.452 E.01818
G1 X86.366 Y95.428 E.0053
;WIDTH:0.459338
G1 X86.224 Y95.404 E.00499
;WIDTH:0.433583
G1 X85.545 Y95.407 E.02205
;WIDTH:0.419999
G1 X85.201 Y95.346 E.01094
G1 X84.886 Y95.2 E.01088
G1 X84.652 Y95.006 E.00955
G1 X84.346 Y94.601 E.01591
G1 X84.066 Y94.171 E.01608
G1 X83.744 Y93.571 E.02135
G1 X83.479 Y92.944 E.02136
G1 X83.322 Y92.467 E.01574
M73 P17 R1
G1 X83.164 Y91.802 E.02143
G1 X83.088 Y91.306 E.01571
G1 X83.04 Y90.622 E.02151
G1 X83.038 Y87.416 E.10053
G1 X83.913 Y86.327 E.04379
G1 X84.038 Y85.973 E.01178
G1 X84.038 Y82.352 E.11354
G1 X84.102 Y82.192 E.00539
M204 P1000
G1 E-2.24 F4200
;WIPE_START
G1 F7200
G1 X84.553 Y81.922 E-.29105
G1 X84.754 Y81.905 E-.11199
G1 X85.036 Y81.97 E-.16011
G1 X85.31 Y82.175 E-.18948
G1 X85.418 Y82.377 E-.12713
G1 X85.427 Y82.434 E-.03224
;WIPE_END
G1 E-.048 F4200
G1 Z.4 F720
G1 X94.538 Y82.66 F9000
G1 Z.2 F720
G1 E3.2 F2400
M204 P800
M73 P18 R1
G1 F1200
G1 X94.636 Y82.247 E.01331
G1 X94.871 Y82.02 E.01022
G1 X95.144 Y81.905 E.00932
G1 X95.432 Y81.927 E.00903
G1 X95.859 Y82.119 E.01469
G1 X95.962 Y82.293 E.00633
G1 X95.962 Y85.973 E.11539
G1 X96.087 Y86.327 E.01178
G1 X96.962 Y87.416 E.04379
G1 X96.96 Y90.626 E.10064
G1 X96.931 Y91.132 E.01588
G1 X96.835 Y91.809 E.02144
G1 X96.724 Y92.302 E.01584
G1 X96.576 Y92.789 E.01598
G1 X96.396 Y93.26 E.0158
G1 X96.102 Y93.877 E.02142
G1 X95.85 Y94.309 E.01568
G1 X95.422 Y94.918 E.02334
G1 X95.155 Y95.172 E.01156
G1 X94.915 Y95.308 E.00864
G1 X94.487 Y95.407 E.01378
G1 X93.776 Y95.411 E.02227
;WIDTH:0.448048
G1 X93.593 Y95.462 E.00643
;WIDTH:0.476096
G1 X93.409 Y95.513 E.00687
G1 X93.561 Y95.373 E.00745
;WIDTH:0.448048
G1 X93.713 Y95.233 E.00697
;WIDTH:0.419999
G1 X94.244 Y94.809 E.02128
G1 X94.458 Y94.592 E.00957
G1 X94.538 Y94.301 E.00944
G1 X94.538 Y82.72 E.36312
M204 P1000
G1 E-2.24 F4200
;WIPE_START
M73 P19 R1
G1 F7200
G1 X94.636 Y82.247 E-.26773
G1 X94.871 Y82.02 E-.18064
G1 X95.144 Y81.905 E-.16474
G1 X95.432 Y81.927 E-.15959
G1 X95.661 Y82.03 E-.1393
;WIPE_END
G1 E-.048 F4200
G1 Z.4 F720
G1 X96.191 Y81.907 F9000
G1 Z.2 F720
G1 E3.2 F2400
M204 P800
;TYPE:External perimeter
G1 F1200
G1 X96.339 Y82.261 E.01204
G1 X96.339 Y85.973 E.11638
G1 X96.381 Y86.091 E.00393
G1 X97.339 Y87.283 E.04796
G1 X97.337 Y90.637 E.10514
G1 X97.307 Y91.169 E.01672
G1 X97.206 Y91.877 E.02242
G1 X97.089 Y92.398 E.01675
G1 X96.933 Y92.911 E.01681
G1 X96.743 Y93.409 E.01669
G1 X96.435 Y94.053 E.0224
G1 X96.167 Y94.512 E.01667
G1 X95.731 Y95.135 E.02383
G1 X95.404 Y95.455 E.01436
G1 X95.082 Y95.646 E.01174
G1 X94.524 Y95.783 E.018
G1 X93.779 Y95.788 E.02338
G1 X93.662 Y95.829 E.00388
;WIDTH:0.467131
G1 X93.615 Y95.88 E.00245
;WIDTH:0.514262
G1 X93.568 Y95.931 E.00272
;WIDTH:0.561393
G1 X93.52 Y95.982 E.00299
G1 X93.526 Y96.231 E.01073
;WIDTH:0.560495
G1 X93.561 Y96.499 E.01164
;WIDTH:0.517999
G1 X93.595 Y96.767 E.01069
;WIDTH:0.475502
G1 X93.63 Y97.036 E.00973
;WIDTH:0.433005
G1 X93.639 Y97.577 E.01757
;WIDTH:0.419073
G1 X93.525 Y97.938 E.01183
;WIDTH:0.419585
M73 P20 R1
G1 X93.242 Y98.28 E.0139
;WIDTH:0.421036
G1 X92.977 Y98.45 E.0099
G1 X92.593 Y98.54 E.01241
;WIDTH:0.42939
G1 X92.172 Y98.532 E.01351
;WIDTH:0.477309
G1 X92.002 Y98.496 E.00628
;WIDTH:0.525227
G1 X91.832 Y98.461 E.00698
;WIDTH:0.573145
G1 X91.661 Y98.426 E.00767
G1 X89.775 Y98.41 E.08319
;WIDTH:0.569591
G1 X89.77 Y98.41 E.00019
;WIDTH:0.57484
G1 X88.881 Y98.416 E.03932
G1 X88.585 Y98.448 E.01317
;WIDTH:0.532546
G1 X88.289 Y98.48 E.01212
;WIDTH:0.490251
G1 X87.993 Y98.511 E.01107
;WIDTH:0.447956
G1 X87.439 Y98.551 E.01869
;WIDTH:0.419551
G1 X87.011 Y98.446 E.01381
;WIDTH:0.419896
G1 X86.633 Y98.169 E.01469
G1 X86.407 Y97.775 E.01424
;WIDTH:0.421572
G1 X86.341 Y97.369 E.01296
;WIDTH:0.470237
G1 X86.393 Y96.959 E.01469
;WIDTH:0.518901
G1 X86.446 Y96.549 E.01636
;WIDTH:0.545087
G1 X86.465 Y96.289 E.01087
;WIDTH:0.571272
G1 X86.483 Y96.03 E.01143
G1 X86.454 Y95.986 E.00233
;WIDTH:0.533454
G1 X86.424 Y95.942 E.00216
;WIDTH:0.495636
G1 X86.394 Y95.898 E.002
;WIDTH:0.457818
G1 X86.364 Y95.854 E.00183
;WIDTH:0.419999
G1 X86.221 Y95.788 E.00494
G1 X85.543 Y95.784 E.02128
G1 X85.129 Y95.716 E.01314
G1 X84.711 Y95.534 E.01429
G1 X84.331 Y95.223 E.01541
G1 X84.035 Y94.815 E.01581
G1 X83.742 Y94.363 E.01687
G1 X83.403 Y93.734 E.0224
G1 X83.125 Y93.076 E.0224
G1 X82.959 Y92.569 E.01672
G1 X82.794 Y91.874 E.0224
G1 X82.713 Y91.348 E.01669
G1 X82.663 Y90.635 E.02241
G1 X82.661 Y87.283 E.1051
G1 X83.619 Y86.091 E.04796
G1 X83.661 Y85.973 E.00393
G1 X83.661 Y82.605 E.10562
G1 X83.706 Y82.078 E.01658
G1 X83.859 Y81.858 E.00839
G1 X84.079 Y81.72 E.00815
G1 X84.546 Y81.54 E.01569
G1 X85.027 Y81.552 E.01507
G1 X85.351 Y81.699 E.01115
G1 X85.612 Y81.941 E.01117
G1 X85.78 Y82.254 E.01116
G1 X85.839 Y82.621 E.01165
M73 P21 R1
G1 X85.839 Y94.301 E.36622
G1 X85.91 Y94.449 E.00512
G1 X87.089 Y95.392 E.04734
G1 X87.088 Y95.59 E.00621
;WIDTH:0.457818
G1 X87.069 Y95.709 E.00415
;WIDTH:0.495636
G1 X87.049 Y95.827 E.00453
;WIDTH:0.533454
G1 X87.03 Y95.946 E.00491
;WIDTH:0.571272
G1 X86.961 Y96.343 E.01767
;WIDTH:0.545087
G1 X86.912 Y96.62 E.01177
;WIDTH:0.518901
G1 X86.842 Y96.811 E.00804
;WIDTH:0.483105
G1 X86.771 Y97.001 E.00743
;WIDTH:0.447309
G1 X86.717 Y97.409 E.01383
;WIDTH:0.421572
G1 X86.752 Y97.624 E.00686
;WIDTH:0.420921
G1 X86.916 Y97.917 E.01057
;WIDTH:0.419983
G1 X87.159 Y98.1 E.00952
G1 X87.392 Y98.171 E.00763
;WIDTH:0.447956
G1 X87.897 Y98.124 E.01711
;WIDTH:0.494085
G1 X88.137 Y98.043 E.00951
;WIDTH:0.540213
G1 X88.378 Y97.961 E.01048
;WIDTH:0.57484
G1 X88.879 Y97.884 E.02244
G1 X89.777 Y97.884 E.03972
;WIDTH:0.573145
G1 X91.19 Y97.888 E.06232
G1 X91.815 Y98.045 E.02837
;WIDTH:0.539313
G1 X91.981 Y98.098 E.00722
;WIDTH:0.50548
G1 X92.148 Y98.15 E.00673
;WIDTH:0.471647
G1 X92.311 Y98.165 E.00584
;WIDTH:0.445599
G1 X92.474 Y98.18 E.00548
;WIDTH:0.41955
G1 X92.704 Y98.147 E.00725
;WIDTH:0.417222
G1 X92.917 Y98.058 E.00719
;WIDTH:0.418657
G1 X93.183 Y97.778 E.01207
G1 X93.272 Y97.527 E.00834
;WIDTH:0.447313
G1 X93.229 Y97.001 E.01773
;WIDTH:0.485041
G1 X93.159 Y96.77 E.00887
;WIDTH:0.522768
G1 X93.089 Y96.539 E.00962
;WIDTH:0.560495
G1 X93.019 Y96.308 E.01038
;WIDTH:0.561393
G1 X92.973 Y95.793 E.02229
;WIDTH:0.514262
G1 X92.943 Y95.592 E.00799
;WIDTH:0.467131
G1 X92.914 Y95.39 E.00719
;WIDTH:0.419999
G1 X94.09 Y94.449 E.04724
G1 X94.161 Y94.301 E.00512
G1 X94.161 Y82.727 E.36289
G1 X94.244 Y82.188 E.01713
M73 P22 R1
G1 X94.415 Y81.922 E.00989
G1 X94.661 Y81.707 E.01027
G1 X94.955 Y81.567 E.01021
G1 X95.226 Y81.526 E.00858
G1 X95.53 Y81.563 E.00959
G1 X95.968 Y81.751 E.01495
G1 X96.142 Y81.872 E.00666
M204 P1000
G1 X96.034 Y82.257 F9000
G1 E-2.24 F4200
;WIPE_START
G1 F7200
G1 X96.339 Y82.261 E-.24155
G1 X96.339 Y83.471 E-.67045
;WIPE_END
G1 E-.048 F4200
G1 Z.4 F720
G1 X86.508 Y95.452 F9000
G1 Z.2 F720
G1 E3.2 F2400
M204 P800
;TYPE:Perimeter
;WIDTH:0.487254
G1 F1200
G1 X86.678 Y95.589 E.00807
G1 X86.688 Y95.649 E.00224
M204 P1000
G1 E-2.24 F4200
;WIPE_START
G1 F7200
G1 X86.678 Y95.589 E-.03359
G1 X86.508 Y95.452 E-.12107
;WIPE_END
G1 E-.80534 F4200
G1 Z.4 F720
G1 X85.342 Y82.617 F9000
G1 Z.2 F720
M73 P23 R1
G1 E3.2 F2400
M204 P800
;TYPE:Solid infill
;WIDTH:0.432541
G1 F1200
G1 X84.981 Y82.256 E.01654
G1 X84.856 Y82.199 E.00446
G1 X84.632 Y82.196 E.00723
G1 X84.451 Y82.277 E.00642
G1 X85.179 Y83.005 E.03336
G1 X85.179 Y83.556 E.01785
G1 X84.32 Y82.697 E.03937
G1 X84.318 Y83.246 E.0178
G1 X85.179 Y84.107 E.03944
G1 X85.179 Y84.658 E.01785
G1 X84.317 Y83.795 E.03952
G1 X84.315 Y84.345 E.0178
G1 X85.179 Y85.209 E.0396
G1 X85.179 Y85.76 E.01785
G1 X84.313 Y84.894 E.03967
G1 X84.312 Y85.443 E.0178
G1 X85.179 Y86.311 E.03975
G1 X85.179 Y86.862 E.01785
G1 X84.31 Y85.993 E.03983
G1 X84.309 Y86.124 E.00425
G1 X84.179 Y86.412 E.01027
G1 X85.179 Y87.413 E.04584
G1 X85.179 Y87.964 E.01785
G1 X83.949 Y86.734 E.05635
G1 X83.704 Y87.039 E.0127
G1 X85.179 Y88.515 E.0676
G1 X85.179 Y89.066 E.01785
G1 X83.458 Y87.345 E.07885
G1 X83.321 Y87.515 E.00709
M73 P24 R1
G1 X83.321 Y87.759 E.00789
G1 X85.179 Y89.617 E.08512
G1 X85.179 Y90.168 E.01785
G1 X83.321 Y88.31 E.08511
G1 X83.322 Y88.862 E.01786
G1 X85.179 Y90.719 E.0851
G1 X85.179 Y91.27 E.01785
G1 X83.322 Y89.413 E.08508
G1 X83.322 Y89.964 E.01786
G1 X85.179 Y91.821 E.08507
G1 X85.179 Y92.372 E.01785
G1 X83.323 Y90.516 E.08505
G1 X83.357 Y91.101 E.01898
G1 X85.179 Y92.923 E.08349
G1 X85.179 Y93.474 E.01785
G1 X83.44 Y91.735 E.07969
G1 X83.62 Y92.465 E.02438
G1 X85.179 Y94.025 E.07146
M73 P25 R1
G1 X85.179 Y94.309 E.00919
G1 X85.217 Y94.555 E.00809
G1 X85.259 Y94.656 E.00353
G1 X83.96 Y93.357 E.05951
G1 X84.31 Y94.027 E.02447
G1 X84.579 Y94.441 E.016
G1 X84.805 Y94.753 E.01249
G1 X85.302 Y95.25 E.02277
M204 P1000
G1 E-2.24 F4200
;WIPE_START
G1 F7200
G1 X84.805 Y94.753 E-.38943
G1 X84.579 Y94.441 E-.21369
G1 X84.31 Y94.027 E-.27368
G1 X84.28 Y93.97 E-.03521
;WIPE_END
G1 E-.048 F4200
G1 Z.4 F720
G1 X95.851 Y83.051 F9000
G1 Z.2 F720
G1 E3.2 F2400
M204 P800
;WIDTH:0.425735
G1 F1200
G1 X95.044 Y82.244 E.03632
G1 X94.956 Y82.303 E.00336
G1 X94.874 Y82.411 E.00432
G1 X94.841 Y82.583 E.00557
G1 X95.682 Y83.424 E.03789
G1 X95.684 Y83.967 E.01728
G1 X94.821 Y83.104 E.03886
G1 X94.821 Y83.645 E.01723
G1 X95.686 Y84.51 E.03893
G1 X95.687 Y85.053 E.01728
G1 X94.821 Y84.187 E.039
G1 X94.821 Y84.728 E.01723
G1 X95.689 Y85.596 E.03908
G1 X95.703 Y86.152 E.01769
G1 X94.821 Y85.269 E.03972
M73 P26 R1
G1 X94.821 Y85.811 E.01723
G1 X96.679 Y87.669 E.08364
G1 X96.679 Y88.21 E.01722
G1 X94.821 Y86.352 E.08363
G1 X94.821 Y86.894 E.01723
G1 X96.678 Y88.751 E.08361
G1 X96.678 Y89.292 E.01722
G1 X94.821 Y87.435 E.0836
G1 X94.821 Y87.976 E.01723
G1 X96.678 Y89.833 E.08358
G1 X96.677 Y90.374 E.01722
G1 X94.821 Y88.518 E.08357
G1 X94.821 Y89.059 E.01723
G1 X96.661 Y90.899 E.08284
G1 X96.65 Y91.104 E.00651
G1 X96.609 Y91.389 E.00916
G1 X94.821 Y89.601 E.08049
G1 X94.821 Y90.142 E.01723
M73 P27 R1
G1 X96.534 Y91.855 E.07714
G1 X96.431 Y92.293 E.01432
G1 X94.821 Y90.683 E.07247
G1 X94.821 Y91.225 E.01723
G1 X96.304 Y92.708 E.06676
G1 X96.155 Y93.1 E.01336
G1 X94.821 Y91.766 E.06005
G1 X94.821 Y92.307 E.01723
G1 X95.983 Y93.47 E.05231
G1 X95.802 Y93.83 E.01283
G1 X94.821 Y92.849 E.04416
G1 X94.821 Y93.39 E.01723
G1 X95.601 Y94.17 E.03512
G1 X95.378 Y94.489 E.01237
G1 X94.821 Y93.932 E.02507
G1 X94.821 Y94.309 E.012
G1 X94.799 Y94.451 E.00459
G1 X95.149 Y94.801 E.01575
G1 X94.951 Y94.975 E.00839
G1 X94.837 Y95.031 E.00402
G1 X94.636 Y94.829 E.00908
G1 X94.345 Y95.08 E.01222
G1 X94.545 Y95.28 E.00899
M204 P1000
; stop printing object display_clamp_2pcs.stl id:0 copy 0
M106 S84.15
;LAYER_CHANGE
;Z:0.4
;HEIGHT:0.2
;BEFORE_LAYER_CHANGE
G92 E0.0
;0.4


G1 E-2.24 F4200
;WIPE_START
G1 F7200
G1 X94.345 Y95.08 E-.15657
G1 X94.636 Y94.829 E-.2127
G1 X94.837 Y95.031 E-.15816
G1 X94.951 Y94.975 E-.07002
G1 X95.149 Y94.801 E-.14615
G1 X94.934 Y94.586 E-.1684
;WIPE_END
G1 E-.048 F4200
G1 Z.4 F720
;AFTER_LAYER_CHANGE
;0.4
G1 Z.6
G1 X98.351 Y96.902 F9000
G1 Z.4 F720
G1 E3.2 F2400
;TYPE:Skirt/Brim
;WIDTH:0.42
M73 P28 R1
G1 F2362
G1 X98.177 Y97.157 E.00969
G1 X95.599 Y100.309 E.12767
G1 X94.999 Y100.836 E.02505
G1 X94.33 Y101.234 E.02439
G1 X93.547 Y101.517 E.02612
G1 X92.567 Y101.648 E.03101
G1 X87.349 Y101.646 E.16358
G1 X86.64 Y101.56 E.02242
G1 X85.958 Y101.36 E.02227
G1 X85.146 Y100.937 E.02871
G1 X84.459 Y100.369 E.02794
G1 X81.722 Y97.025 E.13549
G1 X81.04 Y96.012 E.0383
G1 X80.564 Y95.131 E.03139
G1 X80.143 Y94.134 E.03393
G1 X79.799 Y92.996 E.03729
G1 X79.509 Y90.983 E.06377
G1 X79.497 Y87.139 E.12052
G1 X80.569 Y81.557 E.17821
G1 X80.802 Y80.81 E.02454
