; generated by PrusaSlicer 2.5.0+win64 on 2022-10-14 at 18:15:21 UTC


;
;

;
;
; 

; external perimeters extrusion width = 0.45mm
; perimeters extrusion width = 0.45mm
; infill extrusion width = 0.45mm
; solid infill extrusion width = 0.45mm
; top infill extrusion width = 0.40mm
; first layer extrusion width = 0.42mm

M73 P0 R9
M201 X2500 Y2500 Z400 E5000 ; sets maximum accelerations, mm/sec^2
M203 X180 Y180 Z12 E80 ; sets maximum feedrates, mm / sec
M204 P1250 R1250 T2500 ; sets acceleration (P, T) and retract acceleration (R), mm/sec^2
M205 X8.00 Y8.00 Z2.00 E10.00 ; sets the jerk limits, mm/sec
M205 S0 T0 ; sets the minimum extruding and travel feed rate, mm/sec
M107
;TYPE:Custom
M862.3 P "MINI" ; printer model check
G90 ; use absolute coordinates
M83 ; extruder relative mode
M104 S170 ; set extruder temp for bed leveling
M140 S60 ; set bed temp
M109 R170 ; wait for bed leveling temp
M190 S60 ; wait for bed temp
M204 T1250 ; set travel acceleration
G28 ; home all without mesh bed level
G29 ; mesh bed leveling 
M204 T2500 ; restore travel acceleration
M104 S215 ; set extruder temp
G92 E0
G1 Y-2 X179 F2400
G1 Z3 F720
M109 S215 ; wait for extruder temp

; intro line
G1 X170 F1000
G1 Z0.2 F720
G1 X110 E8 F900
G1 X40 E10 F700
G92 E0

M221 S95 ; set flow
G21 ; set units to millimeters
G90 ; use absolute coordinates
M83 ; use relative distances for extrusion
M900 K0.2 ; Filament gcode LA 1.5
; ; Filament gcode LA 1.0
M107
;LAYER_CHANGE
;Z:0.2
;HEIGHT:0.2
;BEFORE_LAYER_CHANGE
G92 E0.0
;0.2


M73 P1 R9
G1 E-3.2 F4200
M73 P2 R9
G1 Z.2 F720
;AFTER_LAYER_CHANGE
;0.2
G1 Z.4
G1 X80.545 Y80.011 F9000
G1 Z.2 F720
G1 E3.2 F2400
M204 P800
;TYPE:Skirt/Brim
;WIDTH:0.42
G1 F1200
G1 X81.569 Y79.132 E.04231
G1 X82.659 Y78.368 E.04174
G1 X83.828 Y77.709 E.04208
G1 X85.039 Y77.171 E.04155
G1 X86.322 Y76.747 E.04237
G1 X87.64 Y76.449 E.04238
G1 X88.951 Y76.286 E.04142
G1 X90.261 Y76.249 E.04107
M73 P3 R9
G1 X91.623 Y76.342 E.04282
G1 X92.967 Y76.57 E.04272
G1 X94.249 Y76.92 E.04168
G1 X95.49 Y77.389 E.0416
G1 X96.691 Y77.983 E.04202
G1 X97.829 Y78.692 E.04201
G1 X98.912 Y79.525 E.04287
G1 X99.867 Y80.418 E.04096
G1 X100.766 Y81.44 E.0427
G1 X101.545 Y82.525 E.04187
G1 X102.224 Y83.698 E.04251
G1 X102.794 Y84.952 E.04317
G1 X103.229 Y86.238 E.04258
G1 X103.534 Y87.552 E.04229
G1 X103.705 Y88.851 E.04111
G1 X103.752 Y90.218 E.04287
G1 X103.667 Y91.532 E.04129
G1 X103.454 Y92.856 E.04206
G1 X103.129 Y94.095 E.04014
G1 X102.641 Y95.418 E.04421
G1 X102.051 Y96.629 E.04225
G1 X101.355 Y97.76 E.04164
G1 X100.376 Y99.028 E.05022
G1 X99.453 Y99.989 E.04178
G1 X98.419 Y100.875 E.04271
G1 X97.338 Y101.632 E.04139
G1 X96.165 Y102.294 E.0422
G1 X94.959 Y102.829 E.04138
G1 X93.67 Y103.254 E.04255
G1 X92.378 Y103.547 E.04156
G1 X91.051 Y103.714 E.04194
G1 X89.716 Y103.751 E.04186
G1 X88.375 Y103.658 E.04215
G1 X87.051 Y103.434 E.04209
G1 X85.754 Y103.082 E.04216
G1 X84.503 Y102.608 E.04194
G1 X83.307 Y102.017 E.04183
G1 X82.158 Y101.299 E.04248
G1 X81.096 Y100.483 E.04197
G1 X80.123 Y99.572 E.04178
G1 X79.243 Y98.573 E.04176
G1 X78.453 Y97.475 E.04239
G1 X77.775 Y96.302 E.04251
G1 X77.202 Y95.042 E.04337
G1 X76.769 Y93.762 E.04237
G1 X76.47 Y92.473 E.04148
G1 X76.293 Y91.149 E.0419
G1 X76.248 Y89.805 E.04214
G1 X76.331 Y88.468 E.04201
G1 X76.546 Y87.144 E.04207
G1 X76.87 Y85.9 E.04029
G1 X77.357 Y84.582 E.04405
G1 X77.942 Y83.38 E.04194
G1 X78.643 Y82.24 E.04196
G1 X79.608 Y80.988 E.04956
G1 X80.503 Y80.054 E.04056
M204 P1000
G1 X80.775 Y80.315 F9000
M204 P800
G1 F1200
G1 X81.803 Y79.428 E.04257
G1 X82.864 Y78.685 E.04062
G1 X84 Y78.044 E.04089
G1 X85.18 Y77.52 E.04048
G1 X86.427 Y77.109 E.04116
G1 X87.708 Y76.82 E.04118
G1 X88.985 Y76.661 E.04035
G1 X90.258 Y76.626 E.03993
G1 X91.584 Y76.717 E.04167
G1 X92.888 Y76.938 E.04147
G1 X94.136 Y77.279 E.04057
G1 X95.344 Y77.737 E.04051
G1 X96.512 Y78.315 E.04084
G1 X97.617 Y79.004 E.04086
G1 X98.669 Y79.814 E.04161
G1 X99.6 Y80.684 E.03995
G1 X100.472 Y81.677 E.04145
G1 X101.23 Y82.733 E.04074
G1 X101.889 Y83.873 E.04129
G1 X102.442 Y85.087 E.04183
G1 X102.845 Y86.266 E.03908
G1 X103.148 Y87.537 E.04097
G1 X103.329 Y88.88 E.04247
G1 X103.375 Y90.206 E.04162
G1 X103.293 Y91.487 E.04023
G1 X103.086 Y92.775 E.0409
G1 X102.768 Y93.985 E.03922
G1 X102.297 Y95.265 E.04279
G1 X101.723 Y96.443 E.04106
M73 P4 R9
G1 X101.046 Y97.544 E.04054
G1 X100.09 Y98.784 E.04909
G1 X99.191 Y99.718 E.04065
G1 X98.187 Y100.579 E.04147
G1 X97.133 Y101.316 E.04032
G1 X95.993 Y101.958 E.04102
G1 X94.818 Y102.48 E.04032
G1 X93.566 Y102.892 E.04132
G1 X92.307 Y103.177 E.04047
G1 X91.017 Y103.338 E.04079
G1 X89.719 Y103.374 E.04071
G1 X88.414 Y103.283 E.041
G1 X87.127 Y103.065 E.04093
G1 X85.866 Y102.722 E.04098
G1 X84.649 Y102.26 E.0408
G1 X83.486 Y101.685 E.04068
G1 X82.37 Y100.987 E.04129
G1 X81.338 Y100.194 E.04082
G1 X80.391 Y99.307 E.04066
G1 X79.535 Y98.334 E.04064
G1 X78.768 Y97.267 E.04119
G1 X78.109 Y96.127 E.04128
G1 X77.554 Y94.907 E.04203
G1 X77.133 Y93.663 E.04117
G1 X76.842 Y92.408 E.0404
G1 X76.669 Y91.12 E.04074
G1 X76.625 Y89.814 E.04099
G1 X76.705 Y88.513 E.04086
G1 X76.914 Y87.225 E.04091
M73 P4 R8
G1 X77.231 Y86.01 E.03937
G1 X77.701 Y84.735 E.04262
G1 X78.271 Y83.565 E.04079
G1 X78.952 Y82.456 E.04081
G1 X79.896 Y81.231 E.0485
G1 X80.734 Y80.358 E.03791
M204 P1000
; printing object eccetric_shaft_1pcs.stl id:0 copy 0
G1 E-2.24 F4200
;WIPE_START
G1 F7200
G1 X81.803 Y79.428 E-.78542
G1 X81.99 Y79.297 E-.12658
;WIPE_END
G1 E-.048 F4200
G1 Z.4 F720
G1 X91.822 Y81.612 F9000
G1 Z.2 F720
G1 E3.2 F2400
M204 P800
;TYPE:Perimeter
;WIDTH:0.419999
G1 F1200
G1 X91.857 Y81.668 E.00208
G1 X91.995 Y82.126 E.01501
G1 X92.024 Y82.653 E.01656
G1 X91.919 Y83.184 E.01698
G1 X91.691 Y83.631 E.01571
G1 X91.307 Y84.053 E.0179
G1 X90.883 Y84.336 E.01599
G1 X90.245 Y84.516 E.02078
G1 X89.953 Y84.521 E.00915
G1 X89.443 Y84.46 E.01611
G1 X88.98 Y84.263 E.01576
G1 X88.61 Y83.986 E.01451
G1 X88.323 Y83.654 E.01377
G1 X88.135 Y83.323 E.01191
G1 X87.99 Y82.803 E.01693
G1 X87.98 Y82.273 E.01663
G1 X88.086 Y81.803 E.01511
G1 X88.288 Y81.398 E.01417
G1 X88.748 Y80.902 E.02121
G1 X89.153 Y80.649 E.01497
G1 X89.827 Y80.477 E.02181
G1 X90.187 Y80.493 E.01131
G1 X90.621 Y80.56 E.01377
G1 X91.206 Y80.867 E.0207
G1 X91.559 Y81.192 E.01506
G1 X91.79 Y81.561 E.01365
M204 P1000
G1 X91.504 Y81.801 F9000
M204 P800
;TYPE:External perimeter
G1 F1200
G1 X91.619 Y82.146 E.0114
G1 X91.647 Y82.674 E.01656
G1 X91.556 Y83.077 E.01298
G1 X91.387 Y83.407 E.01162
G1 X91.028 Y83.799 E.01665
G1 X90.666 Y84.019 E.01329
G1 X90.151 Y84.151 E.01665
G1 X89.559 Y84.099 E.01863
G1 X89.176 Y83.94 E.01301
G1 X88.888 Y83.731 E.01118
G1 X88.649 Y83.464 E.01122
G1 X88.48 Y83.172 E.01058
G1 X88.367 Y82.795 E.01234
G1 X88.357 Y82.266 E.01659
G1 X88.465 Y81.865 E.01303
G1 X88.708 Y81.481 E.01425
G1 X89.06 Y81.133 E.01549
G1 X89.446 Y80.946 E.01346
G1 X89.947 Y80.841 E.01606
G1 X90.497 Y80.918 E.01739
G1 X91.023 Y81.196 E.01866
G1 X91.316 Y81.489 E.01299
G1 X91.473 Y81.75 E.00956
M204 P1000
G1 X91.866 Y81.833 F9000
G1 E-2.24 F4200
;WIPE_START
G1 F7200
G1 X91.619 Y82.146 E-.23398
G1 X91.647 Y82.674 E-.29268
G1 X91.556 Y83.077 E-.22934
G1 X91.427 Y83.328 E-.156
;WIPE_END
G1 E-.048 F4200
G1 Z.4 F720
G1 X88.326 Y88.315 F9000
G1 Z.2 F720
G1 E3.2 F2400
M204 P800
;TYPE:Perimeter
G1 F1200
G1 X88.388 Y88.241 E.00302
G1 X88.764 Y87.962 E.01468
G1 X89.182 Y87.762 E.01453
G1 X89.605 Y87.651 E.0137
G1 X90.165 Y87.629 E.01757
G1 X90.481 Y87.667 E.00998
G1 X91.066 Y87.875 E.01949
G1 X91.293 Y88.001 E.00813
G1 X91.699 Y88.33 E.01639
G1 X92.017 Y88.732 E.01607
G1 X92.217 Y89.129 E.01395
G1 X92.347 Y89.618 E.01583
G1 X92.371 Y90.142 E.01647
G1 X92.341 Y90.433 E.00915
G1 X92.2 Y90.917 E.01581
G1 X91.965 Y91.345 E.0153
G1 X91.688 Y91.68 E.01365
G1 X91.351 Y91.962 E.01377
G1 X90.965 Y92.177 E.01387
G1 X90.566 Y92.314 E.01321
G1 X90.158 Y92.375 E.01295
G1 X89.643 Y92.355 E.01615
G1 X89.151 Y92.228 E.01591
G1 X88.699 Y91.995 E.01596
G1 X88.295 Y91.669 E.01629
G1 X88.176 Y91.417 E.00871
G1 X88.165 Y90.897 E.01633
G1 X88.165 Y88.685 E.06934
G1 X88.229 Y88.43 E.00826
G1 X88.287 Y88.361 E.00283
M204 P1000
G1 X88.608 Y88.548 F9000
M204 P800
;TYPE:External perimeter
G1 F1200
G1 X88.949 Y88.29 E.01341
G1 X89.287 Y88.125 E.0118
G1 X89.64 Y88.026 E.01151
G1 X90.133 Y88.005 E.01546
G1 X90.602 Y88.095 E.01497
G1 X91.059 Y88.297 E.01567
G1 X91.503 Y88.684 E.01846
G1 X91.688 Y88.916 E.00931
G1 X91.857 Y89.242 E.01153
G1 X91.972 Y89.662 E.01365
G1 X91.995 Y90.12 E.01436
G1 X91.978 Y90.331 E.00664
G1 X91.844 Y90.79 E.015
G1 X91.669 Y91.111 E.01146
G1 X91.439 Y91.396 E.01149
G1 X91.16 Y91.637 E.01157
G1 X90.836 Y91.823 E.01171
G1 X90.288 Y91.981 E.01787
G1 X89.699 Y91.981 E.01847
G1 X89.255 Y91.863 E.01443
G1 X88.927 Y91.695 E.01154
M73 P5 R8
G1 X88.556 Y91.379 E.01529
G1 X88.542 Y88.689 E.08433
G1 X88.583 Y88.603 E.00299
M204 P1000
G1 X88.443 Y88.184 F9000
G1 E-2.24 F4200
;WIPE_START
G1 F7200
G1 X88.949 Y88.29 E-.26678
G1 X89.287 Y88.125 E-.20856
G1 X89.64 Y88.026 E-.20351
G1 X90.061 Y88.008 E-.23315
;WIPE_END
G1 E-.048 F4200
G1 Z.4 F720
G1 X86.351 Y80.461 F9000
G1 Z.2 F720
G1 E3.2 F2400
M204 P800
;TYPE:Perimeter
G1 F1200
G1 X87.676 Y80.057 E.04343
G1 X88.229 Y79.942 E.01772
G1 X88.747 Y79.864 E.01642
G1 X89.245 Y79.815 E.0157
G1 X89.75 Y79.79 E.01584
G1 X90.255 Y79.79 E.01582
G1 X90.985 Y79.838 E.02295
G1 X91.718 Y79.933 E.02318
G1 X92.212 Y80.03 E.01578
G1 X93.142 Y80.286 E.03024
G1 X93.617 Y80.45 E.01575
G1 X94.102 Y80.647 E.01641
G1 X94.997 Y81.094 E.03139
G1 X95.767 Y81.577 E.0285
G1 X96.186 Y81.876 E.01611
G1 X96.62 Y82.225 E.01749
G1 X97.26 Y82.826 E.02752
G1 X97.624 Y83.207 E.01652
G1 X98.005 Y83.659 E.01854
G1 X98.357 Y84.134 E.01854
G1 X98.636 Y84.553 E.01576
G1 X98.92 Y85.034 E.01752
G1 X99.228 Y85.633 E.02113
G1 X99.433 Y86.095 E.01584
G1 X99.65 Y86.697 E.02007
G1 X99.895 Y87.484 E.02583
G1 X100.023 Y88.048 E.01814
G1 X100.106 Y88.542 E.0157
G1 X100.174 Y89.123 E.01835
G1 X100.206 Y90.278 E.03624
G1 X100.151 Y91.11 E.02614
G1 X99.994 Y92.099 E.0314
G1 X99.774 Y92.935 E.02711
G1 X99.615 Y93.437 E.01651
G1 X99.401 Y93.988 E.01852
G1 X98.791 Y95.193 E.04235
G1 X98.499 Y95.658 E.01722
G1 X98.16 Y96.141 E.01849
G1 X97.686 Y96.725 E.02358
G1 X97.283 Y97.157 E.01854
G1 X96.878 Y97.544 E.01755
G1 X96.314 Y98.024 E.02323
G1 X95.841 Y98.377 E.0185
G1 X95.342 Y98.701 E.01864
G1 X94.691 Y99.068 E.02343
G1 X94.197 Y99.308 E.01724
G1 X93.654 Y99.537 E.01846
G1 X92.562 Y99.883 E.03592
G1 X92.034 Y100.005 E.017
G1 X91.401 Y100.114 E.02015
G1 X90.841 Y100.177 E.01767
G1 X90.248 Y100.21 E.0186
G1 X89.654 Y100.205 E.01862
G1 X88.884 Y100.15 E.02423
G1 X88.362 Y100.079 E.0165
G1 X87.785 Y99.97 E.0184
G1 X86.944 Y99.738 E.02736
G1 X86.449 Y99.574 E.01635
G1 X85.898 Y99.353 E.01861
G1 X84.994 Y98.903 E.03167
G1 X84.495 Y98.6 E.01831
G1 X84.015 Y98.271 E.01825
G1 X83.547 Y97.913 E.01847
G1 X83.074 Y97.503 E.01963
G1 X82.71 Y97.15 E.01591
G1 X82.312 Y96.725 E.01826
G1 X81.913 Y96.233 E.01986
G1 X81.55 Y95.738 E.01922
G1 X81.233 Y95.238 E.01858
G1 X80.987 Y94.802 E.01569
G1 X80.64 Y94.083 E.02504
G1 X80.419 Y93.54 E.01838
G1 X80.119 Y92.585 E.03139
G1 X79.944 Y91.75 E.02673
G1 X79.861 Y91.217 E.01692
G1 X79.805 Y90.629 E.01854
G1 X79.794 Y89.62 E.03163
G1 X79.835 Y89.028 E.01861
G1 X79.905 Y88.489 E.01703
G1 X80.097 Y87.512 E.03121
G1 X80.288 Y86.847 E.02172
G1 X80.468 Y86.336 E.01697
G1 X80.697 Y85.786 E.01868
G1 X81.159 Y84.886 E.0317
G1 X81.468 Y84.388 E.01839
G1 X81.936 Y83.735 E.0252
G1 X82.305 Y83.283 E.0183
G1 X82.923 Y82.643 E.02789
G1 X83.318 Y82.278 E.01685
G1 X83.752 Y81.921 E.01765
G1 X84.515 Y81.39 E.02913
G1 X84.955 Y81.12 E.01619
G1 X85.434 Y80.865 E.017
G1 X86.296 Y80.485 E.02954
M204 P1000
G1 X86.216 Y80.108 F9000
M204 P800
;TYPE:External perimeter
G1 F1200
G1 X87.198 Y79.788 E.0324
G1 X87.697 Y79.663 E.01612
G1 X88.202 Y79.563 E.01615
G1 X88.712 Y79.488 E.01617
G1 X89.227 Y79.438 E.01622
G1 X90.255 Y79.413 E.03224
G1 X90.773 Y79.438 E.01625
G1 X91.286 Y79.488 E.01616
G1 X91.796 Y79.563 E.01617
G1 X92.299 Y79.663 E.01607
G1 X93.298 Y79.938 E.0325
G1 X93.782 Y80.108 E.0161
G1 X94.258 Y80.303 E.01611
G1 X95.182 Y80.765 E.0324
G1 X96.059 Y81.315 E.03244
G1 X96.869 Y81.941 E.0321
G1 X97.626 Y82.652 E.03255
G1 X97.973 Y83.029 E.01609
G1 X98.301 Y83.425 E.01613
G1 X98.902 Y84.265 E.03238
G1 X99.17 Y84.704 E.01611
G1 X99.416 Y85.158 E.0162
G1 X99.843 Y86.094 E.03226
G1 X100.178 Y87.075 E.0325
G1 X100.308 Y87.572 E.01609
G1 X100.414 Y88.075 E.01613
G1 X100.495 Y88.586 E.01622
G1 X100.55 Y89.095 E.01608
G1 X100.583 Y90.292 E.03754
G1 X100.526 Y91.156 E.02713
G1 X100.363 Y92.177 E.03241
G1 X100.101 Y93.176 E.03239
G1 X99.936 Y93.664 E.01615
G1 X99.747 Y94.14 E.01606
G1 X99.296 Y95.073 E.03249
G1 X99.039 Y95.518 E.0161
G1 X98.76 Y95.95 E.01614
G1 X98.46 Y96.369 E.01615
G1 X97.972 Y96.972 E.0243
G1 X97.624 Y97.35 E.01613
G1 X97.256 Y97.712 E.01619
G1 X96.471 Y98.382 E.03236
G1 X96.057 Y98.686 E.01611
G1 X95.625 Y98.972 E.01623
G1 X95.183 Y99.235 E.01614
G1 X94.725 Y99.476 E.0162
G1 X94.261 Y99.695 E.01612
G1 X93.785 Y99.891 E.01613
G1 X92.8 Y100.212 E.03247
G1 X92.302 Y100.337 E.0161
G1 X91.795 Y100.437 E.0162
G1 X91.286 Y100.512 E.01614
M73 P6 R8
G1 X90.773 Y100.562 E.01616
G1 X90.257 Y100.587 E.01618
G1 X89.741 Y100.587 E.01621
G1 X88.712 Y100.512 E.03233
G1 X88.203 Y100.437 E.01614
G1 X87.699 Y100.337 E.01612
G1 X86.7 Y100.062 E.03249
G1 X86.216 Y99.892 E.01609
G1 X85.742 Y99.696 E.01607
G1 X84.813 Y99.234 E.03253
G1 X84.374 Y98.972 E.01605
G1 X83.944 Y98.687 E.01618
G1 X83.527 Y98.382 E.01618
G1 X83.127 Y98.057 E.01616
G1 X82.742 Y97.713 E.0162
G1 X82.376 Y97.35 E.01615
G1 X82.026 Y96.972 E.01616
G1 X81.538 Y96.369 E.02431
G1 X81.238 Y95.95 E.01616
G1 X80.959 Y95.518 E.01614
G1 X80.701 Y95.071 E.01618
G1 X80.466 Y94.612 E.01616
G1 X80.063 Y93.666 E.03224
G1 X79.754 Y92.68 E.03241
G1 X79.541 Y91.667 E.03244
G1 X79.429 Y90.647 E.03218
G1 X79.417 Y89.611 E.03249
G1 X79.448 Y89.098 E.01611
G1 X79.503 Y88.589 E.01606
G1 X79.693 Y87.568 E.03254
G1 X79.821 Y87.072 E.01605
G1 X79.977 Y86.581 E.01617
G1 X80.154 Y86.096 E.01618
G1 X80.355 Y85.625 E.01605
G1 X80.83 Y84.702 E.03255
G1 X81.096 Y84.265 E.01603
G1 X81.387 Y83.838 E.01621
G1 X82.024 Y83.031 E.03224
G1 X82.744 Y82.286 E.03249
G1 X83.525 Y81.619 E.0322
G1 X84.376 Y81.027 E.03249
G1 X84.815 Y80.765 E.01606
G1 X85.269 Y80.525 E.01609
G1 X86.161 Y80.132 E.03055
M204 P1000
G1 X86.524 Y80.363 F9000
G1 E-2.24 F4200
;WIPE_START
G1 F7200
G1 X87.198 Y79.788 E-.60567
G1 X87.697 Y79.663 E-.28494
G1 X87.735 Y79.656 E-.02139
;WIPE_END
G1 E-.048 F4200
G1 Z.4 F720
G1 X95.715 Y81.678 F9000
G1 Z.2 F720
G1 E3.2 F2400
M204 P800
;TYPE:Solid infill
;WIDTH:0.424685
G1 F1200
G1 X97.177 Y83.14 E.06561
G1 X97.783 Y83.835 E.02929
G1 X98.347 Y84.623 E.03076
G1 X98.656 Y85.159 E.01963
G1 X94.817 Y81.32 E.17232
G1 X93.986 Y80.905 E.0295
G1 X93.786 Y80.829 E.00676
G1 X99.175 Y86.217 E.24189
G1 X99.474 Y87.057 E.02829
G1 X92.941 Y80.524 E.29329
G1 X92.196 Y80.319 E.02452
G1 X99.669 Y87.792 E.33549
G1 X99.764 Y88.194 E.01312
G1 X99.8 Y88.463 E.0086
G1 X91.538 Y80.201 E.37091
G1 X91.205 Y80.143 E.01072
G1 X90.92 Y80.123 E.00908
G1 X99.884 Y89.086 E.4024
G1 X99.911 Y89.653 E.01801
G1 X92.257 Y82 E.34357
G1 X92.232 Y81.877 E.00398
M73 P7 R8
G1 X92.047 Y81.412 E.01586
G1 X91.766 Y80.999 E.01588
G1 X91.462 Y80.698 E.01357
G1 X90.877 Y80.361 E.02143
G1 X90.697 Y80.287 E.00619
G1 X90.517 Y80.259 E.00579
G1 X90.163 Y79.905 E.01588
M204 P1000
G1 X90.081 Y80.363 F9000
M204 P800
G1 F1200
G1 X89.802 Y80.084 E.01256
G1 X89.274 Y80.096 E.01674
G1 X89.449 Y80.271 E.00783
G1 X89.199 Y80.326 E.00813
G1 X89.032 Y80.394 E.00571
G1 X88.793 Y80.155 E.01073
G1 X88.312 Y80.214 E.01538
G1 X88.69 Y80.592 E.01695
G1 X88.562 Y80.687 E.00507
G1 X88.405 Y80.847 E.0071
G1 X87.871 Y80.313 E.02398
G1 X87.43 Y80.411 E.01435
G1 X88.142 Y81.124 E.03199
G1 X88.044 Y81.255 E.00519
G1 X87.935 Y81.457 E.00729
G1 X87.019 Y80.54 E.04114
G1 X86.612 Y80.673 E.01359
G1 X87.788 Y81.849 E.0528
G1 X87.727 Y82.041 E.00638
G1 X87.698 Y82.299 E.00826
G1 X86.224 Y80.826 E.06616
G1 X85.85 Y80.991 E.013
G1 X87.938 Y83.079 E.09374
