; generated by PrusaSlicer 2.5.0+win64 on 2022-10-14 at 18:15:29 UTC


;
;

;
;
; 

; external perimeters extrusion width = 0.45mm
; perimeters extrusion width = 0.45mm
; infill extrusion width = 0.45mm
; solid infill extrusion width = 0.45mm
; top infill extrusion width = 0.40mm
; support material extrusion width = 0.35mm
; first layer extrusion width = 0.42mm

; external perimeters extrusion width = 0.45mm
; perimeters extrusion width = 0.45mm
; infill extrusion width = 0.45mm
; solid infill extrusion width = 0.45mm
; top infill extrusion width = 0.40mm
; support material extrusion width = 0.35mm
; first layer extrusion width = 0.42mm

M73 P0 R31
M73 C1
M201 X2500 Y2500 Z400 E5000 ; sets maximum accelerations, mm/sec^2
M203 X180 Y180 Z12 E80 ; sets maximum feedrates, mm / sec
M204 P1250 R1250 T2500 ; sets acceleration (P, T) and retract acceleration (R), mm/sec^2
M205 X8.00 Y8.00 Z2.00 E10.00 ; sets the jerk limits, mm/sec
M205 S0 T0 ; sets the minimum extruding and travel feed rate, mm/sec
M107
;TYPE:Custom
M862.3 P "MINI" ; printer model check
G90 ; use absolute coordinates
M83 ; extruder relative mode
M104 S170 ; set extruder temp for bed leveling
M140 S60 ; set bed temp
M109 R170 ; wait for bed leveling temp
M190 S60 ; wait for bed temp
M204 T1250 ; set travel acceleration
G28 ; home all without mesh bed level
G29 ; mesh bed leveling 
M204 T2500 ; restore travel acceleration
M104 S215 ; set extruder temp
G92 E0
G1 Y-2 X179 F2400
G1 Z3 F720
M109 S215 ; wait for extruder temp

; intro line
G1 X170 F1000
G1 Z0.2 F720
G1 X110 E8 F900
G1 X40 E10 F700
G92 E0

M221 S95 ; set flow
G21 ; set units to millimeters
G90 ; use absolute coordinates
M83 ; use relative distances for extrusion
M900 K0.2 ; Filament gcode LA 1.5
; ; Filament gcode LA 1.0
M107
;LAYER_CHANGE
;Z:0.2
;HEIGHT:0.2
;BEFORE_LAYER_CHANGE
G92 E0.0
;0.2


G1 E-3.2 F4200
G1 Z.2 F2400
;AFTER_LAYER_CHANGE
;0.2
G1 Z.4
G1 X81.06 Y80.904
G1 Z.2
G1 E3.2
M204 P800
;TYPE:Skirt/Brim
;WIDTH:0.42
G1 F1200
G1 X82.002 Y80.066 E.03953
G1 X82.982 Y79.35 E.03807
G1 X84.054 Y78.717 E.03903
G1 X85.168 Y78.197 E.03855
G1 X86.345 Y77.781 E.03914
G1 X87.565 Y77.48 E.0394
G1 X88.79 Y77.303 E.0388
G1 X90.025 Y77.246 E.03877
G1 X91.265 Y77.309 E.0389
G1 X92.459 Y77.485 E.03785
G1 X93.632 Y77.774 E.03788
G1 X94.85 Y78.204 E.04048
G1 X95.946 Y78.717 E.03795
M73 P1 R31
G1 X97.017 Y79.35 E.03903
G1 X98.03 Y80.091 E.03933
G1 X99.08 Y81.043 E.04444
G1 X99.92 Y81.983 E.03953
G1 X100.664 Y83.004 E.03962
G1 X101.278 Y84.045 E.03787
G1 X101.806 Y85.175 E.03914
G1 X102.217 Y86.337 E.03864
G1 X102.518 Y87.555 E.03932
G1 X102.697 Y88.79 E.03912
G1 X102.754 Y90.033 E.03904
G1 X102.693 Y91.246 E.03806
G1 X102.51 Y92.484 E.03926
G1 X102.216 Y93.665 E.03814
G1 X101.792 Y94.859 E.03974
G1 X101.271 Y95.968 E.03841
G1 X100.527 Y97.2 E.04515
G1 X99.759 Y98.212 E.03982
G1 X98.94 Y99.096 E.03778
G1 X97.998 Y99.934 E.03953
G1 X97.018 Y100.65 E.03807
G1 X95.946 Y101.283 E.03903
G1 X94.832 Y101.803 E.03855
G1 X93.655 Y102.219 E.03914
G1 X92.459 Y102.515 E.03862
G1 X91.21 Y102.697 E.03957
G1 X89.993 Y102.754 E.03821
G1 X88.735 Y102.691 E.03948
G1 X87.541 Y102.515 E.03785
G1 X86.368 Y102.226 E.03788
G1 X85.151 Y101.796 E.04049
G1 X84.054 Y101.283 E.03795
G1 X82.983 Y100.65 E.03903
G1 X81.97 Y99.909 E.03933
G1 X80.92 Y98.957 E.04445
G1 X80.08 Y98.017 E.03952
G1 X79.336 Y96.996 E.03962
G1 X78.722 Y95.955 E.03788
G1 X78.194 Y94.824 E.03913
G1 X77.783 Y93.663 E.03863
G1 X77.482 Y92.445 E.03932
G1 X77.303 Y91.21 E.03912
G1 X77.246 Y89.967 E.03904
G1 X77.307 Y88.755 E.03805
G1 X77.49 Y87.516 E.03927
G1 X77.784 Y86.335 E.03815
M73 P1 R30
G1 X78.208 Y85.141 E.03973
G1 X78.729 Y84.032 E.03841
G1 X79.473 Y82.799 E.04515
G1 X80.241 Y81.789 E.03981
G1 X81.019 Y80.948 E.03591
M204 P1250
G1 X81.296 Y81.204 F2400
M204 P800
G1 F1200
G1 X82.238 Y80.359 E.0397
G1 X83.193 Y79.663 E.03704
G1 X84.231 Y79.05 E.03781
G1 X85.314 Y78.545 E.03746
G1 X86.452 Y78.142 E.03786
G1 X87.636 Y77.851 E.03824
G1 X88.823 Y77.679 E.0376
G1 X90.022 Y77.623 E.03764
G1 X91.224 Y77.684 E.03773
G1 X92.385 Y77.855 E.03679
G1 X93.527 Y78.136 E.03688
G1 X94.703 Y78.552 E.03912
G1 X95.769 Y79.05 E.03688
G1 X96.807 Y79.663 E.03781
G1 X97.8 Y80.391 E.0386
G1 X98.812 Y81.309 E.04286
G1 X99.629 Y82.223 E.03841
G1 X100.349 Y83.211 E.03834
G1 X100.946 Y84.224 E.03687
G1 X101.458 Y85.319 E.0379
G1 X101.856 Y86.448 E.03753
G1 X102.147 Y87.625 E.03802
G1 X102.319 Y88.806 E.0374
G1 X102.377 Y90.029 E.03839
G1 X102.318 Y91.208 E.03703
G1 X102.141 Y92.407 E.03801
G1 X101.855 Y93.556 E.0371
G1 X101.445 Y94.713 E.03849
G1 X100.94 Y95.789 E.03727
G1 X100.214 Y96.99 E.04398
G1 X99.469 Y97.971 E.03864
G1 X98.674 Y98.829 E.0367
G1 X97.762 Y99.641 E.03828
G1 X96.807 Y100.337 E.03704
G1 X95.769 Y100.95 E.03781
G1 X94.686 Y101.456 E.03746
G1 X93.548 Y101.858 E.03786
G1 X92.385 Y102.145 E.03757
G1 X91.177 Y102.321 E.03826
G1 X89.993 Y102.377 E.03718
G1 X88.776 Y102.316 E.0382
G1 X87.615 Y102.145 E.03679
G1 X86.473 Y101.864 E.03688
G1 X85.297 Y101.448 E.03913
G1 X84.231 Y100.95 E.03688
G1 X83.193 Y100.337 E.03781
G1 X82.2 Y99.609 E.0386
G1 X81.188 Y98.691 E.04286
G1 X80.372 Y97.777 E.03841
G1 X79.651 Y96.789 E.03834
G1 X79.053 Y95.776 E.03688
G1 X78.542 Y94.681 E.0379
G1 X78.144 Y93.552 E.03752
G1 X77.853 Y92.375 E.03803
G1 X77.681 Y91.194 E.03741
G1 X77.623 Y89.971 E.03838
G1 X77.682 Y88.792 E.03703
G1 X77.859 Y87.593 E.03801
G1 X78.145 Y86.444 E.03711
G1 X78.555 Y85.287 E.03848
G1 X79.06 Y84.211 E.03727
G1 X79.786 Y83.01 E.04398
G1 X80.531 Y82.03 E.03863
G1 X81.255 Y81.248 E.0334
M204 P1250
; printing object knob_mintaval_v1.stl id:0 copy 0
G1 E-2.24 F4200
;WIPE_START
G1 F1920
G1 X81.58 Y80.954 E-.912
;WIPE_END
G1 E-.048 F4200
G1 Z.4 F2400
G1 X83.035 Y83.125
G1 Z.2
G1 E3.2
M204 P800
;TYPE:External perimeter
;WIDTH:0.420784
G1 F1200
G1 X83.698 Y82.511 E.02839
G1 X84.163 Y82.153 E.01843
;WIDTH:0.413556
G1 X84.787 Y81.726 E.02331
;WIDTH:0.415023
G1 X85.447 Y81.345 E.02358
;WIDTH:0.419179
G1 X86.139 Y81.009 E.02406
G1 X86.866 Y80.733 E.02432
;WIDTH:0.420135
G1 X87.668 Y80.494 E.02625
;WIDTH:0.421064
G1 X89.068 Y80.256 E.04466
;WIDTH:0.425741
G1 X90.001 Y80.219 E.02971
G1 X90.954 Y80.268 E.03038
;WIDTH:0.424633
G1 X91.886 Y80.398 E.02987
;WIDTH:0.42225
G1 X92.924 Y80.664 E.0338
;WIDTH:0.417093
G1 X93.891 Y81.031 E.03219
;WIDTH:0.415623
G1 X94.825 Y81.502 E.03241
;WIDTH:0.415061
G1 X95.708 Y82.069 E.03246
;WIDTH:0.426308
G1 X96.137 Y82.388 E.01705
G1 X96.522 Y82.726 E.01634
;WIDTH:0.414049
G1 X97.256 Y83.448 E.03179
;WIDTH:0.414932
G1 X97.794 Y84.097 E.02606
;WIDTH:0.415203
G1 X98.367 Y84.959 E.03204
;WIDTH:0.417729
G1 X98.722 Y85.6 E.02284
;WIDTH:0.421899
G1 X99.06 Y86.332 E.02539
G1 X99.392 Y87.268 E.03133
;WIDTH:0.419583
G1 X99.609 Y88.141 E.02816
;WIDTH:0.421538
G1 X99.726 Y89.054 E.02899
;WIDTH:0.423274
G1 X99.758 Y90.006 E.03013
G1 X99.741 Y90.553 E.01729
;WIDTH:0.417816
G1 X99.695 Y91.21 E.02053
;WIDTH:0.416817
G1 X99.56 Y92.053 E.02656
;WIDTH:0.427596
G1 X99.368 Y92.781 E.02408
G1 X99.206 Y93.258 E.01611
;WIDTH:0.413358
G1 X98.872 Y94.072 E.02711
;WIDTH:0.413608
G1 X98.47 Y94.848 E.02693
;WIDTH:0.413877
G1 X98.003 Y95.582 E.02683
;WIDTH:0.415113
G1 X97.476 Y96.271 E.02683
;WIDTH:0.416692
G1 X96.892 Y96.909 E.02691
;WIDTH:0.418958
G1 X96.254 Y97.496 E.02711
;WIDTH:0.42032
G1 X95.541 Y98.039 E.02812
;WIDTH:0.421064
G1 X94.744 Y98.534 E.02949
G1 X94.053 Y98.885 E.02437
;WIDTH:0.419527
G1 X93.232 Y99.22 E.02775
G1 X92.395 Y99.459 E.02726
;WIDTH:0.412846
G1 X91.524 Y99.647 E.02742
;WIDTH:0.421206
G1 X90.938 Y99.719 E.01856
;WIDTH:0.42306
G1 X89.982 Y99.75 E.03026
G1 X89.421 Y99.733 E.01771
;WIDTH:0.418096
G1 X88.765 Y99.685 E.02054
;WIDTH:0.416145
G1 X87.92 Y99.549 E.02655
;WIDTH:0.427748
G1 X87.196 Y99.357 E.02397
G1 X86.715 Y99.194 E.01625
;WIDTH:0.413469
G1 X85.901 Y98.854 E.02718
;WIDTH:0.416354
G1 X85.12 Y98.456 E.02721
;WIDTH:0.41813
G1 X84.385 Y97.99 E.02715
;WIDTH:0.419897
G1 X83.696 Y97.461 E.02722
;WIDTH:0.420881
G1 X83.002 Y96.812 E.02987
;WIDTH:0.421398
G1 X82.38 Y96.109 E.02952
;WIDTH:0.422272
G1 X81.82 Y95.339 E.03004
;WIDTH:0.4229
G1 X81.343 Y94.531 E.02966
G1 X81.107 Y94.04 E.0172
;WIDTH:0.413354
G1 X80.776 Y93.225 E.02711
;WIDTH:0.414069
G1 X80.516 Y92.377 E.02737
G1 X80.338 Y91.509 E.02735
;WIDTH:0.420652
G1 X80.268 Y90.945 E.01782
;WIDTH:0.422936
G1 X80.237 Y89.965 E.03101
G1 X80.289 Y88.947 E.0322
;WIDTH:0.414242
G1 X80.4 Y88.078 E.02705
;WIDTH:0.421107
G1 X80.624 Y87.197 E.02858
;WIDTH:0.422701
G1 X80.943 Y86.314 E.02965
G1 X81.345 Y85.449 E.03014
;WIDTH:0.421681
G1 X81.643 Y84.932 E.01877
;WIDTH:0.413874
G1 X82.065 Y84.29 E.02369
;WIDTH:0.414885
G1 X82.529 Y83.688 E.02352
;WIDTH:0.418546
G1 X82.995 Y83.169 E.02177
M204 P1250
G1 X83.267 Y83.424 F2400
M204 P800
;WIDTH:0.42013
G1 F1200
G1 X83.806 Y82.914 E.02325
;WIDTH:0.415133
G1 X83.807 Y82.913 E.00006
;WIDTH:0.415125
G1 X84.368 Y82.462 E.02229
;WIDTH:0.413644
G1 X84.966 Y82.052 E.02233
;WIDTH:0.421653
G1 X85.424 Y81.782 E.01676
G1 X86.251 Y81.37 E.02908
;WIDTH:0.420793
G1 X86.887 Y81.122 E.02147
G1 X87.688 Y80.876 E.02633
;WIDTH:0.417895
G1 X88.707 Y80.671 E.03239
;WIDTH:0.41428
G1 X89.644 Y80.6 E.02902
;WIDTH:0.416965
G1 X90.682 Y80.624 E.0323
;WIDTH:0.417481
G1 X91.699 Y80.747 E.0319
;WIDTH:0.421937
G1 X92.702 Y80.989 E.03252
;WIDTH:0.423299
G1 X93.547 Y81.293 E.0284
;WIDTH:0.424725
G1 X94.374 Y81.684 E.02906
;WIDTH:0.425801
G1 X95.15 Y82.144 E.0287
;WIDTH:0.426308
G1 X95.889 Y82.68 E.0291
G1 X96.733 Y83.443 E.03628
;WIDTH:0.425058
G1 X97.332 Y84.113 E.02854
;WIDTH:0.425897
G1 X97.853 Y84.846 E.02864
G1 X98.319 Y85.638 E.02927
;WIDTH:0.422161
G1 X98.674 Y86.387 E.02614
;WIDTH:0.420456
G1 X99.017 Y87.327 E.03141
G1 X99.232 Y88.17 E.02729
;WIDTH:0.419169
G1 X99.343 Y88.99 E.02591
;WIDTH:0.422722
G1 X99.377 Y89.975 E.03111
G1 X99.367 Y90.527 E.01744
;WIDTH:0.4178
G1 X99.329 Y91.138 E.01908
;WIDTH:0.423059
G1 X99.226 Y91.816 E.02168
;WIDTH:0.427596
G1 X98.997 Y92.681 E.02862
G1 X98.701 Y93.53 E.02878
;WIDTH:0.423271
G1 X98.312 Y94.361 E.029
;WIDTH:0.42294
G1 X97.852 Y95.138 E.02854
;WIDTH:0.422346
G1 X97.313 Y95.88 E.02893
;WIDTH:0.421472
G1 X96.714 Y96.556 E.02843
;WIDTH:0.420952
G1 X96.044 Y97.182 E.02882
;WIDTH:0.420065
G1 X95.377 Y97.695 E.02638
;WIDTH:0.41839
G1 X94.671 Y98.143 E.0261
;WIDTH:0.420452
G1 X93.952 Y98.518 E.02546
G1 X93.142 Y98.853 E.02749
;WIDTH:0.419254
G1 X92.324 Y99.1 E.02674
;WIDTH:0.425067
G1 X91.794 Y99.221 E.01728
G1 X90.981 Y99.337 E.02611
;WIDTH:0.422994
G1 X90 Y99.37 E.03102
G1 X89.448 Y99.359 E.01746
;WIDTH:0.418063
G1 X88.836 Y99.32 E.01911
;WIDTH:0.42371
G1 X88.192 Y99.222 E.02065
;WIDTH:0.427748
G1 X87.313 Y98.991 E.02906
G1 X86.466 Y98.697 E.02871
;WIDTH:0.423278
G1 X85.424 Y98.198 E.03653
;WIDTH:0.42095
G1 X84.658 Y97.722 E.02833
;WIDTH:0.420442
G1 X83.965 Y97.195 E.02734
;WIDTH:0.419187
G1 X83.353 Y96.632 E.02602
;WIDTH:0.4169
G1 X82.792 Y96.018 E.02585
;WIDTH:0.415254
G1 X82.286 Y95.357 E.02578
;WIDTH:0.413933
G1 X81.839 Y94.652 E.02577
;WIDTH:0.413626
G1 X81.453 Y93.906 E.02587
;WIDTH:0.413356
G1 X81.133 Y93.124 E.02604
;WIDTH:0.414127
G1 X80.881 Y92.309 E.02634
;WIDTH:0.424323
G1 X80.769 Y91.807 E.01631
G1 X80.648 Y90.967 E.02693
;WIDTH:0.42335
G1 X80.617 Y89.992 E.03084
;WIDTH:0.425345
G1 X80.636 Y89.319 E.02142
G1 X80.755 Y88.192 E.03604
;WIDTH:0.417703
G1 X80.959 Y87.391 E.02575
;WIDTH:0.41851
G1 X81.243 Y86.58 E.02683
G1 X81.591 Y85.795 E.02683
;WIDTH:0.415842
G1 X81.951 Y85.14 E.02317
;WIDTH:0.413716
G1 X82.353 Y84.524 E.02269
;WIDTH:0.421657
G1 X82.671 Y84.106 E.01653
G1 X83.228 Y83.469 E.02664
M204 P1250
G1 X83.159 Y83.038 F2400
G1 E-2.24 F4200
;WIPE_START
G1 F1920
G1 X83.544 Y83.165 E-.912
;WIPE_END
G1 E-.048 F4200
G1 Z.4 F2400
G1 X97.11 Y87.722
G1 Z.2
G1 E3.2
M204 P800
;TYPE:Perimeter
;WIDTH:0.419999
G1 F1200
G1 X97.293 Y88.501 E.0251
G1 X97.396 Y89.11 E.01938
G1 X97.446 Y89.978 E.02725
G1 X97.378 Y91.009 E.0324
G1 X97.183 Y91.988 E.03131
G1 X96.867 Y92.912 E.03059
G1 X96.441 Y93.772 E.03011
G1 X95.911 Y94.562 E.02981
G1 X95.287 Y95.273 E.02967
G1 X94.576 Y95.897 E.02967
G1 X93.786 Y96.427 E.02981
G1 X92.925 Y96.853 E.03012
G1 X92.169 Y97.112 E.02507
G1 X91.558 Y97.282 E.01987
G1 X91.982 Y96.726 E.02192
G1 X92.399 Y96 E.02625
G1 X92.638 Y95.482 E.01789
G1 X92.864 Y94.888 E.01991
G1 X93.082 Y94.704 E.00896
G1 X93.555 Y94.358 E.01836
G1 X94.026 Y93.917 E.02026
G1 X94.636 Y93.19 E.02974
G1 X94.983 Y92.654 E.02001
G1 X95.264 Y92.094 E.01964
G1 X95.435 Y91.582 E.01693
G1 X95.53 Y91.087 E.01581
G1 X95.624 Y90.163 E.02912
G1 X96.528 Y88.904 E.0486
G1 X96.839 Y88.359 E.01967
G1 X97.087 Y87.777 E.01984
M204 P1250
G1 E-2.24 F4200
;WIPE_START
G1 F1920
G1 X97.207 Y88.199 E-.912
;WIPE_END
G1 E-.048 F4200
G1 Z.4 F2400
G1 X97.039 Y86.145
G1 Z.2
G1 E3.2
M204 P800
;TYPE:External perimeter
;WIDTH:0.461467
G1 F1200
G1 X97.175 Y86.342 E.00833
;WIDTH:0.419999
G1 X97.665 Y88.436 E.06744
G1 X97.772 Y89.089 E.02073
G1 X97.823 Y89.979 E.02797
G1 X97.753 Y91.059 E.03391
G1 X97.547 Y92.087 E.03287
G1 X97.216 Y93.057 E.03215
G1 X96.768 Y93.962 E.03166
G1 X96.211 Y94.792 E.03135
G1 X95.554 Y95.54 E.03121
G1 X94.806 Y96.197 E.03121
G1 X94.333 Y96.514 E.01787
G1 X93.753 Y96.864 E.02124
G1 X93.017 Y97.22 E.02563
G1 X92.071 Y97.542 E.03132
G1 X91.382 Y97.715 E.02227
G1 X90.732 Y97.953 E.02172
;WIDTH:0.463731
G1 X90.639 Y97.939 E.00329
;WIDTH:0.507462
G1 X90.546 Y97.924 E.00363
;WIDTH:0.551194
G1 X90.453 Y97.91 E.00397
;WIDTH:0.594925
G1 X90.36 Y97.896 E.00431
;WIDTH:0.638656
G1 X90.267 Y97.882 E.00465
G1 X90.327 Y97.825 E.00408
;WIDTH:0.594925
G1 X90.386 Y97.768 E.00378
;WIDTH:0.551194
G1 X90.445 Y97.71 E.00348
;WIDTH:0.507462
G1 X90.505 Y97.653 E.00318
;WIDTH:0.463731
G1 X90.564 Y97.596 E.00288
;WIDTH:0.419999
G1 X90.783 Y97.468 E.00795
G1 X91.174 Y97.161 E.01561
G1 X91.656 Y96.538 E.02467
G1 X92.058 Y95.838 E.02532
G1 X92.274 Y95.381 E.01583
G1 X92.485 Y94.766 E.02039
G1 X92.637 Y94.56 E.00803
G1 X93.299 Y94.082 E.02561
G1 X93.739 Y93.673 E.01881
G1 X94.32 Y92.983 E.02831
G1 X94.647 Y92.483 E.01873
G1 X94.9 Y91.988 E.01741
G1 X95.065 Y91.51 E.01587
G1 X95.29 Y89.935 E.04989
G1 X95.816 Y89.269 E.02661
G1 X96.202 Y88.715 E.02115
G1 X96.494 Y88.208 E.01836
G1 X96.748 Y87.62 E.02007
G1 X96.867 Y87.033 E.01877
;WIDTH:0.461467
G1 X96.885 Y86.491 E.01889
;WIDTH:0.502934
G1 X96.903 Y85.948 E.02077
G1 X97.005 Y86.096 E.00687
M204 P1250
G1 X97.101 Y86.376 F2400
G1 E-2.24 F4200
;WIPE_START
G1 F1920
G1 X97.175 Y86.342 E-.62238
G1 X97.207 Y86.478 E-.28962
;WIPE_END
G1 E-.048 F4200
G1 Z.4 F2400
G1 X95.652 Y85.038
G1 Z.2
G1 E3.2
M204 P800
;TYPE:Perimeter
;WIDTH:0.419999
G1 F1200
G1 X95.272 Y84.959 E.01218
G1 X94.735 Y84.915 E.01688
G1 X93.949 Y84.924 E.02465
G1 X92.9 Y85.063 E.03318
G1 X92.799 Y85.045 E.00324
G1 X92.179 Y84.731 E.02177
G1 X91.338 Y84.457 E.02774
G1 X90.677 Y84.379 E.02087
G1 X89.959 Y84.366 E.02252
G1 X89.103 Y84.414 E.02686
G1 X88.408 Y84.532 E.02212
G1 X87.85 Y84.729 E.01855
G1 X87.215 Y85.031 E.02204
G1 X87.049 Y85.051 E.00523
G1 X86.427 Y84.949 E.01976
G1 X85.713 Y84.919 E.02241
G1 X84.936 Y84.948 E.0244
G1 X84.378 Y85.031 E.01766
G1 X84.776 Y84.62 E.01794
G1 X85.414 Y84.066 E.02647
G1 X86.111 Y83.589 E.02648
G1 X86.866 Y83.189 E.0268
G1 X87.676 Y82.873 E.02727
G1 X88.534 Y82.647 E.02782
G1 X89.147 Y82.571 E.01936
G1 X89.994 Y82.543 E.02656
G1 X90.761 Y82.567 E.02408
G1 X91.387 Y82.641 E.01974
G1 X92.256 Y82.861 E.02812
G1 X93.076 Y83.172 E.0275
G1 X93.84 Y83.569 E.02699
G1 X94.544 Y84.044 E.02663
G1 X95.198 Y84.604 E.02701
M73 P2 R30
G1 X95.609 Y84.996 E.0178
M204 P1250
G1 E-2.24 F4200
;WIPE_START
G1 F1920
G1 X95.272 Y84.959 E-.70434
G1 X95.172 Y84.951 E-.20766
;WIPE_END
G1 E-.048 F4200
G1 Z.4 F2400
G1 X96.884 Y85.913
G1 Z.2
G1 E3.2
M204 P800
;TYPE:External perimeter
;WIDTH:0.499476
G1 F1200
G1 X96.751 Y85.826 E.00604
;WIDTH:0.463747
G1 X96.275 Y85.694 E.01729
;WIDTH:0.419999
G1 X95.777 Y85.456 E.0173
G1 X95.264 Y85.339 E.0165
G1 X94.755 Y85.293 E.01603
G1 X94.253 Y85.295 E.01572
G1 X92.833 Y85.44 E.04475
G1 X92.625 Y85.38 E.0068
G1 X92.058 Y85.088 E.01998
G1 X91.29 Y84.831 E.02541
G1 X90.67 Y84.756 E.01958
G1 X89.978 Y84.743 E.02169
