; generated by PrusaSlicer 2.5.0+win64 on 2022-10-14 at 18:15:42 UTC


;
;

;
;
; 

; external perimeters extrusion width = 0.45mm
; perimeters extrusion width = 0.45mm
; infill extrusion width = 0.45mm
; solid infill extrusion width = 0.45mm
; top infill extrusion width = 0.40mm
; first layer extrusion width = 0.42mm

M73 P0 R14
M201 X2500 Y2500 Z400 E5000 ; sets maximum accelerations, mm/sec^2
M203 X180 Y180 Z12 E80 ; sets maximum feedrates, mm / sec
M204 P1250 R1250 T2500 ; sets acceleration (P, T) and retract acceleration (R), mm/sec^2
M205 X8.00 Y8.00 Z2.00 E10.00 ; sets the jerk limits, mm/sec
M205 S0 T0 ; sets the minimum extruding and travel feed rate, mm/sec
M107
;TYPE:Custom
M862.3 P "MINI" ; printer model check
G90 ; use absolute coordinates
M83 ; extruder relative mode
M104 S170 ; set extruder temp for bed leveling
M140 S60 ; set bed temp
M109 R170 ; wait for bed leveling temp
M190 S60 ; wait for bed temp
M204 T1250 ; set travel acceleration
G28 ; home all without mesh bed level
G29 ; mesh bed leveling 
M204 T2500 ; restore travel acceleration
M104 S215 ; set extruder temp
G92 E0
G1 Y-2 X179 F2400
G1 Z3 F720
M109 S215 ; wait for extruder temp

; intro line
G1 X170 F1000
G1 Z0.2 F720
G1 X110 E8 F900
G1 X40 E10 F700
G92 E0

M221 S95 ; set flow
G21 ; set units to millimeters
G90 ; use absolute coordinates
M83 ; use relative distances for extrusion
M900 K0.2 ; Filament gcode LA 1.5
; ; Filament gcode LA 1.0
M107
;LAYER_CHANGE
;Z:0.2
;HEIGHT:0.2
;BEFORE_LAYER_CHANGE
G92 E0.0
;0.2


M73 P1 R14
G1 E-3.2 F4200
M73 P1 R13
G1 Z.2 F2400
;AFTER_LAYER_CHANGE
;0.2
G1 Z.4
G1 X82.639 Y81.083
G1 Z.2
M73 P2 R13
G1 E3.2
M204 P800
;TYPE:Skirt/Brim
;WIDTH:0.42
G1 F1200
G1 X83.705 Y80.069 E.04612
G1 X85 Y79.746 E.04186
G1 X95 Y79.746 E.31354
G1 X96.417 Y80.139 E.04612
G1 X97.431 Y81.205 E.04612
G1 X97.754 Y82.5 E.04186
G1 X97.735 Y94.008 E.36082
G1 X97.622 Y94.828 E.02596
G1 X97.38 Y95.717 E.0289
G1 X96.673 Y97.165 E.0505
G1 X95.812 Y98.24 E.04319
G1 X94.856 Y99.045 E.03917
G1 X93.648 Y99.713 E.04331
G1 X92.328 Y100.122 E.04331
G1 X91.184 Y100.251 E.03611
G1 X85 Y100.254 E.19388
G1 X83.583 Y99.861 E.04612
G1 X82.569 Y98.795 E.04612
G1 X82.246 Y97.5 E.04186
G1 X82.246 Y82.5 E.47031
G1 X82.623 Y81.14 E.04424
M204 P1250
G1 X82.997 Y81.252 F2400
M204 P800
G1 F1200
G1 X83.015 Y81.193 E.00195
G1 X84.06 Y80.317 E.04278
G1 X85 Y80.123 E.03008
G1 X95 Y80.123 E.31354
G1 X96.307 Y80.515 E.04278
G1 X97.183 Y81.56 E.04278
G1 X97.377 Y82.5 E.03008
G1 X97.359 Y93.976 E.35981
G1 X97.252 Y94.758 E.02475
G1 X97.022 Y95.597 E.02729
G1 X96.681 Y96.396 E.02722
G1 X96.31 Y97.031 E.02308
G1 X95.48 Y98.038 E.04089
G1 X94.531 Y98.81 E.03836
G1 X93.503 Y99.365 E.03663
G1 X92.258 Y99.752 E.04089
G1 X91.177 Y99.874 E.0341
G1 X85 Y99.877 E.19368
G1 X83.693 Y99.485 E.04278
G1 X82.817 Y98.44 E.04278
G1 X82.623 Y97.5 E.03008
G1 X82.623 Y82.5 E.47031
G1 X82.979 Y81.31 E.03895
M204 P1250
; printing object endstop_knob_2pcs.stl id:0 copy 0
G1 E-2.24 F4200
;WIPE_START
G1 F1920
G1 X83.015 Y81.193 E-.2538
G1 X83.257 Y80.99 E-.65821
;WIPE_END
G1 E-.048 F4200
G1 Z.4 F2400
G1 X88.937 Y83.287
G1 Z.2
G1 E3.2
M204 P800
;TYPE:Perimeter
;WIDTH:0.419999
G1 F1200
G1 X94.213 Y83.287 E.16542
G1 X94.213 Y93.249 E.31236
G1 X94.192 Y93.846 E.01873
M73 P3 R13
G1 X94.076 Y94.399 E.01769
G1 X93.868 Y94.929 E.01786
G1 X93.574 Y95.418 E.0179
G1 X93.288 Y95.751 E.01373
G1 X92.898 Y96.089 E.01618
G1 X92.288 Y96.441 E.0221
G1 X91.653 Y96.643 E.02088
G1 X90.969 Y96.713 E.02157
G1 X88.937 Y96.713 E.0637
G1 X88.937 Y94.784 E.06048
G1 X89.22 Y95.156 E.01466
G1 X89.672 Y95.537 E.01853
G1 X90.155 Y95.783 E.017
G1 X90.652 Y95.91 E.01609
G1 X91.165 Y95.929 E.01609
G1 X91.497 Y95.876 E.01052
G1 X91.994 Y95.721 E.01633
G1 X92.471 Y95.44 E.01736
G1 X92.845 Y95.089 E.01609
G1 X93.135 Y94.67 E.01597
G1 X93.265 Y94.385 E.00983
G1 X93.414 Y93.816 E.01843
G1 X93.433 Y93.463 E.01109
G1 X93.365 Y92.923 E.01707
G1 X93.24 Y92.542 E.01257
G1 X92.997 Y92.107 E.01562
G1 X92.661 Y91.719 E.01609
G1 X92.25 Y91.411 E.01609
G1 X91.785 Y91.195 E.01609
G1 X91.284 Y91.082 E.01609
G1 X90.884 Y91.067 E.01257
G1 X90.391 Y91.142 E.01561
G1 X90.013 Y91.273 E.01257
G1 X89.581 Y91.522 E.01562
G1 X89.198 Y91.863 E.01609
G1 X88.937 Y92.216 E.01375
G1 X88.937 Y83.347 E.27808
M204 P1250
G1 X88.56 Y82.91 F2400
M204 P800
;TYPE:External perimeter
G1 F1200
G1 X94.59 Y82.91 E.18907
G1 X94.59 Y85.925 E.09453
G1 X94.59 Y93.249 E.22965
G1 X94.575 Y93.785 E.01681
G1 X94.496 Y94.298 E.01627
G1 X94.339 Y94.817 E.017
G1 X94.1 Y95.303 E.01699
G1 X93.737 Y95.81 E.01956
G1 X93.336 Y96.215 E.01786
G1 X92.905 Y96.54 E.01694
G1 X92.433 Y96.791 E.01675
G1 X91.73 Y97.014 E.02311
G1 X90.988 Y97.09 E.02339
G1 X88.56 Y97.09 E.07613
G1 X88.56 Y94.113 E.09333
;WIDTH:0.424325
G1 X88.56 Y92.797 E.04176
;WIDTH:0.419999
G1 X88.56 Y82.97 E.3081
M204 P1250
G1 E-2.24 F4200
;WIPE_START
G1 F1920
G1 X88.999 Y82.966 E-.912
;WIPE_END
G1 E-.048 F4200
G1 Z.4 F2400
G1 X90.879 Y91.444
G1 Z.2
G1 E3.2
M204 P800
G1 F1200
G1 X91.21 Y91.452 E.01039
G1 X91.635 Y91.541 E.0136
G1 X92.031 Y91.718 E.01361
G1 X92.382 Y91.973 E.01361
G1 X92.671 Y92.297 E.01361
G1 X92.885 Y92.669 E.01345
G1 X92.993 Y92.982 E.01039
G1 X93.056 Y93.453 E.0149
G1 X93.046 Y93.737 E.00891
G1 X92.917 Y94.239 E.01625
G1 X92.82 Y94.463 E.00765
G1 X92.58 Y94.82 E.01349
G1 X92.268 Y95.122 E.01361
G1 X92.059 Y95.256 E.0078
G1 X91.596 Y95.471 E.01598
G1 X91.17 Y95.552 E.0136
G1 X90.736 Y95.542 E.01361
G1 X90.314 Y95.442 E.01361
G1 X89.915 Y95.249 E.01391
G1 X89.462 Y94.868 E.01853
G1 X89.185 Y94.473 E.01514
G1 X89.021 Y94.071 E.01361
;WIDTH:0.424325
G1 X88.944 Y93.648 E.01362
;WIDTH:0.427599
G1 X88.945 Y93.316 E.01062
G1 X89.033 Y92.891 E.01388
;WIDTH:0.419999
G1 X89.204 Y92.492 E.01361
G1 X89.455 Y92.138 E.01361
G1 X89.775 Y91.845 E.01361
G1 X90.144 Y91.627 E.01345
G1 X90.456 Y91.514 E.01039
G1 X90.82 Y91.454 E.01156
M204 P1250
G1 X91.025 Y91.147 F2400
G1 E-2.24 F4200
;WIPE_START
G1 F1920
G1 X91.21 Y91.452 E-.81151
G1 X91.257 Y91.462 E-.10048
;WIPE_END
G1 E-.048 F4200
G1 Z.4 F2400
G1 X94.1 Y84.171
G1 Z.2
G1 E3.2
M204 P800
;TYPE:Solid infill
;WIDTH:0.424022
G1 F1200
G1 X93.499 Y83.57 E.02694
G1 X92.96 Y83.57 E.01708
G1 X93.93 Y84.54 E.04349
G1 X93.93 Y85.079 E.01708
G1 X92.421 Y83.57 E.06764
G1 X91.882 Y83.57 E.01708
G1 X93.93 Y85.618 E.09179
G1 X93.93 Y86.157 E.01708
G1 X91.343 Y83.57 E.11595
G1 X90.804 Y83.57 E.01708
G1 X93.93 Y86.696 E.1401
G1 X93.93 Y87.235 E.01708
G1 X90.265 Y83.57 E.16425
G1 X89.726 Y83.57 E.01708
G1 X93.93 Y87.774 E.18841
G1 X93.93 Y88.313 E.01708
G1 X89.22 Y83.603 E.21109
G1 X89.22 Y84.142 E.01708
G1 X93.93 Y88.852 E.21109
G1 X93.93 Y89.391 E.01708
G1 X89.22 Y84.681 E.21109
G1 X89.22 Y85.22 E.01708
G1 X93.93 Y89.93 E.21109
G1 X93.93 Y90.469 E.01708
M73 P4 R13
G1 X89.22 Y85.759 E.21109
G1 X89.22 Y86.298 E.01708
G1 X93.93 Y91.008 E.21109
G1 X93.93 Y91.547 E.01708
G1 X89.22 Y86.836 E.21109
G1 X89.22 Y87.375 E.01708
G1 X93.93 Y92.086 E.21109
G1 X93.93 Y92.625 E.01708
G1 X89.22 Y87.914 E.21109
G1 X89.22 Y88.453 E.01708
G1 X91.632 Y90.865 E.1081
G1 X91.19 Y90.788 E.01421
G1 X91.018 Y90.791 E.00545
G1 X89.22 Y88.992 E.08059
G1 X89.22 Y89.531 E.01708
G1 X90.521 Y90.833 E.05833
G1 X90.339 Y90.865 E.00587
G1 X90.094 Y90.944 E.00816
G1 X89.22 Y90.07 E.03918
G1 X89.22 Y90.609 E.01708
G1 X89.719 Y91.108 E.02237
G1 X89.389 Y91.317 E.01238
G1 X89.05 Y90.978 E.01519
M204 P1250
G1 E-2.24 F4200
;WIPE_START
G1 F1920
G1 X89.361 Y91.289 E-.912
;WIPE_END
G1 E-.048 F4200
G1 Z.4 F2400
G1 X93.382 Y92.616
G1 Z.2
G1 E3.2
M204 P800
G1 F1200
G1 X93.93 Y93.164 E.02455
G1 X93.919 Y93.692 E.01673
G1 X93.715 Y93.487 E.00915
G1 X93.706 Y93.774 E.00909
G1 X93.665 Y93.977 E.00656
G1 X93.85 Y94.162 E.00828
G1 X93.845 Y94.193 E.00102
G1 X93.724 Y94.574 E.01267
G1 X93.554 Y94.404 E.00763
G1 X93.392 Y94.781 E.013
G1 X93.55 Y94.939 E.00707
G1 X93.336 Y95.264 E.01233
G1 X93.178 Y95.107 E.00708
G1 X93.089 Y95.243 E.00516
G1 X92.928 Y95.396 E.00703
G1 X93.086 Y95.553 E.00706
G1 X93.07 Y95.57 E.00074
G1 X92.8 Y95.806 E.01137
G1 X92.652 Y95.658 E.00663
G1 X92.322 Y95.868 E.01237
G1 X92.479 Y96.024 E.00701
G1 X92.179 Y96.179 E.01069
G1 X92.115 Y96.199 E.00213
G1 X91.955 Y96.039 E.0072
G1 X91.815 Y96.096 E.00478
G1 X91.53 Y96.153 E.0092
G1 X91.706 Y96.329 E.00789
G1 X91.595 Y96.364 E.00368
G1 X91.239 Y96.401 E.01136
G1 X91.046 Y96.208 E.00866
G1 X90.759 Y96.207 E.00908
G1 X90.444 Y96.145 E.01017
G1 X90.729 Y96.43 E.01278
G1 X90.19 Y96.43 E.01708
G1 X89.558 Y95.798 E.02834
G1 X89.22 Y95.526 E.01374
G1 X89.22 Y95.999 E.01497
G1 X89.821 Y96.6 E.02693
M204 P1250
G1 E-2.24 F4200
;WIPE_START
G1 F1920
G1 X89.511 Y96.289 E-.912
;WIPE_END
G1 E-.048 F4200
G1 Z.4 F2400
G1 X85.627 Y97.277
G1 Z.2
G1 E3.2
M204 P800
;TYPE:External perimeter
;WIDTH:0.44646
G1 F1200
G1 X85.223 Y97.277 E.01354
G1 X85.223 Y82.723 E.48834
G1 X85.627 Y82.723 E.01354
G1 X85.627 Y97.217 E.48632
M204 P1250
G1 X85.279 Y97.08 F2400
; stop printing object endstop_knob_2pcs.stl id:0 copy 0
M106 S84.15
;LAYER_CHANGE
;Z:0.35
;HEIGHT:0.15
;BEFORE_LAYER_CHANGE
G92 E0.0
;0.35


G1 E-2.24 F4200
;WIPE_START
G1 F1920
G1 X85.223 Y97.277 E-.84783
G1 X85.223 Y97.246 E-.06418
;WIPE_END
G1 E-.048 F4200
G1 Z.4 F2400
;AFTER_LAYER_CHANGE
;0.35
G1 X82.361 Y97.961
G1 Z.35
G1 E3.2
;TYPE:Skirt/Brim
;WIDTH:0.42
G1 F2000
G1 X82.246 Y97.5 E.01149
G1 X82.246 Y82.5 E.36277
G1 X82.639 Y81.083 E.03557
G1 X83.705 Y80.069 E.03557
G1 X85 Y79.746 E.03229
G1 X95 Y79.746 E.24185
G1 X96.417 Y80.139 E.03557
G1 X97.431 Y81.205 E.03557
G1 X97.754 Y82.5 E.03229
G1 X97.735 Y94.008 E.27831
G1 X97.622 Y94.828 E.02002
G1 X97.38 Y95.717 E.02229
G1 X96.673 Y97.165 E.03895
G1 X95.812 Y98.24 E.03332
G1 X94.856 Y99.045 E.03021
G1 X93.648 Y99.713 E.03341
G1 X92.328 Y100.122 E.03341
G1 X91.184 Y100.251 E.02786
G1 X85 Y100.254 E.14955
G1 X83.583 Y99.861 E.03557
G1 X82.569 Y98.795 E.03557
G1 X82.376 Y98.019 E.01935
G1 X82.715 Y97.949 F2400
G1 F2000
G1 X82.623 Y97.5 E.01109
G1 X82.623 Y82.5 E.36277
G1 X83.015 Y81.193 E.033
M73 P5 R13
G1 X84.06 Y80.317 E.033
G1 X85 Y80.123 E.02321
G1 X95 Y80.123 E.24185
G1 X96.307 Y80.515 E.033
G1 X97.183 Y81.56 E.033
G1 X97.377 Y82.5 E.02321
G1 X97.359 Y93.976 E.27754
G1 X97.252 Y94.758 E.01909
G1 X97.022 Y95.597 E.02105
G1 X96.681 Y96.396 E.021
G1 X96.31 Y97.031 E.01781
G1 X95.48 Y98.038 E.03154
G1 X94.531 Y98.81 E.02959
G1 X93.503 Y99.365 E.02826
G1 X92.258 Y99.752 E.03154
G1 X91.177 Y99.874 E.0263
G1 X85 Y99.877 E.14939
G1 X83.693 Y99.485 E.033
G1 X82.817 Y98.44 E.033
G1 X82.728 Y98.008 E.01067
; printing object endstop_knob_2pcs.stl id:0 copy 0
G1 E-2.24 F4200
;WIPE_START
G1 F1920
G1 X82.639 Y97.578 E-.912
;WIPE_END
G1 E-.048 F4200
G1 Z.55 F2400
G1 X88.793 Y96.857
G1 Z.35
G1 E3.2
M204 P800
;TYPE:Perimeter
;WIDTH:0.449999
G1 F2000
G1 X88.782 Y94.102 E.07178
G1 X88.907 Y94.431 E.00917
G1 X89.09 Y94.766 E.00994
G1 X89.387 Y95.126 E.01217
G1 X89.764 Y95.428 E.01258
G1 X90.193 Y95.643 E.0125
G1 X90.56 Y95.749 E.00994
G1 X91.005 Y95.789 E.01166
G1 X91.504 Y95.734 E.01308
G1 X91.959 Y95.58 E.0125
G1 X92.291 Y95.393 E.00994
G1 X92.647 Y95.091 E.01217
G1 X92.944 Y94.71 E.01258
G1 X93.098 Y94.404 E.00893
G1 X93.255 Y93.907 E.01357
G1 X93.29 Y93.445 E.01208
G1 X93.227 Y92.967 E.01257
G1 X93.109 Y92.603 E.00996
G1 X92.884 Y92.198 E.01208
G1 X92.569 Y91.832 E.01257
G1 X92.185 Y91.54 E.01257
G1 X91.846 Y91.37 E.00988
G1 X91.397 Y91.244 E.01214
G1 X91.016 Y91.209 E.00996
G1 X90.555 Y91.253 E.01208
G1 X90.094 Y91.396 E.01257
G1 X89.756 Y91.576 E.00996
G1 X89.395 Y91.866 E.01208
G1 X89.088 Y92.239 E.01257
G1 X88.866 Y92.667 E.01258
G1 X88.816 Y92.903 E.00629
;WIDTH:0.422841
G1 X88.766 Y93.139 E.00588
G1 X88.779 Y92.895 E.00596
;WIDTH:0.449999
G1 X88.793 Y92.651 E.00638
G1 X88.793 Y83.143 E.24773
G1 X94.357 Y83.143 E.14498
G1 X94.357 Y85.925 E.07249
G1 X94.357 Y93.228 E.19028
G1 X94.33 Y93.875 E.01689
G1 X94.239 Y94.37 E.0131
G1 X94.061 Y94.869 E.01382
G1 X93.806 Y95.331 E.01374
G1 X93.483 Y95.751 E.0138
G1 X93.079 Y96.129 E.01442
G1 X92.654 Y96.419 E.01342
G1 X92.015 Y96.697 E.01815
G1 X91.367 Y96.831 E.01722
G1 X90.984 Y96.857 E.01002
G1 X88.853 Y96.857 E.05552
M204 P1250
G1 X88.375 Y97.275 F2400
M204 P800
;TYPE:External perimeter
G1 F1500
G1 X88.375 Y82.725 E.37911
G1 X94.775 Y82.725 E.16676
G1 X94.772 Y93.538 E.28173
G1 X94.726 Y94.078 E.01412
G1 X94.613 Y94.58 E.01341
G1 X94.432 Y95.062 E.01341
G1 X94.147 Y95.571 E.01522
G1 X93.67 Y96.168 E.01989
G1 X93.281 Y96.508 E.01347
G1 X92.853 Y96.788 E.01333
G1 X92.142 Y97.097 E.0202
G1 X91.452 Y97.24 E.01834
G1 X90.994 Y97.275 E.01197
G1 X88.435 Y97.275 E.06668
M204 P1250
G1 X88.574 Y96.928 F2400
G1 E-2.24 F4200
;WIPE_START
G1 F1920
G1 X88.433 Y96.836 E-.912
;WIPE_END
G1 E-.048 F4200
G1 Z.55 F2400
G1 X89.145 Y93.231
G1 Z.35
G1 E3.2
M204 P800
G1 F1500
G1 X89.243 Y92.849 E.01029
G1 X89.418 Y92.495 E.01029
G1 X89.664 Y92.186 E.01029
G1 X89.962 Y91.939 E.01008
G1 X90.229 Y91.792 E.00795
G1 X90.604 Y91.668 E.01029
G1 X90.989 Y91.626 E.01008
G1 X91.293 Y91.649 E.00795
G1 X91.669 Y91.749 E.01014
G1 X91.942 Y91.88 E.00788
G1 X92.261 Y92.113 E.01029
G1 X92.523 Y92.408 E.01029
G1 X92.715 Y92.744 E.01008
G1 X92.815 Y93.032 E.00795
G1 X92.872 Y93.423 E.01028
G1 X92.849 Y93.809 E.01008
G1 X92.716 Y94.232 E.01155
G1 X92.608 Y94.463 E.00665
G1 X92.37 Y94.779 E.01029
G1 X91.911 Y95.134 E.01513
G1 X91.444 Y95.321 E.01311
G1 X91.033 Y95.372 E.01079
G1 X90.664 Y95.344 E.00964
G1 X90.369 Y95.265 E.00794
G1 X90.016 Y95.095 E.01022
G1 X89.703 Y94.853 E.01029
G1 X89.451 Y94.556 E.01015
G1 X89.301 Y94.291 E.00794
G1 X89.174 Y93.92 E.01022
G1 X89.126 Y93.533 E.01015
G1 X89.141 Y93.291 E.00632
M204 P1250
G1 X88.837 Y92.984 F2400
G1 X88.766 Y93.139
M204 P800
;TYPE:Perimeter
;WIDTH:0.395682
G1 F2000
G1 X88.758 Y93.249 E.0025
;WIDTH:0.420312
G1 X88.778 Y93.998 E.01813
M204 P1250
G1 E-2.24 F4200
;WIPE_START
G1 F1920
G1 X88.766 Y93.559 E-.912
;WIPE_END
G1 E-.048 F4200
G1 Z.55 F2400
G1 X93.913 Y94.882
G1 Z.35
G1 E3.2
M204 P1000
;TYPE:Solid infill
;WIDTH:0.460334
G1 F2000
G1 X93.103 Y95.692 E.03059
G1 X92.838 Y95.924 E.0094
G1 X92.504 Y96.142 E.01066
G1 X91.919 Y96.396 E.01702
G1 X91.76 Y96.429 E.00433
G1 X93.944 Y94.245 E.08247
G1 X94.013 Y93.914 E.00904
G1 X94.038 Y93.546 E.00985
G1 X93.54 Y94.044 E.01881
G1 X93.496 Y94.247 E.00554
G1 X93.295 Y94.729 E.01393
G1 X93.2 Y94.892 E.00505
G1 X92.93 Y95.253 E.01203
G1 X92.563 Y95.584 E.0132
G1 X92.119 Y95.853 E.01386
G1 X91.737 Y95.997 E.01088
G1 X91.54 Y96.044 E.00542
G1 X90.853 Y96.732 E.02596
M204 P1250
G1 X91.066 Y95.913 F2400
M204 P1000
G1 F2000
G1 X90.435 Y96.544 E.02383
G1 X89.83 Y96.544 E.01617
G1 X90.358 Y96.016 E.01995
G1 X90.217 Y95.984 E.00385
G1 X89.914 Y95.854 E.00881
G1 X89.224 Y96.544 E.02606
G1 X89.106 Y96.544 E.00315
G1 X89.106 Y96.056 E.01302
G1 X89.523 Y95.639 E.01575
G1 X89.287 Y95.461 E.00789
G1 X89.195 Y95.362 E.00362
G1 X88.918 Y95.639 E.01046
M204 P1250
G1 E-2.24 F4200
;WIPE_START
G1 F1920
G1 X89.195 Y95.362 E-.81439
G1 X89.227 Y95.396 E-.09761
;WIPE_END
G1 E-.048 F4200
G1 Z.55 F2400
G1 X93.407 Y93.572
G1 Z.35
G1 E3.2
M204 P1000
G1 F2000
G1 X94.044 Y92.935 E.02403
G1 X94.044 Y92.33 E.01617
G1 X93.518 Y92.855 E.01985
G1 X93.402 Y92.491 E.0102
G1 X93.357 Y92.41 E.00246
G1 X94.044 Y91.724 E.02592
G1 X94.044 Y91.119 E.01617
G1 X93.142 Y92.021 E.03407
G1 X92.865 Y91.692 E.01148
G1 X94.044 Y90.513 E.0445
G1 X94.044 Y89.908 E.01617
G1 X92.536 Y91.415 E.05692
G1 X92.365 Y91.283 E.00578
G1 X92.169 Y91.177 E.00595
G1 X94.044 Y89.302 E.0708
G1 X94.044 Y88.697 E.01617
G1 X91.732 Y91.008 E.08729
G1 X91.339 Y90.916 E.01079
M73 P6 R13
G1 X91.226 Y90.909 E.003
G1 X94.044 Y88.091 E.10639
G1 X94.044 Y87.486 E.01617
G1 X90.594 Y90.935 E.13025
G1 X90.33 Y90.984 E.00719
G1 X89.985 Y91.103 E.00973
G1 X89.642 Y91.282 E.01032
G1 X94.044 Y86.88 E.1662
G1 X94.044 Y86.275 E.01617
G1 X89.106 Y91.212 E.18645
G1 X89.106 Y90.607 E.01617
G1 X94.044 Y85.669 E.18645
G1 X94.044 Y85.064 E.01617
G1 X89.106 Y90.001 E.18645
G1 X89.106 Y89.396 E.01617
G1 X94.044 Y84.458 E.18645
G1 X94.044 Y83.853 E.01617
G1 X89.106 Y88.79 E.18645
G1 X89.106 Y88.185 E.01617
G1 X93.835 Y83.456 E.17856
G1 X93.229 Y83.456 E.01617
G1 X89.106 Y87.579 E.1557
