; generated by PrusaSlicer 2.5.0+win64 on 2022-10-14 at 18:15:52 UTC


;
;

;
;
; 

; external perimeters extrusion width = 0.45mm
; perimeters extrusion width = 0.45mm
; infill extrusion width = 0.45mm
; solid infill extrusion width = 0.45mm
; top infill extrusion width = 0.40mm
; support material extrusion width = 0.35mm
; first layer extrusion width = 0.42mm

M73 P0 R7
M201 X2500 Y2500 Z400 E5000 ; sets maximum accelerations, mm/sec^2
M203 X180 Y180 Z12 E80 ; sets maximum feedrates, mm / sec
M204 P1250 R1250 T2500 ; sets acceleration (P, T) and retract acceleration (R), mm/sec^2
M205 X8.00 Y8.00 Z2.00 E10.00 ; sets the jerk limits, mm/sec
M205 S0 T0 ; sets the minimum extruding and travel feed rate, mm/sec
M107
;TYPE:Custom
M862.3 P "MINI" ; printer model check
G90 ; use absolute coordinates
M83 ; extruder relative mode
M104 S170 ; set extruder temp for bed leveling
M140 S60 ; set bed temp
M109 R170 ; wait for bed leveling temp
M190 S60 ; wait for bed temp
M204 T1250 ; set travel acceleration
G28 ; home all without mesh bed level
G29 ; mesh bed leveling 
M204 T2500 ; restore travel acceleration
M104 S215 ; set extruder temp
G92 E0
G1 Y-2 X179 F2400
G1 Z3 F720
M109 S215 ; wait for extruder temp

; intro line
G1 X170 F1000
M73 P1 R7
G1 Z0.2 F720
G1 X110 E8 F900
G1 X40 E10 F700
G92 E0

M221 S95 ; set flow
G21 ; set units to millimeters
G90 ; use absolute coordinates
M83 ; use relative distances for extrusion
M900 K0.2 ; Filament gcode LA 1.5
; ; Filament gcode LA 1.0
M107
;LAYER_CHANGE
;Z:0.2
;HEIGHT:0.2
;BEFORE_LAYER_CHANGE
G92 E0.0
;0.2


M73 P2 R7
G1 E-3.2 F4200
M73 P3 R7
G1 Z.2 F2400
;AFTER_LAYER_CHANGE
;0.2
G1 Z.4
G1 X83.204 Y80.003
G1 Z.2
M73 P4 R7
G1 E3.2
M204 P800
;TYPE:Skirt/Brim
;WIDTH:0.42
G1 F1200
G1 X84.389 Y79.022 E.04823
G1 X85.728 Y78.231 E.04877
G1 X87.168 Y77.666 E.04848
G1 X88.673 Y77.337 E.04833
G1 X90.197 Y77.248 E.04784
G1 X91.577 Y77.374 E.04346
G1 X93.009 Y77.722 E.0462
G1 X94.437 Y78.314 E.04847
G1 X95.603 Y79.016 E.04269
G1 X96.742 Y79.951 E.0462
G1 X97.658 Y80.959 E.04269
G1 X98.48 Y82.181 E.0462
G1 X99.135 Y83.581 E.04847
G1 X99.506 Y84.816 E.04041
G1 X99.654 Y85.821 E.03186
G1 X99.654 Y100 E.44457
G1 X99.261 Y101.417 E.04612
G1 X98.195 Y102.431 E.04612
G1 X96.9 Y102.754 E.04186
G1 X83.1 Y102.754 E.43269
G1 X81.683 Y102.361 E.04612
G1 X80.669 Y101.295 E.04612
G1 X80.346 Y100 E.04186
G1 X80.346 Y85.821 E.44457
G1 X80.439 Y85.068 E.0238
G1 X80.753 Y83.898 E.03799
G1 X81.358 Y82.477 E.04842
G1 X82.175 Y81.178 E.04812
G1 X83.165 Y80.048 E.04709
M204 P1250
G1 X83.452 Y80.318 F2400
M204 P800
G1 F1200
G1 X83.697 Y80.057 E.01123
G1 X84.821 Y79.183 E.04464
G1 X85.953 Y78.541 E.04081
G1 X87.281 Y78.026 E.04464
G1 X88.728 Y77.71 E.04645
G1 X90.031 Y77.623 E.04096
G1 X91.513 Y77.746 E.0466
M73 P5 R7
G1 X92.956 Y78.101 E.0466
G1 X94.325 Y78.68 E.0466
G1 X95.585 Y79.468 E.0466
G1 X96.705 Y80.445 E.0466
G1 X97.656 Y81.587 E.0466
G1 X98.416 Y82.864 E.0466
G1 X98.945 Y84.186 E.04464
G1 X99.192 Y85.146 E.03109
G1 X99.277 Y85.821 E.02133
G1 X99.277 Y100 E.44457
G1 X98.885 Y101.307 E.04278
G1 X97.84 Y102.183 E.04278
G1 X96.9 Y102.377 E.03008
G1 X83.1 Y102.377 E.43269
G1 X81.793 Y101.985 E.04278
G1 X80.917 Y100.94 E.04278
G1 X80.723 Y100 E.03008
G1 X80.723 Y85.821 E.44457
G1 X80.904 Y84.724 E.03487
G1 X81.283 Y83.544 E.03885
G1 X81.932 Y82.221 E.04621
G1 X82.68 Y81.14 E.0412
G1 X83.411 Y80.362 E.03349
M204 P1250
; printing object front_panel_magnet_holder_1pcs.stl id:0 copy 0
G1 E-2.24 F4200
;WIPE_START
G1 F1920
G1 X83.697 Y80.057 E-.8689
G1 X83.714 Y80.044 E-.0431
;WIPE_END
G1 E-.048 F4200
G1 Z.4 F2400
G1 X83.887 Y99.213
G1 Z.2
G1 E3.2
M204 P800
;TYPE:Perimeter
;WIDTH:0.419999
G1 F1200
G1 X83.887 Y85.901 E.41738
G1 X84.012 Y85.357 E.01749
M73 P6 R7
G1 X84.181 Y84.836 E.01718
G1 X84.416 Y84.288 E.0187
G1 X84.756 Y83.669 E.02214
G1 X85.18 Y83.088 E.02257
G1 X85.527 Y82.696 E.01641
G1 X86.057 Y82.199 E.02277
G1 X86.65 Y81.774 E.02288
G1 X87.089 Y81.517 E.01592
G1 X87.752 Y81.208 E.02295
G1 X88.452 Y80.989 E.02299
G1 X88.954 Y80.881 E.01609
G1 X89.465 Y80.815 E.01618
G1 X90.155 Y80.79 E.02163
G1 X90.989 Y80.867 E.02626
G1 X91.664 Y81.02 E.02171
G1 X92.155 Y81.178 E.01617
G1 X92.623 Y81.374 E.01592
G1 X93.068 Y81.604 E.01569
G1 X93.683 Y81.997 E.02291
G1 X94.24 Y82.466 E.02282
G1 X94.604 Y82.836 E.01628
G1 X94.933 Y83.232 E.01613
G1 X95.326 Y83.803 E.02173
G1 X95.593 Y84.324 E.01835
G1 X95.819 Y84.836 E.01756
G1 X95.988 Y85.357 E.01718
G1 X96.113 Y85.901 E.01749
G1 X96.113 Y99.213 E.41738
G1 X83.947 Y99.213 E.38145
M204 P1250
G1 X83.51 Y99.59 F2400
M204 P800
;TYPE:External perimeter
M73 P6 R6
G1 F1200
G1 X83.51 Y85.861 E.43045
G1 X83.613 Y85.379 E.01547
G1 X83.761 Y84.878 E.01639
G1 X83.949 Y84.39 E.01639
G1 X84.175 Y83.919 E.01638
G1 X84.438 Y83.467 E.01639
G1 X84.735 Y83.037 E.01639
G1 X85.066 Y82.632 E.01639
G1 X85.427 Y82.255 E.01639
G1 X85.818 Y81.907 E.01639
G1 X86.234 Y81.592 E.01639
G1 X86.675 Y81.311 E.01639
G1 X87.136 Y81.065 E.01639
G1 X87.616 Y80.857 E.01639
G1 X88.11 Y80.687 E.01639
G1 X88.616 Y80.557 E.01639
G1 X89.131 Y80.468 E.01639
G1 X89.652 Y80.419 E.01639
G1 X90.17 Y80.412 E.01625
G1 X91.044 Y80.493 E.02751
G1 X91.554 Y80.596 E.01631
G1 X92.056 Y80.739 E.01639
G1 X92.546 Y80.922 E.01639
G1 X93.02 Y81.143 E.01639
G1 X93.474 Y81.4 E.01639
G1 X93.907 Y81.693 E.01639
G1 X94.315 Y82.02 E.01639
G1 X94.697 Y82.377 E.01639
G1 X95.048 Y82.764 E.01639
G1 X95.368 Y83.178 E.01639
G1 X95.653 Y83.613 E.01632
G1 X95.929 Y84.152 E.01898
G1 X96.171 Y84.701 E.01881
G1 X96.349 Y85.25 E.01812
G1 X96.49 Y85.861 E.01966
G1 X96.49 Y99.59 E.43045
G1 X83.57 Y99.59 E.4051
M204 P1250
M73 P7 R6
G1 X83.61 Y99.203 F2400
G1 E-2.24 F4200
;WIPE_START
G1 F1920
G1 X83.568 Y99.151 E-.912
;WIPE_END
G1 E-.048 F4200
G1 Z.4 F2400
G1 X93.183 Y81.799
G1 Z.2
G1 E3.2
M204 P800
;TYPE:Solid infill
;WIDTH:0.421778
G1 F1200
G1 X94.237 Y82.853 E.04698
G1 X94.542 Y83.189 E.01429
G1 X94.83 Y83.561 E.01481
G1 X95.081 Y83.945 E.01447
G1 X95.384 Y84.535 E.0209
G1 X92.457 Y81.608 E.13041
G1 X91.85 Y81.367 E.02056
G1 X91.611 Y81.298 E.00784
G1 X95.702 Y85.39 E.18227
G1 X95.83 Y85.931 E.01752
G1 X95.83 Y86.053 E.00386
G1 X90.922 Y81.145 E.21868
G1 X90.331 Y81.09 E.01868
G1 X95.83 Y86.589 E.24499
G1 X95.83 Y87.125 E.01688
G1 X89.783 Y81.078 E.26942
G1 X89.285 Y81.116 E.01571
G1 X95.83 Y87.661 E.29157
G1 X95.83 Y88.197 E.01688
G1 X88.824 Y81.191 E.31211
G1 X88.393 Y81.296 E.01397
M73 P8 R6
G1 X95.83 Y88.732 E.33131
G1 X95.83 Y89.268 E.01688
G1 X87.988 Y81.426 E.34935
G1 X87.606 Y81.58 E.01297
G1 X95.83 Y89.804 E.36637
G1 X95.83 Y90.34 E.01688
G1 X87.245 Y81.755 E.38247
G1 X86.903 Y81.948 E.01239
G1 X95.83 Y90.875 E.39772
G1 X95.83 Y91.411 E.01688
G1 X86.578 Y82.159 E.41218
G1 X86.273 Y82.39 E.01205
G1 X95.83 Y91.947 E.42577
G1 X95.83 Y92.483 E.01688
M73 P9 R6
G1 X85.987 Y82.64 E.43851
G1 X85.717 Y82.906 E.01194
G1 X95.83 Y93.019 E.45053
G1 X95.83 Y93.554 E.01688
G1 X85.464 Y83.188 E.46183
G1 X85.226 Y83.486 E.01201
G1 X95.83 Y94.09 E.4724
G1 X95.83 Y94.626 E.01688
G1 X85.007 Y83.803 E.48217
G1 X84.809 Y84.141 E.01233
G1 X95.83 Y95.162 E.491
G1 X95.83 Y95.698 E.01688
M73 P10 R6
G1 X84.63 Y84.497 E.49899
G1 X84.47 Y84.873 E.01288
G1 X95.83 Y96.233 E.5061
G1 X95.83 Y96.769 E.01688
G1 X84.333 Y85.272 E.51222
G1 X84.22 Y85.695 E.01379
G1 X95.83 Y97.305 E.51724
G1 X95.83 Y97.841 E.01688
G1 X84.17 Y86.18 E.51947
G1 X84.17 Y86.716 E.01688
M73 P11 R6
G1 X95.83 Y98.376 E.51947
G1 X95.83 Y98.912 E.01688
G1 X84.17 Y87.252 E.51947
G1 X84.17 Y87.788 E.01688
G1 X95.312 Y98.93 E.4964
G1 X94.776 Y98.93 E.01688
G1 X84.17 Y88.324 E.47253
G1 X84.17 Y88.859 E.01688
G1 X94.241 Y98.93 E.44866
G1 X93.705 Y98.93 E.01688
G1 X84.17 Y89.395 E.42479
G1 X84.17 Y89.931 E.01688
M73 P12 R6
G1 X93.169 Y98.93 E.40092
G1 X92.633 Y98.93 E.01688
G1 X84.17 Y90.467 E.37705
G1 X84.17 Y91.003 E.01688
G1 X92.097 Y98.93 E.35318
G1 X91.562 Y98.93 E.01688
G1 X84.17 Y91.538 E.32931
G1 X84.17 Y92.074 E.01688
G1 X91.026 Y98.93 E.30544
G1 X90.49 Y98.93 E.01688
G1 X84.17 Y92.61 E.28157
G1 X84.17 Y93.146 E.01688
G1 X89.954 Y98.93 E.2577
G1 X89.419 Y98.93 E.01688
M73 P13 R6
G1 X84.17 Y93.681 E.23383
G1 X84.17 Y94.217 E.01688
G1 X88.883 Y98.93 E.20996
G1 X88.347 Y98.93 E.01688
G1 X84.17 Y94.753 E.18609
G1 X84.17 Y95.289 E.01688
G1 X87.811 Y98.93 E.16222
G1 X87.275 Y98.93 E.01688
G1 X84.17 Y95.825 E.13835
G1 X84.17 Y96.36 E.01688
G1 X86.74 Y98.93 E.11448
G1 X86.204 Y98.93 E.01688
G1 X84.17 Y96.896 E.09061
G1 X84.17 Y97.432 E.01688
G1 X85.668 Y98.93 E.06674
G1 X85.132 Y98.93 E.01688
G1 X84.17 Y97.968 E.04287
G1 X84.17 Y98.504 E.01688
G1 X84.766 Y99.1 E.02656
M204 P1250
; stop printing object front_panel_magnet_holder_1pcs.stl id:0 copy 0
M106 S84.15
;LAYER_CHANGE
;Z:0.35
;HEIGHT:0.15
;BEFORE_LAYER_CHANGE
G92 E0.0
;0.35


G1 E-2.24 F4200
;WIPE_START
G1 F1920
G1 X84.456 Y98.789 E-.912
;WIPE_END
G1 E-.048 F4200
G1 Z.4 F2400
;AFTER_LAYER_CHANGE
;0.35
G1 X84.456 Y102.754
G1 Z.35
G1 E3.2
;TYPE:Skirt/Brim
;WIDTH:0.42
G1 X83.1 Y102.754 E.03279
G1 X81.683 Y102.361 E.03557
G1 X80.669 Y101.295 E.03557
G1 X80.346 Y100 E.03229
G1 X80.346 Y85.821 E.34292
G1 X80.439 Y85.068 E.01835
G1 X80.753 Y83.898 E.0293
G1 X81.358 Y82.477 E.03735
G1 X82.175 Y81.178 E.03712
G1 X83.204 Y80.003 E.03778
G1 X84.389 Y79.022 E.03721
G1 X85.728 Y78.231 E.03762
G1 X87.168 Y77.666 E.03739
G1 X88.673 Y77.337 E.03728
G1 X90.197 Y77.248 E.0369
G1 X91.577 Y77.374 E.03353
G1 X93.009 Y77.722 E.03563
G1 X94.437 Y78.314 E.03739
G1 X95.603 Y79.016 E.03292
G1 X96.742 Y79.951 E.03563
G1 X97.658 Y80.959 E.03293
G1 X98.48 Y82.181 E.03563
G1 X99.135 Y83.581 E.03739
G1 X99.506 Y84.816 E.03117
G1 X99.654 Y85.821 E.02458
G1 X99.654 Y100 E.34292
G1 X99.261 Y101.417 E.03557
G1 X98.195 Y102.431 E.03557
M73 P14 R6
G1 X96.9 Y102.754 E.03229
G1 X84.516 Y102.754 E.29951
G1 X84.516 Y102.377
G1 X83.1 Y102.377 E.03424
G1 X81.793 Y101.985 E.033
G1 X80.917 Y100.94 E.033
G1 X80.723 Y100 E.02321
G1 X80.723 Y85.821 E.34292
G1 X80.904 Y84.724 E.0269
G1 X81.283 Y83.544 E.02996
G1 X81.932 Y82.221 E.03564
G1 X82.68 Y81.14 E.03178
G1 X83.697 Y80.057 E.03594
G1 X84.821 Y79.183 E.03443
G1 X85.953 Y78.541 E.03148
G1 X87.281 Y78.026 E.03443
G1 X88.728 Y77.71 E.03583
G1 X90.031 Y77.623 E.03159
G1 X91.513 Y77.746 E.03594
G1 X92.956 Y78.101 E.03595
G1 X94.325 Y78.68 E.03594
G1 X95.585 Y79.468 E.03594
G1 X96.705 Y80.445 E.03594
G1 X97.656 Y81.587 E.03595
G1 X98.416 Y82.864 E.03594
G1 X98.945 Y84.186 E.03443
G1 X99.192 Y85.146 E.02398
G1 X99.277 Y85.821 E.01645
G1 X99.277 Y100 E.34292
G1 X98.885 Y101.307 E.033
G1 X97.84 Y102.183 E.033
G1 X96.9 Y102.377 E.02321
G1 X84.576 Y102.377 E.29806
; printing object front_panel_magnet_holder_1pcs.stl id:0 copy 0
G1 E-2.24 F4200
;WIPE_START
G1 F1920
G1 X84.137 Y102.377 E-.912
;WIPE_END
G1 E-.048 F4200
G1 Z.55 F2400
G1 X83.743 Y99.357
G1 Z.35
G1 E3.2
M204 P800
;TYPE:Perimeter
;WIDTH:0.449999
G1 X83.743 Y85.888 E.35094
G1 X83.875 Y85.314 E.01535
G1 X84.047 Y84.784 E.01452
G1 X84.252 Y84.297 E.01378
G1 X84.491 Y83.838 E.01348
G1 X84.788 Y83.369 E.01446
G1 X85.09 Y82.97 E.01303
G1 X85.423 Y82.596 E.01306
G1 X85.785 Y82.248 E.01307
G1 X86.174 Y81.93 E.01309
G1 X86.587 Y81.644 E.01309
G1 X87.021 Y81.39 E.0131
G1 X87.474 Y81.172 E.01311
G1 X87.944 Y80.99 E.01312
G1 X88.43 Y80.845 E.01322
G1 X88.93 Y80.739 E.01333
G1 X89.458 Y80.671 E.01387
G1 X90.148 Y80.645 E.01798
G1 X91.013 Y80.725 E.02264
G1 X91.702 Y80.88 E.0184
G1 X92.228 Y81.052 E.01443
G1 X92.691 Y81.246 E.01307
G1 X93.139 Y81.478 E.01315
G1 X93.568 Y81.745 E.01316
G1 X93.974 Y82.045 E.01317
G1 X94.356 Y82.377 E.01318
G1 X94.711 Y82.739 E.0132
G1 X95.036 Y83.129 E.01324
G1 X95.338 Y83.557 E.01363
G1 X95.692 Y84.17 E.01844
G1 X95.935 Y84.755 E.01651
G1 X96.125 Y85.314 E.01539
G1 X96.257 Y85.888 E.01535
G1 X96.257 Y99.357 E.35094
G1 X83.803 Y99.357 E.32451
M204 P1250
G1 X83.325 Y99.775
M204 P800
;TYPE:External perimeter
G1 F1800
G1 X83.325 Y85.845 E.36297
G1 X83.433 Y85.333 E.01362
M73 P15 R6
G1 X83.586 Y84.818 E.014
G1 X83.779 Y84.317 E.014
G1 X84.011 Y83.832 E.014
G1 X84.281 Y83.367 E.014
G1 X84.587 Y82.926 E.014
G1 X84.927 Y82.51 E.014
G1 X85.299 Y82.122 E.014
G1 X85.7 Y81.764 E.014
G1 X86.129 Y81.44 E.014
G1 X86.582 Y81.151 E.014
G1 X87.056 Y80.898 E.014
G1 X87.549 Y80.684 E.014
G1 X88.057 Y80.51 E.014
G1 X88.577 Y80.376 E.014
G1 X89.107 Y80.284 E.014
G1 X89.642 Y80.235 E.014
G1 X90.164 Y80.227 E.0136
G1 X91.073 Y80.311 E.02379
G1 X91.597 Y80.416 E.01392
G1 X92.114 Y80.563 E.014
G1 X92.617 Y80.751 E.014
G1 X93.104 Y80.978 E.014
G1 X93.572 Y81.243 E.014
G1 X94.017 Y81.544 E.014
G1 X94.437 Y81.88 E.014
G1 X94.828 Y82.248 E.014
G1 X95.19 Y82.645 E.014
G1 X95.519 Y83.07 E.014
G1 X95.813 Y83.52 E.014
G1 X96.069 Y83.989 E.01393
G1 X96.415 Y84.821 E.02346
G1 X96.567 Y85.333 E.01393
G1 X96.675 Y85.845 E.01362
G1 X96.675 Y99.775 E.36297
G1 X83.385 Y99.775 E.34628
M204 P1250
G1 X83.426 Y99.388 F2400
G1 E-2.24 F4200
;WIPE_START
G1 F1920
G1 X83.383 Y99.336 E-.912
;WIPE_END
G1 E-.048 F4200
G1 Z.55 F2400
G1 X96.132 Y98.385
G1 Z.35
G1 E3.2
M204 P1000
;TYPE:Solid infill
;WIDTH:0.45101
G1 X95.473 Y99.044 E.02433
G1 X94.881 Y99.044 E.01547
G1 X95.944 Y97.981 E.03927
G1 X95.944 Y97.389 E.01547
G1 X94.289 Y99.044 E.06114
G1 X93.696 Y99.044 E.01547
G1 X95.944 Y96.796 E.08302
G1 X95.944 Y96.204 E.01547
G1 X93.104 Y99.044 E.1049
G1 X92.512 Y99.044 E.01547
G1 X95.944 Y95.612 E.12678
G1 X95.944 Y95.019 E.01547
G1 X91.919 Y99.044 E.14866
G1 X91.327 Y99.044 E.01547
G1 X95.944 Y94.427 E.17053
G1 X95.944 Y93.835 E.01547
G1 X90.735 Y99.044 E.19241
G1 X90.142 Y99.044 E.01547
G1 X95.944 Y93.242 E.21429
G1 X95.944 Y92.65 E.01547
G1 X89.55 Y99.044 E.23617
G1 X88.958 Y99.044 E.01547
G1 X95.944 Y92.058 E.25805
G1 X95.944 Y91.466 E.01547
M73 P16 R6
G1 X88.366 Y99.044 E.27992
G1 X87.773 Y99.044 E.01547
G1 X95.944 Y90.873 E.3018
G1 X95.944 Y90.281 E.01547
G1 X87.181 Y99.044 E.32368
G1 X86.589 Y99.044 E.01547
G1 X95.944 Y89.689 E.34556
G1 X95.944 Y89.096 E.01547
G1 X85.996 Y99.044 E.36744
G1 X85.404 Y99.044 E.01547
G1 X95.944 Y88.504 E.38932
G1 X95.944 Y87.912 E.01547
G1 X84.812 Y99.044 E.41119
G1 X84.219 Y99.044 E.01547
G1 X95.944 Y87.319 E.43307
G1 X95.944 Y86.727 E.01547
G1 X84.056 Y98.615 E.4391
G1 X84.056 Y98.022 E.01547
G1 X95.944 Y86.135 E.4391
G1 X95.944 Y85.921 E.00558
G1 X95.878 Y85.609 E.00834
G1 X84.056 Y97.43 E.43665
G1 X84.056 Y96.838 E.01547
M73 P17 R6
G1 X95.748 Y85.146 E.43188
G1 X95.581 Y84.721 E.01193
G1 X84.056 Y96.246 E.4257
G1 X84.056 Y95.653 E.01547
G1 X95.407 Y84.303 E.41927
G1 X95.198 Y83.919 E.0114
G1 X84.056 Y95.061 E.41154
G1 X84.056 Y94.469 E.01547
G1 X94.965 Y83.56 E.40295
G1 X94.711 Y83.221 E.01105
G1 X84.056 Y93.876 E.39357
G1 X84.056 Y93.284 E.01547
G1 X94.437 Y82.904 E.38343
G1 X94.142 Y82.606 E.01094
G1 X84.056 Y92.692 E.37254
G1 X84.056 Y92.099 E.01547
G1 X93.827 Y82.329 E.36091
G1 X93.492 Y82.072 E.01103
G1 X84.056 Y91.507 E.34852
G1 X84.056 Y90.915 E.01547
M73 P18 R6
G1 X93.135 Y81.836 E.33535
G1 X92.756 Y81.623 E.01136
G1 X84.056 Y90.323 E.32135
G1 X84.056 Y89.73 E.01547
G1 X92.352 Y81.434 E.30643
G1 X91.922 Y81.272 E.01201
G1 X84.056 Y89.138 E.29054
G1 X84.056 Y88.546 E.01547
G1 X91.464 Y81.138 E.27361
G1 X90.973 Y81.036 E.01308
G1 X84.056 Y87.953 E.25549
G1 X84.056 Y87.361 E.01547
G1 X90.431 Y80.986 E.23547
G1 X90.136 Y80.959 E.00775
G1 X89.862 Y80.963 E.00714
G1 X84.056 Y86.769 E.21446
G1 X84.056 Y86.176 E.01547
G1 X89.225 Y81.008 E.19092
G1 X88.731 Y81.092 E.01308
G1 X88.486 Y81.155 E.00662
G1 X84.149 Y85.491 E.16018
G1 X84.279 Y85.054 E.01191
G1 X84.46 Y84.588 E.01305
G1 X87.58 Y81.468 E.11526
G1 X86.951 Y81.783 E.01839
G1 X86.547 Y82.041 E.01252
G1 X86.165 Y82.33 E.01252
G1 X85.811 Y82.645 E.01237
G1 X84.662 Y83.794 E.04245
M204 P1250
; stop printing object front_panel_magnet_holder_1pcs.stl id:0 copy 0
M106 S170.85
;LAYER_CHANGE
;Z:0.5
;HEIGHT:0.15
;BEFORE_LAYER_CHANGE
G92 E0.0
;0.5


G1 E-2.24 F4200
;WIPE_START
G1 F1920
G1 X84.972 Y83.484 E-.912
;WIPE_END
G1 E-.048 F4200
G1 Z.55 F2400
;AFTER_LAYER_CHANGE
;0.5
G1 X81.928 Y81.571
G1 Z.5
G1 E3.2
;TYPE:Skirt/Brim
;WIDTH:0.42
G1 X82.175 Y81.178 E.01123
G1 X83.204 Y80.003 E.03778
G1 X84.389 Y79.022 E.03721
