; generated by PrusaSlicer 2.5.0+win64 on 2022-10-14 at 18:16:59 UTC


;
;

;
;
; 

; external perimeters extrusion width = 0.45mm
; perimeters extrusion width = 0.45mm
; infill extrusion width = 0.45mm
; solid infill extrusion width = 0.45mm
; top infill extrusion width = 0.40mm
; support material extrusion width = 0.35mm
; first layer extrusion width = 0.42mm

M73 P0 R11
M201 X2500 Y2500 Z400 E5000 ; sets maximum accelerations, mm/sec^2
M203 X180 Y180 Z12 E80 ; sets maximum feedrates, mm / sec
M204 P1250 R1250 T2500 ; sets acceleration (P, T) and retract acceleration (R), mm/sec^2
M205 X8.00 Y8.00 Z2.00 E10.00 ; sets the jerk limits, mm/sec
M205 S0 T0 ; sets the minimum extruding and travel feed rate, mm/sec
M107
;TYPE:Custom
M862.3 P "MINI" ; printer model check
G90 ; use absolute coordinates
M83 ; extruder relative mode
M104 S170 ; set extruder temp for bed leveling
M140 S60 ; set bed temp
M109 R170 ; wait for bed leveling temp
M190 S60 ; wait for bed temp
M204 T1250 ; set travel acceleration
G28 ; home all without mesh bed level
G29 ; mesh bed leveling 
M204 T2500 ; restore travel acceleration
M104 S215 ; set extruder temp
G92 E0
G1 Y-2 X179 F2400
G1 Z3 F720
M109 S215 ; wait for extruder temp

; intro line
G1 X170 F1000
G1 Z0.2 F720
G1 X110 E8 F900
G1 X40 E10 F700
G92 E0

M221 S95 ; set flow
G21 ; set units to millimeters
G90 ; use absolute coordinates
M83 ; use relative distances for extrusion
M900 K0.2 ; Filament gcode LA 1.5
; ; Filament gcode LA 1.0
M107
;LAYER_CHANGE
;Z:0.2
;HEIGHT:0.2
;BEFORE_LAYER_CHANGE
G92 E0.0
;0.2


M73 P1 R11
G1 E-3.2 F4200
M73 P2 R11
G1 Z.2 F2400
;AFTER_LAYER_CHANGE
;0.2
G1 Z.4
G1 X76.179 Y77.856
G1 Z.2
G1 E3.2
M204 P800
;TYPE:Skirt/Brim
;WIDTH:0.42
G1 F1200
G1 X77.347 Y76.996 E.04549
G1 X84.322 Y74.305 E.2344
G1 X85.734 Y73.835 E.04666
G1 X88.024 Y73.37 E.07326
G1 X90.355 Y73.25 E.07321
G1 X92.362 Y73.424 E.06316
G1 X94.573 Y73.924 E.07108
G1 X102.647 Y76.99 E.27079
G1 X103.817 Y77.851 E.04553
G1 X104.726 Y79.083 E.04801
G1 X105.391 Y80.15 E.0394
G1 X105.951 Y81.205 E.03747
G1 X106.564 Y82.609 E.04801
G1 X106.725 Y84.052 E.04553
G1 X105.513 Y91.747 E.24426
G1 X105.147 Y93.331 E.05096
G1 X104.67 Y94.742 E.0467
G1 X104.032 Y96.163 E.04883
G1 X103.427 Y97.241 E.03877
G1 X102.588 Y98.472 E.0467
G1 X101.545 Y99.719 E.05097
G1 X100.431 Y100.806 E.04883
G1 X94.077 Y105.958 E.25646
G1 X92.747 Y106.54 E.04553
M73 P3 R11
G1 X91.163 Y106.716 E.04995
G1 X89.571 Y106.749 E.04995
G1 X87.253 Y106.54 E.07296
G1 X85.923 Y105.958 E.04553
G1 X79.518 Y100.761 E.2586
G1 X78.408 Y99.669 E.04883
G1 X77.221 Y98.213 E.05889
G1 X76.538 Y97.183 E.03876
G1 X75.825 Y95.875 E.04671
G1 X75.33 Y94.742 E.03877
G1 X74.834 Y93.266 E.04883
G1 X74.487 Y91.747 E.04883
G1 X73.275 Y84.052 E.24426
G1 X73.436 Y82.609 E.04553
G1 X74.049 Y81.205 E.04801
G1 X74.64 Y80.096 E.0394
G1 X75.274 Y79.083 E.03747
G1 X76.143 Y77.905 E.04592
M204 P1250
G1 X76.447 Y78.128 F2400
M204 P800
G1 F1200
G1 X76.475 Y78.09 E.00148
G1 X77.483 Y77.348 E.03926
G1 X85.525 Y74.289 E.26978
G1 X87.756 Y73.788 E.07169
G1 X90.029 Y73.623 E.07146
G1 X92.302 Y73.796 E.07146
G1 X94.468 Y74.286 E.06962
G1 X102.512 Y77.342 E.26981
G1 X103.521 Y78.085 E.0393
G1 X104.415 Y79.297 E.04722
G1 X105.036 Y80.288 E.03667
G1 X105.611 Y81.367 E.03834
G1 X106.213 Y82.748 E.04722
G1 X106.352 Y83.993 E.0393
G1 X105.141 Y91.685 E.24415
G1 X104.802 Y93.167 E.04766
G1 X104.432 Y94.308 E.0376
G1 X103.863 Y95.654 E.04582
G1 X103.138 Y96.99 E.04766
G1 X102.475 Y97.99 E.0376
G1 X101.312 Y99.416 E.05773
G1 X100.228 Y100.482 E.04766
G1 X93.84 Y105.665 E.2579
G1 X92.692 Y106.167 E.0393
G1 X91.196 Y106.336 E.04722
G1 X89.973 Y106.377 E.03834
G1 X88.786 Y106.334 E.03725
G1 X87.308 Y106.167 E.04664
G1 X86.16 Y105.665 E.0393
G1 X79.772 Y100.482 E.2579
G1 X78.688 Y99.416 E.04766
G1 X77.525 Y97.99 E.05773
G1 X76.862 Y96.99 E.03759
G1 X76.163 Y95.707 E.04583
G1 X75.682 Y94.608 E.0376
G1 X75.198 Y93.167 E.04766
G1 X74.859 Y91.685 E.04766
G1 X73.648 Y83.993 E.24415
G1 X73.787 Y82.748 E.0393
M73 P4 R11
G1 X74.244 Y81.671 E.03667
G1 X74.937 Y80.336 E.04719
G1 X75.585 Y79.297 E.03838
G1 X76.411 Y78.177 E.04364
M204 P1250
; printing object led_ring_mount_1pcs.stl id:0 copy 0
G1 E-2.24 F4200
;WIPE_START
G1 F1920
G1 X76.475 Y78.09 E-.22288
G1 X76.742 Y77.894 E-.68912
;WIPE_END
G1 E-.048 F4200
G1 Z.4 F2400
G1 X90.364 Y98.153
G1 Z.2
G1 E3.2
M204 P800
;TYPE:Perimeter
;WIDTH:0.419999
G1 F1200
G1 X90.627 Y98.422 E.01178
G1 X90.709 Y98.709 E.00937
G1 X90.713 Y100.657 E.06106
G1 X90.772 Y100.909 E.00813
G1 X90.973 Y101.134 E.00944
G1 X91.363 Y101.207 E.01246
;WIDTH:0.399332
G1 X91.608 Y101.15 E.00744
G1 X91.392 Y101.263 E.00723
;WIDTH:0.419999
G1 X91.216 Y101.619 E.01246
G1 X91.221 Y101.743 E.00386
G1 X91.441 Y103.129 E.044
G1 X90.955 Y103.18 E.01533
G1 X90 Y103.213 E.02995
G1 X89.062 Y103.181 E.02943
G1 X88.559 Y103.129 E.01585
G1 X88.783 Y101.619 E.04786
G1 X88.607 Y101.255 E.01267
;WIDTH:0.408842
G1 X88.461 Y101.194 E.00483
;WIDTH:0.383551
G1 X88.314 Y101.133 E.0045
G1 X88.472 Y101.172 E.0046
;WIDTH:0.408842
G1 X88.63 Y101.211 E.00494
;WIDTH:0.419999
G1 X89.027 Y101.134 E.01267
G1 X89.228 Y100.91 E.00947
G1 X89.287 Y100.659 E.00807
G1 X89.287 Y98.795 E.05843
G1 X89.362 Y98.463 E.01069
G1 X89.591 Y98.178 E.01145
G1 X89.749 Y98.104 E.00547
G1 X90.015 Y98.045 E.00855
G1 X90.307 Y98.135 E.00958
M204 P1250
G1 E-2.24 F4200
;WIPE_START
G1 F1920
G1 X90.627 Y98.422 E-.89252
G1 X90.629 Y98.431 E-.01948
;WIPE_END
G1 E-.048 F4200
G1 Z.4 F2400
G1 X80.847 Y89.364
G1 Z.2
G1 E3.2
M204 P800
G1 F1200
G1 X80.578 Y89.627 E.01178
G1 X80.291 Y89.709 E.00938
G1 X78.247 Y89.721 E.06408
G1 X77.848 Y90.183 E.01915
G1 X77.792 Y89.352 E.02613
G1 X77.79 Y88.755 E.01871
G1 X77.84 Y87.889 E.0272
G1 X78.342 Y88.287 E.0201
G1 X80.153 Y88.287 E.05678
G1 X80.443 Y88.322 E.00916
G1 X80.753 Y88.515 E.01145
G1 X80.896 Y88.749 E.00859
G1 X80.955 Y89.015 E.00855
G1 X80.865 Y89.307 E.00958
M204 P1250
G1 E-2.24 F4200
;WIPE_START
G1 F1920
G1 X80.578 Y89.627 E-.89217
G1 X80.569 Y89.629 E-.01983
;WIPE_END
G1 E-.048 F4200
G1 Z.4 F2400
G1 X77.044 Y83.184
G1 Z.2
G1 E3.2
M204 P800
G1 F1200
G1 X77.242 Y82.736 E.01533
G1 X77.692 Y81.894 E.02995
G1 X78.188 Y81.097 E.02943
G1 X78.485 Y80.688 E.01585
G1 X79.3 Y81.348 E.03291
G1 X79.734 Y81.66 E.01674
G1 X80.232 Y81.56 E.01592
G1 X79.866 Y82.053 E.01925
G1 X79.516 Y82.593 E.02018
G1 X79.195 Y83.151 E.02017
G1 X78.903 Y83.724 E.02017
G1 X78.68 Y84.226 E.01722
G1 X78.533 Y83.799 E.01414
G1 X78.35 Y83.685 E.00678
G1 X77.1 Y83.205 E.04197
M204 P1250
G1 E-2.24 F4200
;WIPE_START
G1 F1920
G1 X77.227 Y82.785 E-.912
;WIPE_END
G1 E-.048 F4200
G1 Z.4 F2400
G1 X88.88 Y76.841
G1 Z.2
G1 E3.2
M204 P800
G1 F1200
M73 P4 R10
G1 X89.401 Y76.802 E.01637
G1 X90.185 Y76.794 E.02458
;WIDTH:0.443874
G1 X90.93 Y76.859 E.02494
G1 X90.909 Y76.867 E.00074
G1 X90.713 Y77.342 E.01713
;WIDTH:0.419999
G1 X90.713 Y79.129 E.05603
G1 X90.655 Y79.512 E.01215
G1 X90.494 Y79.745 E.00889
G1 X90.272 Y79.886 E.00824
G1 X89.974 Y79.956 E.00958
G1 X89.69 Y79.877 E.00924
G1 X89.502 Y79.73 E.00748
G1 X89.364 Y79.52 E.00788
G1 X89.287 Y79.214 E.00988
G1 X89.287 Y77.501 E.05373
G1 X89.228 Y77.09 E.01301
G1 X88.929 Y76.876 E.01153
M204 P1250
G1 E-2.24 F4200
;WIPE_START
G1 F1920
G1 X89.363 Y76.808 E-.912
;WIPE_END
G1 E-.048 F4200
G1 Z.4 F2400
G1 X101.345 Y84.302
G1 Z.2
G1 E3.2
M204 P800
G1 F1200
G1 X101.08 Y83.691 E.02087
G1 X100.775 Y83.111 E.02056
G1 X100.488 Y82.613 E.01801
G1 X100.113 Y82.023 E.02192
G1 X99.768 Y81.56 E.0181
G1 X100.231 Y81.671 E.01493
G1 X100.428 Y81.568 E.00699
G1 X101.515 Y80.688 E.04385
G1 X101.803 Y81.083 E.01533
G1 X102.119 Y81.59 E.01873
G1 X102.765 Y82.751 E.04165
G1 X102.956 Y83.184 E.01482
G1 X101.65 Y83.685 E.04385
G1 X101.462 Y83.805 E.00701
G1 X101.359 Y84.243 E.01414
M204 P1250
G1 E-2.24 F4200
;WIPE_START
G1 F1920
G1 X101.161 Y83.851 E-.912
;WIPE_END
G1 E-.048 F4200
G1 Z.4 F2400
G1 X101.579 Y88.287
M73 P5 R10
G1 Z.2
G1 E3.2
M204 P800
G1 F1200
G1 X101.695 Y88.286 E.00365
G1 X102.16 Y87.889 E.01916
G1 X102.21 Y88.755 E.02719
G1 X102.207 Y89.355 E.01883
G1 X102.153 Y90.183 E.026
G1 X101.756 Y89.721 E.01908
G1 X99.847 Y89.713 E.05984
G1 X99.675 Y89.695 E.00542
G1 X99.351 Y89.585 E.01074
G1 X99.157 Y89.386 E.0087
G1 X99.043 Y88.995 E.01278
G1 X99.153 Y88.636 E.01178
G1 X99.422 Y88.373 E.01178
G1 X99.709 Y88.291 E.00937
G1 X101.519 Y88.287 E.05673
M204 P1250
G1 E-2.24 F4200
;WIPE_START
G1 F1920
G1 X101.695 Y88.286 E-.36684
G1 X101.895 Y88.116 E-.54516
;WIPE_END
G1 E-.048 F4200
G1 Z.4 F2400
G1 X101.668 Y84.185
G1 Z.2
G1 E3.2
M204 P800
;TYPE:External perimeter
;WIDTH:0.538009
G1 F1200
G1 X101.635 Y84.244 E.00279
;WIDTH:0.577345
G1 X101.602 Y84.303 E.00301
G1 X101.691 Y84.541 E.01131
;WIDTH:0.575539
G1 X101.891 Y85.106 E.02652
G1 X102.069 Y85.698 E.02736
;WIDTH:0.574766
G1 X102.244 Y86.43 E.03331
;WIDTH:0.575733
G1 X102.476 Y87.824 E.06262
;WIDTH:0.536192
G1 X102.513 Y88.163 E.01398
;WIDTH:0.497461
G1 X102.55 Y88.502 E.01288
;WIDTH:0.45873
G1 X102.587 Y88.841 E.01178
;WIDTH:0.419999
G1 X102.583 Y89.392 E.01729
;WIDTH:0.469137
G1 X102.534 Y89.728 E.01201
;WIDTH:0.518275
G1 X102.485 Y90.063 E.01339
;WIDTH:0.567412
G1 X102.436 Y90.398 E.01478
;WIDTH:0.576632
G1 X102.365 Y90.91 E.02292
G1 X102.235 Y91.608 E.03153
;WIDTH:0.568427
G1 X102.081 Y92.238 E.02833
;WIDTH:0.572769
G1 X101.947 Y92.72 E.02205
;WIDTH:0.575845
G1 X101.749 Y93.303 E.02727
G1 X101.523 Y93.879 E.02741
;WIDTH:0.572201
G1 X101.285 Y94.395 E.02503
;WIDTH:0.56762
G1 X100.984 Y94.983 E.02882
;WIDTH:0.571078
G1 X100.659 Y95.555 E.02888
G1 X100.302 Y96.103 E.02874
;WIDTH:0.570705
G1 X99.916 Y96.632 E.02872
;WIDTH:0.570387
G1 X99.521 Y97.119 E.0275
;WIDTH:0.575869
G1 X98.753 Y97.943 E.04991
;WIDTH:0.572577
G1 X98.298 Y98.367 E.02742
;WIDTH:0.575526
G1 X97.58 Y98.954 E.04108
G1 X97.071 Y99.325 E.02787
;WIDTH:0.571269
G1 X96.515 Y99.683 E.02907
;WIDTH:0.57571
G1 X96.028 Y99.964 E.02489
G1 X95.479 Y100.249 E.02741
;WIDTH:0.574406
G1 X94.917 Y100.507 E.02734
;WIDTH:0.57354
G1 X94.342 Y100.736 E.0273
;WIDTH:0.575808
G1 X93.756 Y100.935 E.02741
G1 X93.162 Y101.107 E.02741
;WIDTH:0.57509
G1 X92.559 Y101.248 E.02738
G1 X92.066 Y101.339 E.02221
;WIDTH:0.571659
G1 X91.961 Y101.385 E.00502
;WIDTH:0.533744
G1 X91.857 Y101.431 E.00466
;WIDTH:0.495829
G1 X91.753 Y101.478 E.0043
;WIDTH:0.457914
G1 X91.649 Y101.524 E.00394
;WIDTH:0.419999
G1 X91.594 Y101.687 E.00537
G1 X91.875 Y103.461 E.05634
G1 X90.981 Y103.557 E.0282
G1 X90 Y103.59 E.03077
G1 X89.019 Y103.557 E.03077
G1 X88.125 Y103.461 E.0282
G1 X88.405 Y101.688 E.05629
G1 X88.35 Y101.523 E.00547
G1 X88.253 Y101.473 E.00342
G1 X87.363 Y101.309 E.02837
G1 X86.723 Y101.154 E.02064
G1 X85.617 Y100.802 E.03639
G1 X85.039 Y100.571 E.01951
G1 X84.473 Y100.312 E.01952
G1 X83.921 Y100.025 E.01952
G1 X83.124 Y99.542 E.02922
G1 X82.592 Y99.175 E.02028
G1 X81.563 Y98.341 E.04151
G1 X80.749 Y97.54 E.0358
G1 X80.339 Y97.072 E.01952
G1 X79.951 Y96.585 E.01952
G1 X79.589 Y96.079 E.01952
G1 X79.248 Y95.548 E.01976
G1 X78.614 Y94.366 E.04206
;WIDTH:0.469056
G1 X78.556 Y94.168 E.00731
;WIDTH:0.518113
G1 X78.497 Y93.97 E.00816
;WIDTH:0.56717
G1 X78.438 Y93.772 E.009
;WIDTH:0.570298
G1 X78.208 Y93.185 E.02764
;WIDTH:0.575806
G1 X78.048 Y92.7 E.02263
G1 X77.807 Y91.805 E.04109
;WIDTH:0.575704
G1 X77.631 Y90.894 E.04112
;WIDTH:0.573901
G1 X77.552 Y90.284 E.02716
;WIDTH:0.570401
G1 X77.518 Y90.048 E.01044
;WIDTH:0.532801
G1 X77.483 Y89.812 E.0097
;WIDTH:0.4952
G1 X77.449 Y89.577 E.00895
;WIDTH:0.4576
G1 X77.415 Y89.341 E.00821
;WIDTH:0.419999
G1 X77.414 Y88.718 E.01953
;WIDTH:0.457652
G1 X77.449 Y88.468 E.0087
;WIDTH:0.495305
G1 X77.484 Y88.219 E.00949
;WIDTH:0.532958
G1 X77.519 Y87.969 E.01028
;WIDTH:0.57061
G1 X77.553 Y87.719 E.01107
;WIDTH:0.573614
G1 X77.616 Y87.206 E.02279
G1 X77.704 Y86.709 E.02229
;WIDTH:0.569603
G1 X77.838 Y86.065 E.0288
G1 X78.008 Y85.433 E.02866
G1 X78.212 Y84.81 E.02869
;WIDTH:0.569106
G1 X78.406 Y84.253 E.02581
;WIDTH:0.567094
G1 X78.342 Y84.181 E.0042
;WIDTH:0.518063
G1 X78.278 Y84.109 E.00381
;WIDTH:0.469031
G1 X78.214 Y84.037 E.00341
;WIDTH:0.419999
G1 X76.538 Y83.393 E.05629
G1 X76.903 Y82.571 E.0282
G1 X77.365 Y81.705 E.03077
G1 X77.884 Y80.872 E.03077
G1 X78.414 Y80.145 E.0282
G1 X79.809 Y81.275 E.05629
;WIDTH:0.46022
G1 X79.885 Y81.287 E.00266
;WIDTH:0.500441
G1 X79.96 Y81.3 E.00292
;WIDTH:0.540662
G1 X80.036 Y81.312 E.00318
;WIDTH:0.580883
G1 X80.112 Y81.324 E.00343
G1 X80.288 Y81.111 E.01238
;WIDTH:0.570884
G1 X80.714 Y80.613 E.02877
G1 X81.169 Y80.137 E.02887
;WIDTH:0.573075
G1 X81.784 Y79.562 E.03717
G1 X82.258 Y79.169 E.02712
G1 X83.011 Y78.621 E.04107
;WIDTH:0.575705
G1 X83.53 Y78.291 E.02726
G1 X84.067 Y77.982 E.02741
;WIDTH:0.571699
G1 X84.632 Y77.696 E.02784
;WIDTH:0.571268
G1 X85.23 Y77.432 E.02875
;WIDTH:0.570867
G1 X85.845 Y77.198 E.02887
;WIDTH:0.573018
G1 X86.648 Y76.944 E.03713
G1 X87.245 Y76.794 E.02712
;WIDTH:0.572832
G1 X87.855 Y76.672 E.02743
;WIDTH:0.575867
G1 X88.929 Y76.518 E.04807
;WIDTH:0.5369
G1 X89.083 Y76.487 E.00647
;WIDTH:0.497933
G1 X89.238 Y76.456 E.00596
;WIDTH:0.458966
G1 X89.392 Y76.425 E.00545
;WIDTH:0.419999
G1 X90.199 Y76.417 E.02531
;WIDTH:0.443874
G1 X90.921 Y76.456 E.0241
;WIDTH:0.486126
G1 X91.036 Y76.489 E.00439
;WIDTH:0.528378
G1 X91.15 Y76.521 E.00481
;WIDTH:0.570629
G1 X91.265 Y76.553 E.00523
;WIDTH:0.571225
G1 X92.267 Y76.695 E.04447
;WIDTH:0.572833
G1 X92.768 Y76.797 E.02251
;WIDTH:0.575844
G1 X93.368 Y76.95 E.02742
G1 X93.96 Y77.129 E.02741
;WIDTH:0.572302
G1 X94.541 Y77.34 E.02723
;WIDTH:0.571905
G1 X95.411 Y77.717 E.04171
;WIDTH:0.571305
G1 X96.267 Y78.176 E.04266
;WIDTH:0.570438
G1 X96.836 Y78.52 E.02916
;WIDTH:0.575842
G1 X97.752 Y79.178 E.04997
;WIDTH:0.573774
G1 X98.39 Y79.721 E.037
;WIDTH:0.5747
G1 X98.906 Y80.211 E.03147
;WIDTH:0.575538
G1 X99.327 Y80.66 E.02725
;WIDTH:0.580886
G1 X99.888 Y81.324 E.0389
G1 X99.964 Y81.312 E.00343
;WIDTH:0.540665
G1 X100.04 Y81.3 E.00318
;WIDTH:0.500443
G1 X100.115 Y81.287 E.00292
;WIDTH:0.460221
G1 X100.191 Y81.275 E.00266
;WIDTH:0.419999
G1 X101.586 Y80.145 E.05629
G1 X102.116 Y80.872 E.0282
G1 X102.439 Y81.391 E.01916
G1 X102.809 Y82.032 E.02321
G1 X103.109 Y82.599 E.0201
G1 X103.462 Y83.393 E.02726
G1 X101.734 Y84.067 E.05815
;WIDTH:0.459336
G1 X101.701 Y84.126 E.00234
;WIDTH:0.498672
G1 X101.697 Y84.133 E.00029
M204 P1250
G1 E-2.24 F4200
;WIPE_START
G1 F1920
G1 X101.635 Y84.244 E-.26529
G1 X101.602 Y84.303 E-.1406
G1 X101.687 Y84.531 E-.50612
;WIPE_END
G1 E-.048 F4200
G1 Z.4 F2400
G1 X101.796 Y87.823
G1 Z.2
G1 E3.2
M204 P800
;WIDTH:0.495231
G1 F1200
G1 X101.733 Y87.866 E.00287
;WIDTH:0.457615
G1 X101.671 Y87.91 E.00263
;WIDTH:0.419999
G1 X99.675 Y87.914 E.06258
G1 X99.345 Y87.996 E.01064
G1 X99.067 Y88.179 E.01044
G1 X98.912 Y88.307 E.00631
G1 X98.751 Y88.572 E.00971
G1 X98.663 Y88.967 E.01271
G1 X98.719 Y89.296 E.01046
G1 X98.825 Y89.573 E.00929
G1 X99.053 Y89.828 E.01072
G1 X99.436 Y90.042 E.01377
G1 X99.847 Y90.09 E.01296
G1 X101.658 Y90.09 E.05678
;WIDTH:0.457561
G1 X101.724 Y90.136 E.00276
;WIDTH:0.495123
G1 X101.79 Y90.181 E.00301
;WIDTH:0.532685
G1 X101.856 Y90.227 E.00326
;WIDTH:0.570247
G1 X101.922 Y90.272 E.00351
;WIDTH:0.576632
G1 X101.725 Y91.479 E.05426
;WIDTH:0.568235
G1 X101.577 Y92.094 E.02763
;WIDTH:0.570071
G1 X101.401 Y92.696 E.02751
;WIDTH:0.570431
G1 X101.077 Y93.576 E.04112
G1 X100.819 Y94.152 E.02768
;WIDTH:0.567812
G1 X100.535 Y94.712 E.02739
;WIDTH:0.571403
G1 X100.223 Y95.256 E.02757
;WIDTH:0.571901
G1 X99.903 Y95.75 E.02588
;WIDTH:0.572266
G1 X99.558 Y96.23 E.02605
;WIDTH:0.572578
G1 X99.189 Y96.693 E.02607
;WIDTH:0.575869
G1 X98.39 Y97.557 E.05212
;WIDTH:0.572577
M73 P6 R10
G1 X98.025 Y97.902 E.02215
;WIDTH:0.570327
G1 X97.547 Y98.309 E.02753
;WIDTH:0.5713
G1 X96.797 Y98.872 E.04118
;WIDTH:0.57171
G1 X96.287 Y99.204 E.02678
;WIDTH:0.57571
G1 X95.257 Y99.766 E.05196
;WIDTH:0.574406
G1 X94.707 Y100.019 E.02676
;WIDTH:0.57354
G1 X94.161 Y100.238 E.02595
;WIDTH:0.575808
G1 X93.111 Y100.574 E.04886
;WIDTH:0.57509
G1 X91.978 Y100.817 E.05127
;WIDTH:0.571659
G1 X91.872 Y100.814 E.00465
;WIDTH:0.533744
G1 X91.767 Y100.812 E.00432
;WIDTH:0.495829
G1 X91.661 Y100.809 E.00399
