; generated by PrusaSlicer 2.5.0+win64 on 2022-10-14 at 18:17:17 UTC


;
;

;
;
; 

; external perimeters extrusion width = 0.45mm
; perimeters extrusion width = 0.45mm
; infill extrusion width = 0.45mm
; solid infill extrusion width = 0.45mm
; top infill extrusion width = 0.40mm
; support material extrusion width = 0.35mm
; first layer extrusion width = 0.42mm

M73 P0 R41
M201 X2500 Y2500 Z400 E5000 ; sets maximum accelerations, mm/sec^2
M203 X180 Y180 Z12 E80 ; sets maximum feedrates, mm / sec
M204 P1250 R1250 T2500 ; sets acceleration (P, T) and retract acceleration (R), mm/sec^2
M205 X8.00 Y8.00 Z2.00 E10.00 ; sets the jerk limits, mm/sec
M205 S0 T0 ; sets the minimum extruding and travel feed rate, mm/sec
M107
;TYPE:Custom
M862.3 P "MINI" ; printer model check
G90 ; use absolute coordinates
M83 ; extruder relative mode
M104 S170 ; set extruder temp for bed leveling
M140 S60 ; set bed temp
M109 R170 ; wait for bed leveling temp
M190 S60 ; wait for bed temp
M204 T1250 ; set travel acceleration
G28 ; home all without mesh bed level
G29 ; mesh bed leveling 
M204 T2500 ; restore travel acceleration
M104 S215 ; set extruder temp
G92 E0
G1 Y-2 X179 F2400
G1 Z3 F720
M109 S215 ; wait for extruder temp

; intro line
G1 X170 F1000
G1 Z0.2 F720
G1 X110 E8 F900
G1 X40 E10 F700
G92 E0

M221 S95 ; set flow
G21 ; set units to millimeters
G90 ; use absolute coordinates
M83 ; use relative distances for extrusion
M900 K0.2 ; Filament gcode LA 1.5
; ; Filament gcode LA 1.0
M107
;LAYER_CHANGE
;Z:0.2
;HEIGHT:0.2
;BEFORE_LAYER_CHANGE
G92 E0.0
;0.2


G1 E-3.2 F4200
G1 Z.2 F2400
;AFTER_LAYER_CHANGE
;0.2
G1 Z.4
G1 X79.309 Y57.822
G1 Z.2
G1 E3.2
M204 P800
;TYPE:Skirt/Brim
;WIDTH:0.42
G1 F1200
G1 X80.061 Y56.812 E.03948
G1 X80.917 Y55.873 E.03984
G1 X81.849 Y55.031 E.0394
G1 X82.858 Y54.285 E.03934
G1 X83.935 Y53.641 E.03935
G1 X85.142 Y53.074 E.0418
G1 X86.317 Y52.661 E.03907
G1 X87.544 Y52.359 E.03961
G1 X88.795 Y52.179 E.03963
G1 X90.057 Y52.123 E.0396
G1 X92.266 Y52.324 E.06954
G1 X94.391 Y52.895 E.06899
G1 X96.403 Y53.828 E.06954
G1 X98.164 Y55.042 E.06708
G1 X99.74 Y56.577 E.06899
G1 X101.04 Y58.372 E.06949
G1 X102.012 Y60.359 E.06934
G1 X102.615 Y62.414 E.06716
G1 X102.807 Y63.658 E.03945
G1 X102.877 Y64.91 E.03934
G1 X102.877 Y115 E1.57052
G1 X102.815 Y116.262 E.03962
G1 X102.632 Y117.501 E.03928
G1 X102.328 Y118.72 E.0394
G1 X101.88 Y119.968 E.04158
G1 X101.337 Y121.107 E.03957
G1 X100.691 Y122.178 E.03921
G1 X99.939 Y123.188 E.03948
G1 X99.083 Y124.127 E.03983
G1 X98.151 Y124.969 E.0394
G1 X97.142 Y125.715 E.03934
G1 X96.067 Y126.358 E.03928
G1 X94.931 Y126.896 E.0394
G1 X93.75 Y127.319 E.03934
G1 X92.533 Y127.625 E.03934
G1 X91.216 Y127.82 E.04175
G1 X89.961 Y127.877 E.03939
G1 X87.753 Y127.679 E.06951
G1 X85.688 Y127.134 E.06695
G1 X83.67 Y126.214 E.06954
G1 X81.849 Y124.969 E.06915
G1 X80.26 Y123.423 E.06954
G1 X79 Y121.694 E.06708
G1 X78.016 Y119.712 E.06937
G1 X77.385 Y117.586 E.06954
G1 X77.193 Y116.34 E.03951
G1 X77.123 Y115.088 E.03934
G1 X77.123 Y65 E1.57046
G1 X77.185 Y63.738 E.03962
M73 P1 R41
G1 X77.369 Y62.497 E.03934
G1 X77.672 Y61.279 E.03934
G1 X78.12 Y60.031 E.04158
G1 X78.663 Y58.894 E.0395
G1 X79.278 Y57.873 E.03738
M204 P1250
; printing object left_endstop_mount_1pcs.stl id:0 copy 0
G1 E-2.24 F4200
;WIPE_START
G1 F1920
G1 X79.539 Y57.52 E-.912
;WIPE_END
G1 E-.048 F4200
G1 Z.4 F2400
G1 X92.621 Y65
G1 Z.2
G1 E3.2
M204 P800
;TYPE:Support material
G1 F1200
G1 X91.311 Y67.27 E.08218
G1 X88.689 Y67.27 E.08218
G1 X87.379 Y65 E.08218
G1 X88.689 Y62.73 E.08218
G1 X91.311 Y62.73 E.08218
G1 X92.593 Y64.951 E.08041
M204 P1250
G1 X92.095 Y65.572 F2400
M204 P800
G1 F1200
G1 X92.095 Y64.767 E.02524
G1 X91.676 Y64.042 E.02627
G1 X91.676 Y65.958 E.06011
G1 X91.257 Y66.684 E.02627
G1 X91.257 Y63.316 E.10561
G1 X91.115 Y63.069 E.00892
G1 X90.838 Y63.069 E.00868
G1 X90.838 Y66.931 E.12107
G1 X90.419 Y66.931 E.01314
G1 X90.419 Y63.069 E.12107
G1 X90 Y63.069 E.01314
G1 X90 Y66.931 E.12107
G1 X89.581 Y66.931 E.01314
G1 X89.581 Y63.069 E.12107
G1 X89.162 Y63.069 E.01314
G1 X89.162 Y66.931 E.12107
G1 X88.885 Y66.931 E.00868
G1 X88.743 Y66.684 E.00892
G1 X88.743 Y63.316 E.10561
G1 X88.324 Y64.041 E.02627
G1 X88.324 Y65.959 E.06011
G1 X87.905 Y65.233 E.02627
G1 X87.905 Y64.428 E.02524
M204 P1250
G1 E-2.24 F4200
;WIPE_START
G1 F1920
G1 X87.905 Y64.867 E-.912
;WIPE_END
G1 E-.048 F4200
G1 Z.4 F2400
G1 X92.621 Y115
G1 Z.2
G1 E3.2
M204 P800
G1 F1200
G1 X91.311 Y117.27 E.08218
G1 X88.689 Y117.27 E.08218
G1 X87.379 Y115 E.08219
G1 X88.689 Y112.73 E.08218
G1 X91.311 Y112.73 E.08219
G1 X92.593 Y114.951 E.08041
M204 P1250
G1 X92.095 Y115.572 F2400
M204 P800
G1 F1200
G1 X92.095 Y114.767 E.02524
G1 X91.676 Y114.041 E.02627
G1 X91.676 Y115.959 E.06011
G1 X91.257 Y116.684 E.02627
G1 X91.257 Y113.316 E.10561
G1 X91.115 Y113.069 E.00892
G1 X90.838 Y113.069 E.00868
G1 X90.838 Y116.931 E.12107
G1 X90.419 Y116.931 E.01314
G1 X90.419 Y113.069 E.12107
G1 X90 Y113.069 E.01314
G1 X90 Y116.931 E.12107
G1 X89.581 Y116.931 E.01314
G1 X89.581 Y113.069 E.12107
G1 X89.162 Y113.069 E.01314
G1 X89.162 Y116.931 E.12107
G1 X88.885 Y116.931 E.00868
G1 X88.743 Y116.684 E.00892
G1 X88.743 Y113.316 E.10561
G1 X88.324 Y114.042 E.02627
G1 X88.324 Y115.958 E.06011
G1 X87.905 Y115.233 E.02627
G1 X87.905 Y114.428 E.02524
M204 P1250
G1 E-2.24 F4200
;WIPE_START
G1 F1920
G1 X87.905 Y114.867 E-.912
;WIPE_END
G1 E-.048 F4200
G1 Z.4 F2400
G1 X80.321 Y115.8
G1 Z.2
G1 E3.2
M204 P800
;TYPE:Perimeter
;WIDTH:0.419999
G1 F1200
G1 X80.287 Y114.988 E.0255
G1 X80.287 Y65.015 E1.56686
G1 X80.334 Y64.055 E.03014
G1 X80.472 Y63.117 E.02972
G1 X80.7 Y62.2 E.02962
G1 X81.017 Y61.309 E.02967
G1 X81.418 Y60.453 E.02962
G1 X81.905 Y59.632 E.02993
G1 X82.194 Y59.22 E.01577
G1 X82.504 Y58.824 E.01577
G1 X83.145 Y58.12 E.02987
G1 X83.847 Y57.485 E.02967
G1 X84.608 Y56.922 E.02967
G1 X85.425 Y56.432 E.02988
G1 X85.875 Y56.207 E.01577
G1 X86.334 Y56.006 E.01572
G1 X87.235 Y55.69 E.02993
G1 X88.154 Y55.465 E.02967
G1 X89.098 Y55.329 E.02987
G1 X89.598 Y55.296 E.01573
G1 X90.104 Y55.288 E.01586
G1 X90.982 Y55.337 E.02756
G1 X91.846 Y55.465 E.02739
G1 X92.696 Y55.669 E.02742
G1 X93.455 Y55.923 E.02508
G1 X94.19 Y56.238 E.02507
G1 X94.962 Y56.651 E.02745
G1 X95.631 Y57.087 E.02504
G1 X96.07 Y57.43 E.01747
G1 X96.508 Y57.801 E.018
G1 X97.043 Y58.319 E.02333
G1 X97.57 Y58.923 E.02516
G1 X98.09 Y59.635 E.02763
G1 X98.539 Y60.384 E.0274
G1 X98.918 Y61.165 E.0272
G1 X99.201 Y61.904 E.02483
G1 X99.425 Y62.675 E.02516
G1 X99.596 Y63.53 E.02736
G1 X99.684 Y64.318 E.02485
G1 X99.713 Y65.071 E.02363
G1 X99.713 Y114.985 E1.56501
G1 X99.666 Y115.945 E.03014
G1 X99.528 Y116.881 E.02967
G1 X99.298 Y117.806 E.02988
G1 X99.141 Y118.284 E.01578
G1 X98.959 Y118.751 E.01572
G1 X98.547 Y119.612 E.02993
G1 X98.058 Y120.422 E.02967
G1 X97.492 Y121.181 E.02967
G1 X96.855 Y121.88 E.02967
G1 X96.153 Y122.515 E.02967
G1 X95.392 Y123.078 E.02967
G1 X94.573 Y123.568 E.02993
G1 X94.125 Y123.793 E.01573
G1 X93.666 Y123.994 E.01572
G1 X92.765 Y124.31 E.02993
G1 X91.845 Y124.535 E.02968
G1 X90.909 Y124.67 E.02967
G1 X89.962 Y124.712 E.0297
G1 X89.092 Y124.67 E.02734
G1 X88.299 Y124.562 E.02509
G1 X87.445 Y124.37 E.02743
G1 X86.614 Y124.103 E.02737
G1 X85.876 Y123.793 E.02509
G1 X85.101 Y123.386 E.02746
G1 X84.429 Y122.955 E.02504
G1 X83.735 Y122.422 E.02743
G1 X83.094 Y121.829 E.02738
G1 X82.508 Y121.181 E.0274
G1 X81.983 Y120.483 E.02737
G1 X81.559 Y119.804 E.02509
G1 X81.161 Y119.024 E.02746
G1 X80.86 Y118.285 E.02503
G1 X80.602 Y117.449 E.02742
G1 X80.419 Y116.594 E.02742
G1 X80.328 Y115.86 E.0232
M204 P1250
G1 X79.944 Y115.831 F2400
M204 P800
;TYPE:External perimeter
G1 F1200
G1 X79.91 Y114.995 E.02623
G1 X79.91 Y65.006 E1.56739
G1 X79.958 Y64.018 E.031
G1 X80.102 Y63.044 E.03087
G1 X80.339 Y62.092 E.03077
G1 X80.667 Y61.165 E.03083
G1 X81.084 Y60.276 E.03077
G1 X81.588 Y59.428 E.03095
G1 X81.891 Y58.996 E.01653
G1 X82.215 Y58.581 E.01653
G1 X82.879 Y57.852 E.03089
G1 X83.608 Y57.193 E.03083
G1 X84.398 Y56.608 E.03083
G1 X85.244 Y56.102 E.0309
G1 X85.715 Y55.865 E.01653
G1 X86.196 Y55.655 E.01647
G1 X87.128 Y55.328 E.03096
G1 X88.083 Y55.094 E.03083
G1 X89.058 Y54.954 E.03089
G1 X89.582 Y54.919 E.01648
G1 X90.112 Y54.911 E.0166
G1 X91.02 Y54.962 E.02851
G1 X91.917 Y55.094 E.02845
G1 X92.8 Y55.306 E.02846
G1 X93.589 Y55.57 E.02608
G1 X94.353 Y55.898 E.02607
G1 X95.154 Y56.326 E.02847
G1 X95.85 Y56.779 E.02606
G1 X96.302 Y57.133 E.01798
G1 X96.766 Y57.526 E.01907
G1 X97.324 Y58.067 E.02435
G1 X97.871 Y58.697 E.02618
G1 X98.41 Y59.436 E.02869
G1 X98.876 Y60.215 E.02846
G1 X99.268 Y61.025 E.02822
G1 X99.562 Y61.794 E.02581
G1 X99.794 Y62.596 E.02618
G1 X99.97 Y63.484 E.02838
G1 X100.061 Y64.303 E.02583
G1 X100.09 Y65.071 E.02412
G1 X100.09 Y114.994 E1.5653
G1 X100.042 Y115.982 E.031
M73 P1 R40
G1 X99.899 Y116.954 E.03082
G1 X99.661 Y117.911 E.0309
G1 X99.496 Y118.411 E.01654
G1 X99.305 Y118.901 E.01648
G1 X98.879 Y119.792 E.03095
G1 X98.371 Y120.633 E.03083
G1 X97.783 Y121.421 E.03082
G1 X97.121 Y122.148 E.03082
G1 X96.392 Y122.807 E.03082
M73 P2 R40
G1 X95.602 Y123.392 E.03083
G1 X94.755 Y123.899 E.03095
G1 X94.285 Y124.135 E.01648
G1 X93.804 Y124.345 E.01647
G1 X92.872 Y124.672 E.03095
G1 X91.917 Y124.906 E.03083
G1 X90.944 Y125.045 E.03082
G1 X89.962 Y125.09 E.03083
G1 X89.057 Y125.046 E.0284
G1 X88.232 Y124.934 E.02611
G1 X87.346 Y124.734 E.02847
G1 X86.483 Y124.457 E.02841
G1 X85.715 Y124.135 E.02611
G1 X84.911 Y123.712 E.02848
G1 X84.211 Y123.264 E.02606
G1 X83.492 Y122.71 E.02847
G1 X82.826 Y122.094 E.02845
G1 X82.217 Y121.421 E.02846
G1 X81.672 Y120.697 E.02842
G1 X81.231 Y119.991 E.02611
G1 X80.817 Y119.182 E.02848
G1 X80.505 Y118.412 E.02605
G1 X80.236 Y117.544 E.02846
G1 X80.047 Y116.656 E.02847
G1 X79.952 Y115.891 E.0242
M204 P1250
G1 X80.273 Y115.603 F2400
G1 E-2.24 F4200
;WIPE_START
G1 F1920
G1 X79.931 Y115.452 E-.912
;WIPE_END
G1 E-.048 F4200
G1 Z.4 F2400
G1 X88.205 Y68.521
G1 Z.2
G1 E3.2
M204 P800
;TYPE:Perimeter
G1 F1200
G1 X88.055 Y68.488 E.00483
G1 X87.851 Y68.335 E.008
G1 X87.795 Y68.254 E.00307
G1 X86.079 Y65.283 E.10758
G1 X86.003 Y65.014 E.00876
G1 X86.045 Y64.786 E.00725
G1 X87.795 Y61.746 E.10999
G1 X87.994 Y61.543 E.0089
G1 X88.251 Y61.464 E.00844
G1 X91.716 Y61.463 E.10863
G1 X91.831 Y61.475 E.00364
G1 X92.085 Y61.6 E.00888
G1 X92.238 Y61.802 E.00795
G1 X93.921 Y64.717 E.10553
G1 X93.996 Y64.977 E.00847
G1 X93.975 Y65.154 E.00561
G1 X93.921 Y65.283 E.00437
G1 X92.205 Y68.254 E.10758
G1 X92.024 Y68.446 E.00827
G1 X91.77 Y68.534 E.00845
G1 X88.264 Y68.533 E.10992
M204 P1250
G1 X88.284 Y68.16 F2400
M204 P800
;TYPE:External perimeter
G1 F1200
G1 X88.14 Y68.093 E.00498
G1 X88.121 Y68.066 E.00102
G1 X86.406 Y65.094 E.10758
G1 X86.394 Y64.929 E.0052
G1 X88.122 Y61.932 E.10845
G1 X88.236 Y61.846 E.00446
G1 X91.754 Y61.844 E.11031
G1 X91.879 Y61.934 E.00483
G1 X93.594 Y64.906 E.10758
G1 X93.613 Y65.051 E.00461
G1 X93.594 Y65.094 E.00146
G1 X91.879 Y68.066 E.10758
G1 X91.753 Y68.156 E.00486
G1 X88.344 Y68.16 E.1069
M204 P1250
G1 X88.169 Y68.27 F2400
G1 E-2.24 F4200
;WIPE_START
G1 F1920
G1 X88.14 Y68.093 E-.44619
G1 X88.121 Y68.066 E-.06789
G1 X88.025 Y67.9 E-.39792
;WIPE_END
G1 E-.048 F4200
G1 Z.4 F2400
G1 X88.019 Y83.728
G1 Z.2
G1 E3.2
M204 P800
;TYPE:Perimeter
G1 F1200
G1 X88.305 Y83.96 E.01155
G1 X88.555 Y84.286 E.01289
G1 X88.781 Y84.804 E.0177
G1 X88.82 Y85.442 E.02006
G1 X88.784 Y85.659 E.00688
G1 X88.575 Y86.195 E.01804
G1 X88.158 Y86.666 E.01973
G1 X87.981 Y86.795 E.00687
G1 X87.497 Y87.016 E.01668
G1 X86.988 Y87.084 E.01609
G1 X86.454 Y86.996 E.01697
G1 X86.027 Y86.809 E.01462
G1 X85.661 Y86.497 E.01509
G1 X85.323 Y86.001 E.01881
G1 X85.178 Y85.414 E.01896
G1 X85.183 Y84.991 E.01325
G1 X85.391 Y84.379 E.02028
G1 X85.505 Y84.195 E.0068
G1 X85.971 Y83.73 E.02063
G1 X86.35 Y83.54 E.01328
G1 X86.897 Y83.417 E.01758
G1 X87.535 Y83.5 E.02018
G1 X87.971 Y83.692 E.01495
M204 P1250
G1 X87.79 Y84.023 F2400
M204 P800
;TYPE:External perimeter
G1 F1200
G1 X88.02 Y84.206 E.00922
G1 X88.211 Y84.44 E.00947
G1 X88.42 Y84.912 E.01619
G1 X88.443 Y85.454 E.01699
G1 X88.257 Y85.987 E.01771
G1 X87.883 Y86.409 E.0177
G1 X87.376 Y86.658 E.01768
G1 X87.011 Y86.707 E.01155
G1 X86.516 Y86.624 E.01573
G1 X86.21 Y86.477 E.01065
G1 X85.969 Y86.279 E.00978
G1 X85.667 Y85.846 E.01656
G1 X85.545 Y85.33 E.01662
G1 X85.571 Y84.965 E.01148
G1 X85.76 Y84.479 E.01632
G1 X86.117 Y84.091 E.01654
G1 X86.435 Y83.907 E.01153
G1 X86.937 Y83.792 E.01615
G1 X87.474 Y83.872 E.01702
G1 X87.736 Y83.997 E.00908
M204 P1250
G1 X88.046 Y83.879 F2400
G1 E-2.24 F4200
;WIPE_START
G1 F1920
G1 X88.02 Y84.206 E-.73341
G1 X88.074 Y84.273 E-.17859
;WIPE_END
G1 E-.048 F4200
G1 Z.4 F2400
G1 X87.967 Y93.206
G1 Z.2
G1 E3.2
M204 P800
;TYPE:Perimeter
G1 F1200
G1 X88.289 Y93.441 E.01249
G1 X88.636 Y93.93 E.0188
G1 X88.723 Y94.134 E.00693
G1 X88.825 Y94.624 E.01572
G1 X88.827 Y94.845 E.00693
G1 X88.717 Y95.403 E.01781
G1 X88.385 Y95.946 E.01997
G1 X88.232 Y96.103 E.00688
G1 X87.779 Y96.412 E.01716
G1 X87.295 Y96.559 E.01588
G1 X86.774 Y96.566 E.01635
G1 X86.287 Y96.443 E.01573
G1 X85.798 Y96.13 E.0182
G1 X85.642 Y95.976 E.00687
G1 X85.291 Y95.42 E.02063
G1 X85.189 Y95.01 E.01325
G1 X85.185 Y94.513 E.01559
G1 X85.226 Y94.301 E.00674
G1 X85.463 Y93.743 E.01901
G1 X85.883 Y93.301 E.0191
G1 X86.319 Y93.045 E.01587
G1 X86.87 Y92.925 E.01768
G1 X87.26 Y92.935 E.01225
G1 X87.919 Y93.171 E.02194
M204 P1250
G1 X87.76 Y93.507 F2400
M204 P800
;TYPE:External perimeter
G1 F1200
G1 X88.047 Y93.737 E.01151
G1 X88.337 Y94.164 E.01619
G1 X88.456 Y94.701 E.01727
G1 X88.365 Y95.259 E.01773
G1 X88.069 Y95.74 E.01771
G1 X87.612 Y96.072 E.01771
G1 X87.262 Y96.183 E.0115
G1 X86.743 Y96.187 E.01626
G1 X86.417 Y96.085 E.01071
G1 X85.978 Y95.793 E.01655
G1 X85.675 Y95.357 E.01663
G1 X85.566 Y95.007 E.0115
G1 X85.576 Y94.442 E.01771
G1 X85.777 Y93.952 E.01663
G1 X86.152 Y93.566 E.01686
G1 X86.465 Y93.395 E.01119
G1 X86.958 Y93.292 E.01578
G1 X87.228 Y93.31 E.00849
G1 X87.704 Y93.486 E.01591
M204 P1250
G1 X88.081 Y93.328 F2400
G1 E-2.24 F4200
;WIPE_START
G1 F1920
G1 X88.047 Y93.737 E-.88237
G1 X88.055 Y93.748 E-.02963
;WIPE_END
G1 E-.048 F4200
G1 Z.4 F2400
G1 X86.068 Y115.26
G1 Z.2
G1 E3.2
M204 P800
;TYPE:Perimeter
G1 F1200
G1 X86.003 Y114.988 E.00875
G1 X86.079 Y114.717 E.00882
G1 X87.795 Y111.746 E.10758
G1 X87.985 Y111.549 E.00858
G1 X88.266 Y111.463 E.00921
G1 X91.716 Y111.463 E.10817
G1 X91.957 Y111.517 E.00775
G1 X92.152 Y111.668 E.00774
G1 X92.205 Y111.746 E.00295
G1 X93.921 Y114.717 E.10758
G1 X93.997 Y114.986 E.00876
G1 X93.948 Y115.229 E.00778
G1 X92.205 Y118.254 E.10946
G1 X92.006 Y118.457 E.0089
G1 X91.749 Y118.536 E.00844
G1 X88.284 Y118.537 E.10863
G1 X88.021 Y118.472 E.00849
G1 X87.85 Y118.333 E.00692
G1 X86.096 Y115.313 E.10952
M204 P1250
G1 X86.406 Y115.094 F2400
M204 P800
;TYPE:External perimeter
G1 F1200
G1 X86.406 Y114.906 E.00591
G1 X88.121 Y111.934 E.10758
G1 X88.252 Y111.843 E.00501
G1 X89.013 Y111.84 E.02385
G1 X91.716 Y111.84 E.08474
G1 X91.861 Y111.909 E.00504
G1 X93.594 Y114.906 E.10856
G1 X93.606 Y115.071 E.0052
G1 X91.878 Y118.068 E.10846
G1 X91.746 Y118.157 E.00499
G1 X88.281 Y118.16 E.10864
G1 X88.14 Y118.092 E.00493
G1 X86.436 Y115.146 E.10671
M204 P1250
G1 X86.228 Y115.031 F2400
G1 E-2.24 F4200
;WIPE_START
G1 F1920
G1 X86.406 Y114.906 E-.50366
G1 X86.504 Y114.736 E-.40834
;WIPE_END
G1 E-.048 F4200
G1 Z.4 F2400
G1 X97.939 Y59.606
G1 Z.2
G1 E3.2
M204 P800
;TYPE:Solid infill
;WIDTH:0.422019
G1 F1200
G1 X96.734 Y58.401 E.05371
G1 X96.136 Y57.84 E.02585
G1 X95.466 Y57.317 E.02679
G1 X94.818 Y56.894 E.02441
G1 X94.545 Y56.748 E.00975
G1 X98.266 Y60.469 E.16586
G1 X98.611 Y61.158 E.02428
G1 X98.738 Y61.478 E.01087
G1 X93.518 Y56.258 E.23272
G1 X92.69 Y55.965 E.02769
G1 X99.027 Y62.303 E.28253
G1 X99.124 Y62.621 E.01047
G1 X99.21 Y63.021 E.01292
G1 X91.975 Y55.787 E.32252
G1 X91.326 Y55.674 E.02076
G1 X99.329 Y63.677 E.35679
G1 X99.4 Y64.284 E.01925
G1 X90.722 Y55.606 E.38686
G1 X90.157 Y55.577 E.01784
G1 X99.423 Y64.843 E.41309
G1 X99.43 Y65.387 E.01713
G1 X89.622 Y55.578 E.43724
G1 X89.12 Y55.612 E.01587
G1 X99.43 Y65.923 E.45964
G1 X99.43 Y66.459 E.0169
