; generated by PrusaSlicer 2.5.0+win64 on 2022-10-14 at 18:17:29 UTC


;
;

;
;
; 

; external perimeters extrusion width = 0.45mm
; perimeters extrusion width = 0.45mm
; infill extrusion width = 0.45mm
; solid infill extrusion width = 0.45mm
; top infill extrusion width = 0.40mm
; support material extrusion width = 0.35mm
; first layer extrusion width = 0.42mm

M73 P0 R2
M201 X2500 Y2500 Z400 E5000 ; sets maximum accelerations, mm/sec^2
M203 X180 Y180 Z12 E80 ; sets maximum feedrates, mm / sec
M204 P1250 R1250 T2500 ; sets acceleration (P, T) and retract acceleration (R), mm/sec^2
M205 X8.00 Y8.00 Z2.00 E10.00 ; sets the jerk limits, mm/sec
M205 S0 T0 ; sets the minimum extruding and travel feed rate, mm/sec
M107
;TYPE:Custom
M862.3 P "MINI" ; printer model check
G90 ; use absolute coordinates
M83 ; extruder relative mode
M104 S170 ; set extruder temp for bed leveling
M140 S60 ; set bed temp
M109 R170 ; wait for bed leveling temp
M190 S60 ; wait for bed temp
M204 T1250 ; set travel acceleration
G28 ; home all without mesh bed level
G29 ; mesh bed leveling 
M204 T2500 ; restore travel acceleration
M104 S215 ; set extruder temp
G92 E0
G1 Y-2 X179 F2400
G1 Z3 F720
M109 S215 ; wait for extruder temp

; intro line
M73 P3 R2
G1 X170 F1000
G1 Z0.2 F720
G1 X110 E8 F900
G1 X40 E10 F700
G92 E0

M221 S95 ; set flow
G21 ; set units to millimeters
G90 ; use absolute coordinates
M83 ; use relative distances for extrusion
M900 K0.2 ; Filament gcode LA 1.5
; ; Filament gcode LA 1.0
M107
;LAYER_CHANGE
;Z:0.2
;HEIGHT:0.2
;BEFORE_LAYER_CHANGE
G92 E0.0
;0.2


M73 P6 R2
G1 E-3.2 F4200
M73 P10 R2
G1 Z.2 F2400
;AFTER_LAYER_CHANGE
;0.2
G1 Z.4
G1 X85.64 Y85.441
G1 Z.2
M73 P12 R2
G1 E3.2
M204 P800
;TYPE:Skirt/Brim
;WIDTH:0.42
G1 F935
G1 X86.632 Y84.666 E.03948
G1 X87.665 Y84.14 E.03635
G1 X88.875 Y83.793 E.03948
G1 X90.13 Y83.693 E.03948
G1 X91.38 Y83.845 E.03947
M73 P13 R2
G1 X92.575 Y84.241 E.03948
G1 X93.602 Y84.821 E.03698
G1 X94.559 Y85.64 E.03948
G1 X95.334 Y86.632 E.03948
G1 X95.86 Y87.665 E.03635
G1 X96.207 Y88.875 E.03948
G1 X96.307 Y90.13 E.03948
G1 X96.155 Y91.38 E.03947
G1 X95.759 Y92.575 E.03948
G1 X95.133 Y93.667 E.03948
G1 X94.36 Y94.559 E.03698
G1 X93.368 Y95.334 E.03948
G1 X92.335 Y95.86 E.03635
G1 X91.125 Y96.207 E.03948
G1 X89.87 Y96.307 E.03948
G1 X88.62 Y96.155 E.03948
G1 X87.425 Y95.759 E.03947
G1 X86.333 Y95.133 E.03948
M73 P14 R2
G1 X85.441 Y94.36 E.03698
G1 X84.721 Y93.453 E.03635
G1 X84.14 Y92.335 E.03948
G1 X83.793 Y91.125 E.03947
G1 X83.693 Y89.87 E.03948
G1 X83.844 Y88.624 E.03936
G1 X84.241 Y87.425 E.03959
G1 X84.821 Y86.398 E.03698
G1 X85.601 Y85.487 E.03759
M204 P1250
G1 X85.886 Y85.731 F2400
M204 P800
G1 F935
G1 X86.831 Y84.986 E.03773
G1 X87.807 Y84.489 E.03433
G1 X88.945 Y84.164 E.03712
G1 X90.125 Y84.07 E.03712
G1 X91.3 Y84.213 E.03711
G1 X92.423 Y84.586 E.03712
G1 X93.385 Y85.129 E.03462
G1 X94.284 Y85.899 E.03712
G1 X95.014 Y86.831 E.03712
G1 X95.511 Y87.807 E.03433
M73 P15 R2
G1 X95.836 Y88.945 E.03712
G1 X95.93 Y90.125 E.03712
G1 X95.787 Y91.3 E.03711
G1 X95.414 Y92.423 E.03712
G1 X94.825 Y93.45 E.03712
G1 X94.101 Y94.284 E.03462
G1 X93.169 Y95.014 E.03712
G1 X92.193 Y95.511 E.03432
G1 X91.055 Y95.836 E.03712
G1 X89.875 Y95.93 E.03712
G1 X88.7 Y95.787 E.03712
G1 X87.577 Y95.414 E.03711
G1 X86.55 Y94.825 E.03712
G1 X85.716 Y94.101 E.03462
G1 X84.986 Y93.169 E.03712
G1 X84.489 Y92.193 E.03433
G1 X84.164 Y91.055 E.03712
G1 X84.07 Y89.875 E.03712
G1 X84.212 Y88.704 E.037
M73 P16 R2
G1 X84.586 Y87.577 E.03723
G1 X85.129 Y86.615 E.03462
G1 X85.847 Y85.776 E.03461
M204 P1250
G1 X86.132 Y86.02 F2400
M204 P800
G1 F935
G1 X87.03 Y85.307 E.03597
G1 X88.022 Y84.81 E.03476
G1 X89.092 Y84.521 E.03476
M73 P16 R1
G1 X90.119 Y84.447 E.0323
G1 X91.22 Y84.582 E.03476
G1 X92.271 Y84.932 E.03476
G1 X93.167 Y85.438 E.03226
G1 X94.01 Y86.157 E.03476
G1 X94.693 Y87.03 E.03476
G1 X95.19 Y88.022 E.03476
G1 X95.479 Y89.092 E.03476
G1 X95.553 Y90.119 E.0323
G1 X95.418 Y91.22 E.03476
G1 X95.068 Y92.271 E.03476
G1 X94.516 Y93.233 E.03476
G1 X93.843 Y94.01 E.03226
G1 X92.97 Y94.693 E.03476
M73 P17 R1
G1 X91.978 Y95.19 E.03476
G1 X90.986 Y95.466 E.0323
G1 X89.881 Y95.553 E.03476
G1 X88.78 Y95.418 E.03476
G1 X87.729 Y95.068 E.03475
G1 X86.767 Y94.516 E.03476
G1 X85.99 Y93.843 E.03226
G1 X85.349 Y93.036 E.0323
G1 X84.839 Y92.052 E.03476
G1 X84.534 Y90.986 E.03476
G1 X84.447 Y89.881 E.03476
G1 X84.581 Y88.784 E.03464
G1 X84.932 Y87.729 E.03487
G1 X85.438 Y86.833 E.03226
G1 X86.093 Y86.065 E.03164
M204 P1250
G1 X86.378 Y86.309 F2400
M204 P800
G1 F935
G1 X87.23 Y85.627 E.03421
G1 X88.153 Y85.164 E.0324
G1 X89.151 Y84.893 E.0324
G1 X90.114 Y84.824 E.03028
G1 X91.139 Y84.95 E.0324
M73 P18 R1
G1 X92.12 Y85.277 E.0324
G1 X92.95 Y85.746 E.0299
G1 X93.736 Y86.416 E.0324
G1 X94.373 Y87.23 E.0324
G1 X94.836 Y88.153 E.0324
G1 X95.095 Y89.084 E.03028
G1 X95.176 Y90.114 E.0324
G1 X95.05 Y91.139 E.0324
G1 X94.723 Y92.12 E.0324
G1 X94.208 Y93.015 E.0324
G1 X93.584 Y93.736 E.0299
G1 X92.77 Y94.373 E.0324
G1 X91.847 Y94.836 E.0324
G1 X90.916 Y95.095 E.03028
G1 X89.886 Y95.176 E.0324
G1 X88.861 Y95.05 E.0324
G1 X87.88 Y94.723 E.0324
G1 X86.985 Y94.208 E.0324
G1 X86.264 Y93.584 E.0299
G1 X85.627 Y92.77 E.0324
G1 X85.188 Y91.91 E.03028
G1 X84.905 Y90.916 E.0324
M73 P19 R1
G1 X84.824 Y89.886 E.0324
G1 X84.949 Y88.864 E.03228
G1 X85.277 Y87.88 E.03251
G1 X85.746 Y87.05 E.0299
G1 X86.339 Y86.354 E.02867
M204 P1250
; printing object long_screw_spacer_1pcs.stl id:0 copy 0
G1 E-2.24 F4200
;WIPE_START
G1 F1920
G1 X86.679 Y86.077 E-.912
;WIPE_END
G1 E-.048 F4200
G1 Z.4 F2400
G1 X90.554 Y87.628
G1 Z.2
G1 E3.2
M204 P800
;TYPE:External perimeter
;WIDTH:0.424359
G1 F935
G1 X90.821 Y87.711 E.00888
;WIDTH:0.416674
G1 X91.243 Y87.912 E.01452
;WIDTH:0.415504
G1 X91.66 Y88.224 E.01612
;WIDTH:0.416936
G1 X91.996 Y88.611 E.01594
G1 X92.218 Y89.007 E.01412
;WIDTH:0.41571
G1 X92.361 Y89.43 E.01383
;WIDTH:0.414756
G1 X92.425 Y89.871 E.01379
;WIDTH:0.41428
G1 X92.408 Y90.317 E.01378
;WIDTH:0.416666
G1 X92.289 Y90.822 E.01612
G1 X92.088 Y91.243 E.01451
;WIDTH:0.415739
G1 X91.786 Y91.648 E.01564
G1 X91.436 Y91.96 E.01454
G1 X91 Y92.215 E.01567
G1 X90.571 Y92.361 E.01405
;WIDTH:0.414773
G1 X90.129 Y92.425 E.0138
;WIDTH:0.414284
G1 X89.683 Y92.408 E.01378
;WIDTH:0.416672
G1 X89.178 Y92.289 E.01612
G1 X88.757 Y92.088 E.01451
;WIDTH:0.415673
G1 X88.352 Y91.786 E.01564
G1 X88.04 Y91.436 E.01454
;WIDTH:0.415798
G1 X87.785 Y90.999 E.01569
G1 X87.639 Y90.571 E.01404
;WIDTH:0.4148
M73 P20 R1
G1 X87.575 Y90.129 E.0138
;WIDTH:0.414257
G1 X87.592 Y89.683 E.01379
;WIDTH:0.416649
G1 X87.711 Y89.179 E.01609
G1 X87.912 Y88.757 E.01452
;WIDTH:0.415621
G1 X88.214 Y88.352 E.01564
G1 X88.564 Y88.04 E.01454
G1 X89.013 Y87.778 E.01612
;WIDTH:0.416584
G1 X89.495 Y87.621 E.01575
;WIDTH:0.422489
G1 X90.05 Y87.566 E.01761
;WIDTH:0.424359
G1 X90.494 Y87.621 E.01419
M204 P1250
G1 X90.789 Y88.099 F2400
M204 P800
;WIDTH:0.422685
G1 F935
G1 X91.151 Y88.297 E.01304
G1 X91.466 Y88.555 E.01285
;WIDTH:0.42127
G1 X91.728 Y88.877 E.01307
;WIDTH:0.4208
G1 X91.914 Y89.242 E.01287
;WIDTH:0.421845
G1 X92.026 Y89.642 E.01309
;WIDTH:0.422508
G1 X92.055 Y90.054 E.01301
;WIDTH:0.424337
G1 X92.001 Y90.462 E.01308
G1 X91.901 Y90.789 E.01083
;WIDTH:0.422688
G1 X91.703 Y91.151 E.01304
G1 X91.443 Y91.468 E.01296
;WIDTH:0.42256
G1 X91.121 Y91.723 E.01295
G1 X90.757 Y91.914 E.01299
;WIDTH:0.420847
G1 X90.457 Y92.007 E.00986
;WIDTH:0.422502
G1 X89.946 Y92.055 E.01618
;WIDTH:0.42434
G1 X89.538 Y92.001 E.01308
G1 X89.211 Y91.901 E.01083
;WIDTH:0.422688
G1 X88.849 Y91.703 E.01304
G1 X88.532 Y91.443 E.01296
;WIDTH:0.422572
G1 X88.277 Y91.121 E.01296
G1 X88.086 Y90.758 E.01295
;WIDTH:0.421831
G1 X87.975 Y90.359 E.01305
;WIDTH:0.422509
G1 X87.945 Y89.946 E.01305
;WIDTH:0.424323
G1 X87.999 Y89.538 E.01308
G1 X88.099 Y89.211 E.01083
;WIDTH:0.422698
G1 X88.297 Y88.849 E.01304
G1 X88.557 Y88.532 E.01292
;WIDTH:0.422559
G1 X88.879 Y88.277 E.013
G1 X89.242 Y88.086 E.01295
;WIDTH:0.421828
G1 X89.641 Y87.975 E.01305
;WIDTH:0.422489
G1 X90.054 Y87.945 E.01305
;WIDTH:0.424359
G1 X90.464 Y88 E.01312
G1 X90.732 Y88.081 E.00889
M204 P1250
G1 X91.109 Y87.858 F2400
; stop printing object long_screw_spacer_1pcs.stl id:0 copy 0
M106 S84.15
;LAYER_CHANGE
;Z:0.35
;HEIGHT:0.15
;BEFORE_LAYER_CHANGE
G92 E0.0
;0.35


G1 E-2.24 F4200
;WIPE_START
G1 F1920
G1 X91.122 Y88.282 E-.912
;WIPE_END
G1 E-.048 F4200
G1 Z.4 F2400
;AFTER_LAYER_CHANGE
;0.35
G1 X93.203 Y84.596
G1 Z.35
M73 P21 R1
G1 E3.2
;TYPE:Skirt/Brim
;WIDTH:0.42
G1 F900
G1 X93.602 Y84.821 E.01107
G1 X94.559 Y85.64 E.03045
G1 X95.334 Y86.632 E.03045
G1 X95.86 Y87.665 E.02804
G1 X96.207 Y88.875 E.03045
G1 X96.307 Y90.13 E.03045
G1 X96.155 Y91.38 E.03045
G1 X95.759 Y92.575 E.03045
G1 X95.133 Y93.667 E.03045
G1 X94.36 Y94.559 E.02852
G1 X93.368 Y95.334 E.03045
G1 X92.335 Y95.86 E.02804
G1 X91.125 Y96.207 E.03045
G1 X89.87 Y96.307 E.03045
G1 X88.62 Y96.155 E.03045
G1 X87.425 Y95.759 E.03045
G1 X86.333 Y95.133 E.03045
G1 X85.441 Y94.36 E.02852
M73 P22 R1
G1 X84.721 Y93.453 E.02804
G1 X84.14 Y92.335 E.03045
G1 X83.793 Y91.125 E.03045
G1 X83.693 Y89.87 E.03045
G1 X83.844 Y88.624 E.03036
G1 X84.241 Y87.425 E.03054
G1 X84.821 Y86.398 E.02853
G1 X85.64 Y85.441 E.03045
G1 X86.632 Y84.666 E.03045
G1 X87.665 Y84.14 E.02804
G1 X88.875 Y83.793 E.03045
G1 X90.13 Y83.693 E.03045
G1 X91.38 Y83.845 E.03045
G1 X92.575 Y84.241 E.03045
G1 X93.151 Y84.567 E.01601
G1 X92.967 Y84.893 F2400
G1 F900
G1 X93.385 Y85.129 E.01161
G1 X94.284 Y85.899 E.02863
G1 X95.014 Y86.831 E.02863
M73 P23 R1
G1 X95.511 Y87.807 E.02648
G1 X95.836 Y88.945 E.02863
G1 X95.93 Y90.125 E.02863
G1 X95.787 Y91.3 E.02863
G1 X95.414 Y92.423 E.02863
G1 X94.825 Y93.45 E.02863
G1 X94.101 Y94.284 E.0267
G1 X93.169 Y95.014 E.02863
G1 X92.193 Y95.511 E.02648
G1 X91.055 Y95.836 E.02863
G1 X89.875 Y95.93 E.02863
G1 X88.7 Y95.787 E.02863
G1 X87.577 Y95.414 E.02863
G1 X86.55 Y94.825 E.02863
G1 X85.716 Y94.101 E.0267
G1 X84.986 Y93.169 E.02863
G1 X84.489 Y92.193 E.02648
G1 X84.164 Y91.055 E.02863
M73 P24 R1
G1 X84.07 Y89.875 E.02863
G1 X84.212 Y88.704 E.02854
G1 X84.586 Y87.577 E.02872
G1 X85.129 Y86.615 E.02671
G1 X85.899 Y85.716 E.02863
G1 X86.831 Y84.986 E.02863
G1 X87.807 Y84.489 E.02648
G1 X88.945 Y84.164 E.02863
G1 X90.125 Y84.07 E.02863
G1 X91.3 Y84.213 E.02863
G1 X92.423 Y84.586 E.02863
G1 X92.914 Y84.864 E.01365
G1 X92.73 Y85.191 F2400
G1 F900
G1 X93.167 Y85.438 E.01215
G1 X94.01 Y86.157 E.02681
G1 X94.693 Y87.03 E.02681
G1 X95.19 Y88.022 E.02681
G1 X95.479 Y89.092 E.02681
G1 X95.553 Y90.119 E.02492
G1 X95.418 Y91.22 E.02681
G1 X95.068 Y92.271 E.02681
M73 P25 R1
G1 X94.516 Y93.233 E.02681
G1 X93.843 Y94.01 E.02488
G1 X92.97 Y94.693 E.02681
G1 X91.978 Y95.19 E.02681
G1 X90.986 Y95.466 E.02492
G1 X89.881 Y95.553 E.02681
G1 X88.78 Y95.418 E.02681
G1 X87.729 Y95.068 E.02681
G1 X86.767 Y94.516 E.02681
G1 X85.99 Y93.843 E.02488
G1 X85.349 Y93.036 E.02492
G1 X84.839 Y92.052 E.02681
G1 X84.534 Y90.986 E.02681
G1 X84.447 Y89.881 E.02681
G1 X84.581 Y88.784 E.02672
G1 X84.932 Y87.729 E.0269
G1 X85.438 Y86.833 E.02489
G1 X86.157 Y85.99 E.02681
G1 X87.03 Y85.307 E.02681
M73 P26 R1
G1 X88.022 Y84.81 E.02681
G1 X89.092 Y84.521 E.02681
G1 X90.119 Y84.447 E.02492
G1 X91.22 Y84.582 E.02681
G1 X92.271 Y84.932 E.02681
G1 X92.678 Y85.161 E.01128
G1 X92.493 Y85.488 F2400
G1 F900
G1 X92.95 Y85.746 E.01269
G1 X93.736 Y86.416 E.02499
G1 X94.373 Y87.23 E.02499
G1 X94.836 Y88.153 E.02499
G1 X95.095 Y89.084 E.02335
G1 X95.176 Y90.114 E.02499
G1 X95.05 Y91.139 E.02499
G1 X94.723 Y92.12 E.02499
G1 X94.208 Y93.015 E.02499
G1 X93.584 Y93.736 E.02306
G1 X92.77 Y94.373 E.02499
G1 X91.847 Y94.836 E.02499
G1 X90.916 Y95.095 E.02335
G1 X89.886 Y95.176 E.02499
G1 X88.861 Y95.05 E.02499
G1 X87.88 Y94.723 E.02499
M73 P27 R1
G1 X86.985 Y94.208 E.02499
G1 X86.264 Y93.584 E.02306
G1 X85.627 Y92.77 E.02499
G1 X85.188 Y91.91 E.02336
G1 X84.905 Y90.916 E.02499
G1 X84.824 Y89.886 E.02499
G1 X84.949 Y88.864 E.0249
G1 X85.277 Y87.88 E.02508
G1 X85.746 Y87.05 E.02306
G1 X86.416 Y86.264 E.02499
G1 X87.23 Y85.627 E.02499
G1 X88.153 Y85.164 E.02499
G1 X89.151 Y84.893 E.02499
G1 X90.114 Y84.824 E.02335
G1 X91.139 Y84.95 E.02499
G1 X92.12 Y85.277 E.02499
G1 X92.441 Y85.458 E.00892
; printing object long_screw_spacer_1pcs.stl id:0 copy 0
G1 E-2.24 F4200
;WIPE_START
G1 F1920
G1 X92.823 Y85.674 E-.912
;WIPE_END
G1 E-.048 F4200
G1 Z.55 F2400
G1 X91.419 Y87.924
G1 Z.35
M73 P28 R1
G1 E3.2
M204 P800
;TYPE:External perimeter
;WIDTH:0.567967
G1 F900
G1 X91.685 Y88.143 E.0115
;WIDTH:0.56257
G1 X92.012 Y88.498 E.01597
;WIDTH:0.563145
G1 X92.274 Y88.939 E.01697
G1 X92.432 Y89.386 E.01572
;WIDTH:0.561911
G1 X92.502 Y89.844 E.01528
;WIDTH:0.56093
G1 X92.486 Y90.329 E.01602
;WIDTH:0.561182
G1 X92.367 Y90.825 E.01681
G1 X92.171 Y91.253 E.01556
;WIDTH:0.561675
G1 X91.893 Y91.649 E.01596
;WIDTH:0.561919
G1 X91.523 Y91.993 E.01669
G1 X91.108 Y92.25 E.01611
G1 X90.623 Y92.43 E.01711
G1 X90.142 Y92.504 E.01608
;WIDTH:0.562118
G1 X89.623 Y92.48 E.01715
G1 X89.166 Y92.365 E.01559
;WIDTH:0.561024
G1 X88.747 Y92.171 E.01523
;WIDTH:0.561972
G1 X88.371 Y91.908 E.01514
G1 X88.036 Y91.558 E.01601
;WIDTH:0.56071
G1 X87.75 Y91.108 E.01756
;WIDTH:0.561992
G1 X87.57 Y90.623 E.01712
G1 X87.496 Y90.142 E.01608
;WIDTH:0.562113
G1 X87.52 Y89.623 E.01715
G1 X87.639 Y89.152 E.01605
G1 X87.863 Y88.687 E.01708
G1 X88.149 Y88.308 E.01568
;WIDTH:0.561135
G1 X88.511 Y87.982 E.01607
G1 X88.968 Y87.714 E.01749
;WIDTH:0.563036
G1 X89.489 Y87.543 E.01812
;WIDTH:0.566869
G1 X90.002 Y87.485 E.01722
G1 X90.5 Y87.534 E.01668
;WIDTH:0.566476
G1 X90.979 Y87.683 E.01674
;WIDTH:0.567967
G1 X91.367 Y87.895 E.01477
M204 P1250
G1 E-2.24 F4200
;WIPE_START
G1 F1920
G1 X91.685 Y88.143 E-.83776
G1 X91.709 Y88.17 E-.07424
;WIPE_END
G1 E-.048 F4200
G1 Z.55 F2400
G1 X89.654 Y88.052
G1 Z.35
G1 E3.2
M204 P800
;WIDTH:0.567497
G1 F900
M73 P29 R1
G1 X89.98 Y88.02 E.01093
;WIDTH:0.566869
G1 X90.384 Y88.056 E.01351
;WIDTH:0.566476
G1 X90.757 Y88.17 E.01301
;WIDTH:0.567967
G1 X91.104 Y88.359 E.01319
G1 X91.412 Y88.611 E.0133
;WIDTH:0.566616
G1 X91.628 Y88.871 E.01128
;WIDTH:0.565545
G1 X91.831 Y89.245 E.01415
;WIDTH:0.565292
G1 X91.939 Y89.593 E.01213
G1 X91.978 Y89.911 E.01065
;WIDTH:0.568093
G1 X91.941 Y90.378 E.01566
G1 X91.83 Y90.757 E.01319
;WIDTH:0.567645
G1 X91.637 Y91.111 E.01345
G1 X91.433 Y91.366 E.01093
;WIDTH:0.567312
G1 X91.133 Y91.626 E.01322
;WIDTH:0.567008
G1 X90.788 Y91.816 E.01315
G1 X90.407 Y91.939 E.01335
;WIDTH:0.566843
G1 X90.02 Y91.98 E.013
G1 X89.616 Y91.944 E.0135
;WIDTH:0.566478
G1 X89.243 Y91.83 E.01301
;WIDTH:0.567646
G1 X88.889 Y91.637 E.01345
G1 X88.63 Y91.429 E.01109
;WIDTH:0.568334
G1 X88.376 Y91.128 E.0132
G1 X88.184 Y90.788 E.01304
;WIDTH:0.567003
G1 X88.061 Y90.407 E.01335
;WIDTH:0.566849
G1 X88.02 Y90.019 E.013
G1 X88.056 Y89.616 E.01349
;WIDTH:0.566679
G1 X88.168 Y89.247 E.01286
G1 X88.359 Y88.889 E.01353
;WIDTH:0.566355
G1 X88.608 Y88.591 E.01295
;WIDTH:0.567725
G1 X88.917 Y88.344 E.01319
G1 X89.266 Y88.16 E.0132
;WIDTH:0.567497
G1 X89.596 Y88.068 E.01144
M204 P1250
; stop printing object long_screw_spacer_1pcs.stl id:0 copy 0
M106 S170.85
;LAYER_CHANGE
;Z:0.5
;HEIGHT:0.15
;BEFORE_LAYER_CHANGE
G92 E0.0
;0.5


G1 E-2.24 F4200
;WIPE_START
G1 F1920
G1 X89.98 Y88.02 E-.80338
G1 X90.032 Y88.024 E-.10862
;WIPE_END
G1 E-.048 F4200
G1 Z.55 F2400
;AFTER_LAYER_CHANGE
;0.5
G1 X89.69 Y83.728
G1 Z.5
G1 E3.2
;TYPE:Skirt/Brim
;WIDTH:0.42
G1 F900
G1 X90.13 Y83.693 E.01066
G1 X91.38 Y83.845 E.03045
G1 X92.575 Y84.241 E.03045
G1 X93.602 Y84.821 E.02853
M73 P30 R1
G1 X94.559 Y85.64 E.03045
G1 X95.334 Y86.632 E.03045
G1 X95.86 Y87.665 E.02804
G1 X96.207 Y88.875 E.03045
G1 X96.307 Y90.13 E.03045
G1 X96.155 Y91.38 E.03045
G1 X95.759 Y92.575 E.03045
G1 X95.133 Y93.667 E.03045
G1 X94.36 Y94.559 E.02852
G1 X93.368 Y95.334 E.03045
G1 X92.335 Y95.86 E.02804
G1 X91.125 Y96.207 E.03045
G1 X89.87 Y96.307 E.03045
G1 X88.62 Y96.155 E.03045
G1 X87.425 Y95.759 E.03045
G1 X86.333 Y95.133 E.03045
G1 X85.441 Y94.36 E.02852
M73 P31 R1
G1 X84.721 Y93.453 E.02804
G1 X84.14 Y92.335 E.03045
G1 X83.793 Y91.125 E.03045
G1 X83.693 Y89.87 E.03045
G1 X83.844 Y88.624 E.03036
