; generated by PrusaSlicer 2.5.0+win64 on 2022-10-14 at 18:17:38 UTC


;
;

;
;
; 

; external perimeters extrusion width = 0.45mm
; perimeters extrusion width = 0.45mm
; infill extrusion width = 0.45mm
; solid infill extrusion width = 0.45mm
; top infill extrusion width = 0.40mm
; support material extrusion width = 0.35mm
; first layer extrusion width = 0.42mm

M73 P0 R39
M201 X2500 Y2500 Z400 E5000 ; sets maximum accelerations, mm/sec^2
M203 X180 Y180 Z12 E80 ; sets maximum feedrates, mm / sec
M204 P1250 R1250 T2500 ; sets acceleration (P, T) and retract acceleration (R), mm/sec^2
M205 X8.00 Y8.00 Z2.00 E10.00 ; sets the jerk limits, mm/sec
M205 S0 T0 ; sets the minimum extruding and travel feed rate, mm/sec
M107
;TYPE:Custom
M862.3 P "MINI" ; printer model check
G90 ; use absolute coordinates
M83 ; extruder relative mode
M104 S170 ; set extruder temp for bed leveling
M140 S60 ; set bed temp
M109 R170 ; wait for bed leveling temp
M190 S60 ; wait for bed temp
M204 T1250 ; set travel acceleration
G28 ; home all without mesh bed level
G29 ; mesh bed leveling 
M204 T2500 ; restore travel acceleration
M104 S215 ; set extruder temp
G92 E0
G1 Y-2 X179 F2400
G1 Z3 F720
M109 S215 ; wait for extruder temp

; intro line
M73 P0 R38
G1 X170 F1000
G1 Z0.2 F720
G1 X110 E8 F900
G1 X40 E10 F700
G92 E0

M221 S95 ; set flow
G21 ; set units to millimeters
G90 ; use absolute coordinates
M83 ; use relative distances for extrusion
M900 K0.2 ; Filament gcode LA 1.5
; ; Filament gcode LA 1.0
M107
;LAYER_CHANGE
;Z:0.2
;HEIGHT:0.2
;BEFORE_LAYER_CHANGE
G92 E0.0
;0.2


G1 E-3.2 F4200
G1 Z.2 F2400
;AFTER_LAYER_CHANGE
;0.2
G1 Z.4
G1 X81.141 Y68.083
G1 Z.2
G1 E3.2
M204 P800
;TYPE:Skirt/Brim
;WIDTH:0.42
G1 F1200
G1 X82.207 Y67.069 E.04612
G1 X83.502 Y66.746 E.04186
G1 X91.688 Y66.747 E.25668
G1 X93.016 Y66.894 E.04188
G1 X94.3 Y67.267 E.04194
G1 X95.408 Y67.8 E.03854
G1 X96.498 Y68.569 E.04183
G1 X97.413 Y69.48 E.04048
G1 X98.2 Y70.592 E.04271
G1 X98.773 Y71.806 E.04208
G1 X99.133 Y73.123 E.04283
G1 X99.254 Y74.386 E.03977
G1 X99.254 Y105.612 E.97907
G1 X99.145 Y106.807 E.03762
G1 X98.924 Y107.741 E.03009
G1 X98.574 Y108.678 E.03136
G1 X98.13 Y109.524 E.02996
G1 X97.574 Y110.322 E.0305
G1 X96.931 Y111.035 E.0301
G1 X96.16 Y111.697 E.03187
G1 X95.432 Y112.183 E.02744
G1 X94.481 Y112.659 E.03336
G1 X93.259 Y113.052 E.04025
G1 X91.985 Y113.238 E.04035
G1 X83.502 Y113.254 E.26599
G1 X82.085 Y112.861 E.04612
G1 X81.071 Y111.795 E.04612
G1 X80.748 Y110.5 E.04186
G1 X80.748 Y69.5 E1.28553
G1 X81.125 Y68.14 E.04424
M204 P1250
M73 P1 R38
G1 X81.499 Y68.252 F2400
M204 P800
G1 F1200
G1 X81.517 Y68.193 E.00195
G1 X82.562 Y67.317 E.04278
G1 X83.502 Y67.123 E.03008
G1 X91.678 Y67.124 E.25636
G1 X92.946 Y67.264 E.03999
G1 X94.167 Y67.62 E.03989
G1 X95.216 Y68.124 E.03647
G1 X96.253 Y68.855 E.03979
G1 X97.129 Y69.729 E.03879
G1 X97.876 Y70.784 E.04055
G1 X98.42 Y71.939 E.04001
G1 X98.763 Y73.194 E.04081
G1 X98.877 Y74.386 E.03754
G1 X98.877 Y105.612 E.97907
G1 X98.764 Y106.796 E.03729
G1 X98.541 Y107.703 E.02927
G1 X98.205 Y108.578 E.02941
G1 X97.75 Y109.42 E.03
G1 X97.187 Y110.201 E.03018
G1 X96.601 Y110.83 E.02695
G1 X95.786 Y111.505 E.0332
G1 X94.976 Y112.007 E.02986
G1 X94.211 Y112.361 E.02644
G1 X93.006 Y112.721 E.03942
G1 X91.813 Y112.87 E.03771
G1 X83.502 Y112.877 E.26058
G1 X82.195 Y112.485 E.04278
G1 X81.319 Y111.44 E.04278
G1 X81.125 Y110.5 E.03008
G1 X81.125 Y69.5 E1.28553
G1 X81.481 Y68.31 E.03895
M204 P1250
; printing object motor_mount_1pcs.stl id:0 copy 0
G1 E-2.24 F4200
;WIPE_START
G1 F1920
G1 X81.517 Y68.193 E-.2538
G1 X81.759 Y67.99 E-.65821
;WIPE_END
G1 E-.048 F4200
G1 Z.4 F2400
G1 X84.289 Y70.287
G1 Z.2
G1 E3.2
M204 P800
;TYPE:Perimeter
;WIDTH:0.419999
G1 F1200
G1 X91.611 Y70.289 E.22958
G1 X92.346 Y70.373 E.02319
G1 X93.098 Y70.602 E.02463
G1 X93.739 Y70.932 E.02262
G1 X94.343 Y71.392 E.02381
G1 X94.852 Y71.949 E.02364
G1 X95.253 Y72.587 E.02363
G1 X95.535 Y73.291 E.02376
G1 X95.672 Y73.949 E.02109
G1 X95.713 Y74.443 E.01553
G1 X95.713 Y105.574 E.97609
G1 X95.626 Y106.35 E.02449
G1 X95.455 Y106.951 E.01959
G1 X95.224 Y107.469 E.01778
G1 X94.925 Y107.951 E.01779
G1 X94.61 Y108.34 E.01571
G1 X94.239 Y108.696 E.01611
G1 X93.826 Y109.012 E.01631
G1 X93.358 Y109.279 E.01689
G1 X92.773 Y109.514 E.01975
G1 X92.191 Y109.654 E.01876
G1 X91.581 Y109.711 E.01922
G1 X84.289 Y109.713 E.22863
G1 X84.289 Y70.347 E1.23428
M204 P1250
G1 X83.912 Y69.91 F2400
M204 P800
;TYPE:External perimeter
G1 F1200
G1 X91.633 Y69.912 E.24208
G1 X92.423 Y70.003 E.02493
G1 X93.24 Y70.251 E.02677
G1 X93.941 Y70.612 E.02473
G1 X94.599 Y71.113 E.02591
G1 X95.153 Y71.719 E.02577
G1 X95.59 Y72.415 E.02576
G1 X95.897 Y73.181 E.02587
G1 X96.042 Y73.872 E.02214
G1 X96.09 Y74.443 E.01796
G1 X96.09 Y105.595 E.97675
G1 X95.997 Y106.423 E.02612
G1 X95.811 Y107.08 E.02141
G1 X95.558 Y107.646 E.01942
G1 X95.233 Y108.17 E.01934
G1 X94.888 Y108.596 E.0172
G1 X94.443 Y109.023 E.01934
G1 X94.032 Y109.328 E.01602
G1 X93.523 Y109.62 E.01842
G1 X92.888 Y109.874 E.02143
G1 X92.253 Y110.027 E.02046
G1 X91.599 Y110.088 E.02062
G1 X83.912 Y110.09 E.24101
G1 X83.912 Y69.97 E1.25793
M204 P1250
G1 X84.27 Y70.088 F2400
G1 E-2.24 F4200
;WIPE_START
G1 F1920
G1 X84.351 Y69.967 E-.912
;WIPE_END
G1 E-.048 F4200
G1 Z.4 F2400
G1 X91.093 Y72.099
G1 Z.2
G1 E3.2
M204 P800
;TYPE:Perimeter
G1 F1200
G1 X91.528 Y72.063 E.01369
G1 X92.016 Y72.118 E.01541
G1 X92.484 Y72.269 E.01543
G1 X92.894 Y72.499 E.01471
G1 X93.239 Y72.791 E.01417
G1 X93.539 Y73.164 E.01503
G1 X93.746 Y73.552 E.01378
G1 X93.887 Y74.003 E.01482
G1 X93.939 Y74.457 E.01432
G1 X93.927 Y84.715 E.32165
G1 X93.843 Y85.173 E.01459
G1 X93.663 Y85.622 E.01517
G1 X93.397 Y86.029 E.01524
G1 X93.081 Y86.35 E.01412
G1 X92.585 Y86.678 E.01866
G1 X92.095 Y86.863 E.01642
G1 X91.558 Y86.934 E.01697
G1 X91.083 Y86.898 E.01494
G1 X90.583 Y86.757 E.01629
G1 X90.078 Y86.473 E.01817
G1 X89.636 Y86.061 E.01894
G1 X89.339 Y85.622 E.01663
G1 X89.132 Y85.073 E.01839
G1 X89.065 Y84.592 E.01525
G1 X89.075 Y74.283 E.32322
G1 X89.164 Y73.807 E.01519
G1 X89.339 Y73.376 E.01458
G1 X89.637 Y72.937 E.01663
G1 X90.078 Y72.525 E.01894
G1 X90.571 Y72.248 E.01772
G1 X91.033 Y72.108 E.01515
M204 P1250
G1 X91.128 Y72.473 F2400
M204 P800
;TYPE:External perimeter
G1 F1200
G1 X91.494 Y72.439 E.01151
G1 X91.908 Y72.479 E.01305
G1 X92.307 Y72.602 E.01309
G1 X92.657 Y72.792 E.01246
G1 X92.95 Y73.033 E.0119
G1 X93.211 Y73.349 E.01284
G1 X93.389 Y73.673 E.01159
G1 X93.513 Y74.05 E.01245
G1 X93.562 Y74.456 E.01284
G1 X93.55 Y84.715 E.32165
G1 X93.489 Y85.042 E.01042
G1 X93.344 Y85.422 E.01276
G1 X93.119 Y85.775 E.01312
G1 X92.873 Y86.035 E.01123
G1 X92.377 Y86.364 E.01866
G1 X91.94 Y86.513 E.01449
G1 X91.578 Y86.558 E.01143
G1 X91.027 Y86.494 E.0174
G1 X90.743 Y86.415 E.00921
G1 X90.335 Y86.197 E.0145
G1 X89.894 Y85.785 E.01894
G1 X89.641 Y85.387 E.01478
G1 X89.503 Y85.004 E.01277
G1 X89.442 Y84.592 E.01307
G1 X89.452 Y74.283 E.32322
G1 X89.551 Y73.85 E.01395
G1 X89.658 Y73.576 E.00921
G1 X89.894 Y73.213 E.01358
G1 X90.335 Y72.801 E.01894
G1 X90.778 Y72.569 E.01565
G1 X91.071 Y72.489 E.00952
M204 P1250
G1 X91.248 Y72.125 F2400
G1 E-2.24 F4200
;WIPE_START
G1 F1920
G1 X91.494 Y72.439 E-.88618
G1 X91.506 Y72.44 E-.02582
;WIPE_END
G1 E-.048 F4200
G1 Z.4 F2400
G1 X89.155 Y94.857
G1 Z.2
G1 E3.2
M204 P800
;TYPE:Perimeter
G1 F1200
G1 X89.339 Y94.376 E.01615
G1 X89.61 Y93.964 E.01546
G1 X89.925 Y93.641 E.01416
G1 X90.282 Y93.39 E.01367
G1 X90.75 Y93.185 E.01603
G1 X91.09 Y93.097 E.01099
G1 X91.621 Y93.071 E.01668
G1 X92.015 Y93.118 E.01244
G1 X92.47 Y93.264 E.01496
G1 X92.894 Y93.499 E.0152
G1 X93.239 Y93.791 E.01417
G1 X93.539 Y94.164 E.01503
G1 X93.746 Y94.552 E.01379
G1 X93.886 Y95 E.01472
G1 X93.939 Y95.457 E.01442
G1 X93.927 Y105.715 E.32165
G1 X93.821 Y106.245 E.01695
G1 X93.789 Y106.325 E.00269
G1 X93.668 Y106.615 E.00983
G1 X93.423 Y106.999 E.01429
G1 X93.081 Y107.35 E.01535
G1 X92.585 Y107.678 E.01865
G1 X92.104 Y107.863 E.01616
G1 X91.576 Y107.935 E.0167
G1 X91.083 Y107.898 E.0155
G1 X90.571 Y107.75 E.01671
G1 X90.114 Y107.504 E.01627
G1 X89.814 Y107.258 E.01217
G1 X89.514 Y106.912 E.01437
G1 X89.287 Y106.517 E.01429
G1 X89.129 Y106.055 E.01528
G1 X89.065 Y105.592 E.01468
G1 X89.075 Y95.283 E.32322
G1 X89.144 Y94.916 E.0117
M204 P1250
G1 X89.519 Y94.931 F2400
M204 P800
;TYPE:External perimeter
G1 F1200
G1 X89.658 Y94.576 E.01194
G1 X89.885 Y94.222 E.01319
G1 X90.149 Y93.945 E.01199
G1 X90.447 Y93.729 E.01155
G1 X90.853 Y93.547 E.01394
G1 X91.391 Y93.446 E.01717
M73 P2 R38
G1 X91.908 Y93.479 E.01625
G1 X92.294 Y93.598 E.01267
G1 X92.657 Y93.792 E.01289
G1 X92.95 Y94.033 E.0119
G1 X93.211 Y94.349 E.01284
G1 X93.389 Y94.673 E.01159
G1 X93.512 Y95.047 E.01236
G1 X93.562 Y95.456 E.01292
G1 X93.55 Y105.715 E.32165
G1 X93.438 Y106.189 E.01527
G1 X93.165 Y106.717 E.01862
G1 X92.873 Y107.035 E.01356
G1 X92.377 Y107.364 E.01865
G1 X92 Y107.499 E.01256
G1 X91.59 Y107.558 E.01298
G1 X91.178 Y107.533 E.01293
G1 X90.743 Y107.415 E.01414
G1 X90.347 Y107.208 E.01401
G1 X90.093 Y107.005 E.0102
G1 X89.837 Y106.717 E.0121
G1 X89.641 Y106.387 E.01203
G1 X89.502 Y105.998 E.01293
G1 X89.442 Y105.592 E.01288
G1 X89.452 Y95.283 E.32322
G1 X89.508 Y94.99 E.00937
M204 P1250
G1 X89.247 Y94.664 F2400
G1 E-2.24 F4200
;WIPE_START
G1 F1920
G1 X89.658 Y94.577 E-.912
;WIPE_END
G1 E-.048 F4200
G1 Z.4 F2400
G1 X92.579 Y70.563
G1 Z.2
G1 E3.2
M204 P800
;TYPE:Solid infill
;WIDTH:0.420454
G1 F1200
G1 X95.179 Y73.163 E.11544
G1 X95.263 Y73.373 E.0071
G1 X95.371 Y73.889 E.01654
G1 X92.114 Y70.631 E.1446
G1 X91.52 Y70.572 E.01873
G1 X95.43 Y74.482 E.17358
G1 X95.43 Y75.016 E.01676
G1 X94.08 Y73.665 E.05996
G1 X93.997 Y73.415 E.00827
G1 X93.763 Y72.987 E.01532
G1 X93.359 Y72.511 E.0196
G1 X92.967 Y72.206 E.01558
G1 X92.538 Y71.982 E.0152
G1 X92.336 Y71.921 E.00663
G1 X90.986 Y70.572 E.05992
G1 X90.452 Y70.572 E.01676
G1 X91.684 Y71.803 E.05469
G1 X91.399 Y71.782 E.00897
G1 X91.154 Y71.808 E.00773
G1 X89.918 Y70.571 E.05489
G1 X89.384 Y70.571 E.01676
G1 X90.715 Y71.902 E.05909
G1 X90.59 Y71.937 E.00408
G1 X90.337 Y72.058 E.0088
G1 X88.85 Y70.571 E.06602
G1 X88.316 Y70.571 E.01676
G1 X89.989 Y72.244 E.07427
G1 X89.701 Y72.49 E.01189
G1 X87.782 Y70.571 E.0852
G1 X87.248 Y70.571 E.01676
G1 X89.427 Y72.749 E.09672
G1 X89.306 Y72.895 E.00594
G1 X89.207 Y73.064 E.00613
G1 X86.714 Y70.571 E.11068
G1 X86.18 Y70.571 E.01676
G1 X89.014 Y73.405 E.12583
G1 X88.876 Y73.8 E.01315
G1 X85.646 Y70.57 E.14339
G1 X85.112 Y70.57 E.01676
G1 X88.795 Y74.254 E.16354
G1 X88.792 Y74.784 E.01664
G1 X84.572 Y70.57 E.18721
G1 X84.572 Y71.098 E.01658
G1 X88.791 Y75.317 E.18731
G1 X88.791 Y75.851 E.01674
G1 X84.572 Y71.632 E.18729
G1 X84.572 Y72.166 E.01676
G1 X88.79 Y76.384 E.18727
G1 X88.79 Y76.918 E.01674
G1 X84.572 Y72.7 E.18724
G1 X84.572 Y73.234 E.01676
G1 X88.789 Y77.451 E.18722
G1 X88.789 Y77.984 E.01674
G1 X84.572 Y73.768 E.1872
G1 X84.572 Y74.302 E.01676
G1 X88.788 Y78.518 E.18718
G1 X88.787 Y79.051 E.01674
G1 X84.572 Y74.836 E.18715
G1 X84.572 Y75.37 E.01676
G1 X88.787 Y79.585 E.18713
G1 X88.786 Y80.118 E.01674
G1 X84.572 Y75.903 E.18711
G1 X84.572 Y76.437 E.01676
G1 X88.786 Y80.651 E.18708
G1 X88.785 Y81.185 E.01674
G1 X84.572 Y76.971 E.18706
G1 X84.572 Y77.505 E.01676
G1 X88.785 Y81.718 E.18704
G1 X88.784 Y82.252 E.01674
G1 X84.572 Y78.039 E.18702
G1 X84.572 Y78.573 E.01676
G1 X88.784 Y82.785 E.18699
G1 X88.783 Y83.318 E.01674
G1 X84.572 Y79.107 E.18697
G1 X84.572 Y79.641 E.01676
G1 X88.783 Y83.852 E.18695
G1 X88.782 Y84.385 E.01674
G1 X84.572 Y80.175 E.18692
G1 X84.572 Y80.709 E.01676
G1 X89.056 Y85.193 E.19909
M204 P1250
G1 E-2.24 F4200
;WIPE_START
G1 F1920
G1 X88.746 Y84.883 E-.912
;WIPE_END
G1 E-.048 F4200
G1 Z.4 F2400
G1 X94.014 Y74.133
G1 Z.2
G1 E3.2
M204 P800
G1 F1200
G1 X95.43 Y75.55 E.06289
G1 X95.43 Y76.083 E.01676
G1 X94.221 Y74.875 E.05366
G1 X94.221 Y75.408 E.01674
G1 X95.43 Y76.617 E.05369
G1 X95.43 Y77.151 E.01676
G1 X94.22 Y75.941 E.05372
G1 X94.219 Y76.475 E.01674
G1 X95.43 Y77.685 E.05375
G1 X95.43 Y78.219 E.01676
G1 X94.219 Y77.008 E.05377
G1 X94.218 Y77.541 E.01674
G1 X95.43 Y78.753 E.0538
G1 X95.43 Y79.287 E.01676
G1 X94.218 Y78.074 E.05383
G1 X94.217 Y78.608 E.01674
G1 X95.43 Y79.821 E.05386
G1 X95.43 Y80.355 E.01676
G1 X94.216 Y79.141 E.05388
G1 X94.216 Y79.674 E.01674
G1 X95.43 Y80.889 E.05391
G1 X95.43 Y81.423 E.01676
G1 X94.215 Y80.208 E.05394
G1 X94.215 Y80.741 E.01674
G1 X95.43 Y81.956 E.05397
G1 X95.43 Y82.49 E.01676
G1 X94.214 Y81.274 E.05399
G1 X94.213 Y81.807 E.01674
G1 X95.43 Y83.024 E.05402
G1 X95.43 Y83.558 E.01676
G1 X94.213 Y82.341 E.05405
G1 X94.212 Y82.874 E.01674
G1 X95.43 Y84.092 E.05408
G1 X95.43 Y84.626 E.01676
G1 X94.211 Y83.407 E.05411
G1 X94.211 Y83.941 E.01674
M73 P2 R37
G1 X95.43 Y85.16 E.05413
G1 X95.43 Y85.694 E.01676
G1 X94.21 Y84.474 E.05416
G1 X94.21 Y84.723 E.00781
G1 X94.172 Y84.969 E.00783
G1 X95.43 Y86.228 E.05587
G1 X95.43 Y86.762 E.01676
G1 X94.058 Y85.39 E.06091
G1 X93.905 Y85.77 E.01287
G1 X95.43 Y87.296 E.06773
G1 X95.43 Y87.83 E.01676
G1 X93.692 Y86.092 E.07716
G1 X93.611 Y86.214 E.00462
G1 X93.453 Y86.387 E.00733
G1 X95.43 Y88.363 E.08776
G1 X95.43 Y88.897 E.01676
G1 X93.166 Y86.633 E.10053
G1 X92.844 Y86.846 E.01209
G1 X95.43 Y89.431 E.11479
G1 X95.43 Y89.965 E.01676
G1 X92.492 Y87.027 E.13045
G1 X92.086 Y87.155 E.01336
G1 X95.43 Y90.499 E.14846
G1 X95.43 Y91.033 E.01676
G1 X91.613 Y87.216 E.16946
G1 X91.12 Y87.193 E.0155
G1 X91.035 Y87.172 E.00273
G1 X95.43 Y91.567 E.1951
G1 X95.43 Y92.101 E.01676
G1 X84.572 Y81.243 E.48205
G1 X84.572 Y81.777 E.01676
G1 X95.43 Y92.635 E.48205
G1 X95.43 Y93.169 E.01676
G1 X84.572 Y82.31 E.48205
G1 X84.572 Y82.844 E.01676
G1 X95.43 Y93.703 E.48205
G1 X95.43 Y94.237 E.01676
G1 X84.572 Y83.378 E.48205
G1 X84.572 Y83.912 E.01676
G1 X95.43 Y94.77 E.48205
G1 X95.43 Y95.304 E.01676
G1 X84.572 Y84.446 E.48205
G1 X84.572 Y84.98 E.01676
M73 P3 R37
G1 X92.632 Y93.04 E.35782
G1 X92.938 Y93.19 E.01071
G1 X93.344 Y93.498 E.01598
G1 X93.7 Y93.9 E.01688
G1 X93.976 Y94.384 E.01747
G1 X95.43 Y95.838 E.06457
G1 X95.43 Y96.372 E.01676
G1 X94.185 Y95.127 E.05528
G1 X94.222 Y95.451 E.01023
G1 X94.222 Y95.698 E.00775
G1 X95.43 Y96.906 E.05365
G1 X95.43 Y97.44 E.01676
G1 X94.221 Y96.231 E.05368
G1 X94.22 Y96.764 E.01674
G1 X95.43 Y97.974 E.05371
G1 X95.43 Y98.508 E.01676
G1 X94.22 Y97.297 E.05374
G1 X94.219 Y97.831 E.01674
G1 X95.43 Y99.042 E.05376
G1 X95.43 Y99.576 E.01676
G1 X94.218 Y98.364 E.05379
G1 X94.218 Y98.897 E.01674
G1 X95.43 Y100.11 E.05382
G1 X95.43 Y100.643 E.01676
G1 X94.217 Y99.431 E.05385
G1 X94.217 Y99.964 E.01674
G1 X95.43 Y101.177 E.05387
G1 X95.43 Y101.711 E.01676
G1 X94.216 Y100.497 E.0539
G1 X94.215 Y101.03 E.01674
G1 X95.43 Y102.245 E.05393
G1 X95.43 Y102.779 E.01676
G1 X94.215 Y101.564 E.05396
G1 X94.214 Y102.097 E.01674
G1 X95.43 Y103.313 E.05399
G1 X95.43 Y103.847 E.01676
G1 X94.213 Y102.63 E.05401
G1 X94.213 Y103.164 E.01674
G1 X95.43 Y104.381 E.05404
G1 X95.43 Y104.915 E.01676
G1 X94.212 Y103.697 E.05407
G1 X94.212 Y104.23 E.01674
G1 X95.43 Y105.449 E.0541
G1 X95.387 Y105.94 E.01547
G1 X94.211 Y104.763 E.05222
G1 X94.21 Y105.297 E.01674
G1 X95.317 Y106.403 E.04912
G1 X95.199 Y106.819 E.01357
G1 X94.2 Y105.82 E.04436
G1 X94.111 Y106.265 E.01426
G1 X95.038 Y107.192 E.04114
G1 X94.974 Y107.336 E.00495
G1 X94.849 Y107.537 E.00743
G1 X93.959 Y106.647 E.03952
G1 X93.92 Y106.744 E.00328
G1 X93.767 Y106.989 E.00906
G1 X94.637 Y107.859 E.03861
G1 X94.397 Y108.153 E.01191
G1 X93.537 Y107.293 E.0382
G1 X93.353 Y107.494 E.00855
G1 X93.265 Y107.555 E.00337
G1 X94.124 Y108.414 E.03816
G1 X93.831 Y108.655 E.01191
G1 X92.948 Y107.772 E.03921
G1 X92.62 Y107.978 E.01216
G1 X93.509 Y108.867 E.03947
G1 X93.162 Y109.053 E.01238
G1 X92.227 Y108.118 E.04151
G1 X91.766 Y108.192 E.01464
G1 X92.781 Y109.206 E.04503
G1 X92.687 Y109.244 E.00317
G1 X92.362 Y109.322 E.01048
G1 X91.046 Y108.005 E.05844
M204 P1250
G1 E-2.24 F4200
;WIPE_START
G1 F1920
G1 X91.356 Y108.316 E-.912
;WIPE_END
G1 E-.048 F4200
G1 Z.4 F2400
G1 X92.084 Y93.026
G1 Z.2
G1 E3.2
M204 P800
G1 F1200
G1 X84.572 Y85.514 E.33348
G1 X84.572 Y86.048 E.01676
G1 X91.315 Y92.791 E.29934
