; generated by PrusaSlicer 2.5.0+win64 on 2022-10-14 at 18:20:13 UTC


;
;

;
;
; 

; external perimeters extrusion width = 0.45mm
; perimeters extrusion width = 0.45mm
; infill extrusion width = 0.45mm
; solid infill extrusion width = 0.45mm
; top infill extrusion width = 0.40mm
; support material extrusion width = 0.35mm
; first layer extrusion width = 0.42mm

M73 P0 R4
M201 X2500 Y2500 Z400 E5000 ; sets maximum accelerations, mm/sec^2
M203 X180 Y180 Z12 E80 ; sets maximum feedrates, mm / sec
M204 P1250 R1250 T2500 ; sets acceleration (P, T) and retract acceleration (R), mm/sec^2
M205 X8.00 Y8.00 Z2.00 E10.00 ; sets the jerk limits, mm/sec
M205 S0 T0 ; sets the minimum extruding and travel feed rate, mm/sec
M107
;TYPE:Custom
M862.3 P "MINI" ; printer model check
G90 ; use absolute coordinates
M83 ; extruder relative mode
M104 S170 ; set extruder temp for bed leveling
M140 S60 ; set bed temp
M109 R170 ; wait for bed leveling temp
M190 S60 ; wait for bed temp
M204 T1250 ; set travel acceleration
G28 ; home all without mesh bed level
G29 ; mesh bed leveling 
M204 T2500 ; restore travel acceleration
M104 S215 ; set extruder temp
G92 E0
G1 Y-2 X179 F2400
G1 Z3 F720
M109 S215 ; wait for extruder temp

; intro line
M73 P1 R4
G1 X170 F1000
G1 Z0.2 F720
M73 P2 R4
G1 X110 E8 F900
G1 X40 E10 F700
G92 E0

M221 S95 ; set flow
G21 ; set units to millimeters
G90 ; use absolute coordinates
M83 ; use relative distances for extrusion
M900 K0.2 ; Filament gcode LA 1.5
; ; Filament gcode LA 1.0
M107
;LAYER_CHANGE
;Z:0.2
;HEIGHT:0.2
;BEFORE_LAYER_CHANGE
G92 E0.0
;0.2


M73 P3 R4
G1 E-3.2 F4200
M73 P5 R4
G1 Z.2 F2400
;AFTER_LAYER_CHANGE
;0.2
M73 P6 R4
G1 Z.4
G1 X85.577 Y85.435
G1 Z.2
G1 E3.2
M204 P800
;TYPE:Skirt/Brim
;WIDTH:0.42
G1 F977
M73 P7 R4
G1 X86.866 Y84.644 E.04742
G1 X88.317 Y84.17 E.04787
G1 X89.729 Y84.043 E.04446
G1 X90.828 Y84.159 E.03464
G1 X91.906 Y84.464 E.03513
G1 X92.827 Y84.898 E.03193
G1 X93.738 Y85.526 E.03468
G1 X94.468 Y86.231 E.03182
G1 X95.138 Y87.132 E.03521
G1 X95.602 Y88.033 E.03178
G1 X95.941 Y89.085 E.03465
G1 X96.099 Y90.199 E.03527
G1 X96.051 Y91.407 E.03792
G1 X95.812 Y92.49 E.03478
G1 X95.37 Y93.56 E.0363
G1 X94.846 Y94.339 E.02941
G1 X94.161 Y95.003 E.02992
G1 X93.312 Y95.526 E.03127
G1 X92.419 Y95.838 E.02967
G1 X91.536 Y95.955 E.02791
G1 X88.251 Y95.955 E.103
G1 X87.526 Y95.872 E.02289
G1 X86.826 Y95.674 E.0228
G1 X85.792 Y95.127 E.03668
G1 X85.028 Y94.442 E.03219
G1 X84.377 Y93.485 E.03628
G1 X84.019 Y92.514 E.03245
G1 X83.893 Y91.545 E.03063
G1 X83.926 Y88.396 E.09872
G1 X84.214 Y87.277 E.03625
G1 X84.675 Y86.411 E.03074
G1 X85.536 Y85.479 E.03979
M204 P1250
G1 X85.811 Y85.731 F2400
M204 P800
G1 F977
G1 X87.027 Y84.985 E.04471
G1 X88.388 Y84.54 E.04493
M73 P7 R3
G1 X89.719 Y84.42 E.04189
M73 P8 R3
G1 X90.759 Y84.529 E.0328
G1 X91.77 Y84.816 E.03293
G1 X92.638 Y85.224 E.03008
G1 X93.5 Y85.819 E.03285
G1 X94.188 Y86.483 E.02997
G1 X94.816 Y87.328 E.033
G1 X95.253 Y88.177 E.02994
G1 X95.574 Y89.172 E.0328
G1 X95.722 Y90.216 E.03307
G1 X95.678 Y91.355 E.03573
G1 X95.451 Y92.381 E.03293
G1 X95.037 Y93.382 E.03397
G1 X94.558 Y94.096 E.02695
G1 X93.93 Y94.704 E.02742
G1 X93.149 Y95.186 E.02879
G1 X92.33 Y95.472 E.02719
G1 X91.472 Y95.58 E.02712
G1 X88.261 Y95.579 E.10067
G1 X87.597 Y95.502 E.02097
G1 X86.956 Y95.32 E.0209
G1 X86.012 Y94.821 E.03347
G1 X85.308 Y94.19 E.02963
G1 X84.715 Y93.316 E.03311
G1 X84.385 Y92.423 E.02987
G1 X84.27 Y91.535 E.02807
G1 X84.283 Y88.605 E.09185
G1 X84.506 Y87.57 E.03322
G1 X84.959 Y86.665 E.03172
G1 X85.771 Y85.775 E.03777
M204 P1250
G1 X86.046 Y86.026 F2400
M204 P800
G1 F977
G1 X87.187 Y85.326 E.04199
G1 X88.46 Y84.91 E.04198
G1 X89.709 Y84.797 E.03931
G1 X90.601 Y84.884 E.0281
G1 X91.555 Y85.138 E.03096
G1 X92.373 Y85.508 E.02815
G1 X93.189 Y86.053 E.03076
G1 X93.845 Y86.666 E.02815
M73 P9 R3
G1 X94.448 Y87.45 E.03101
G1 X94.904 Y88.32 E.03081
G1 X95.186 Y89.171 E.0281
G1 X95.34 Y90.148 E.03103
G1 X95.325 Y91.129 E.03075
G1 X95.118 Y92.181 E.03363
G1 X94.758 Y93.101 E.03096
G1 X94.27 Y93.852 E.02808
G1 X93.7 Y94.406 E.02492
G1 X93.033 Y94.823 E.02466
G1 X92.293 Y95.093 E.02471
G1 X91.515 Y95.202 E.02462
G1 X88.325 Y95.203 E.10002
G1 X87.138 Y94.985 E.03787
G1 X86.356 Y94.598 E.02736
G1 X85.624 Y93.977 E.0301
G1 X85.12 Y93.275 E.02708
G1 X84.764 Y92.382 E.03015
G1 X84.648 Y91.579 E.02545
G1 X84.659 Y88.634 E.09231
G1 X84.863 Y87.693 E.03019
G1 X85.271 Y86.875 E.02868
G1 X86.005 Y86.07 E.03415
M204 P1250
G1 X86.28 Y86.321 F2400
M204 P800
G1 F977
G1 X87.348 Y85.667 E.03927
G1 X88.532 Y85.28 E.03904
G1 X89.699 Y85.174 E.03673
G1 X90.532 Y85.254 E.02626
G1 X91.43 Y85.494 E.02912
G1 X92.194 Y85.84 E.02631
G1 X92.952 Y86.345 E.02856
G1 X93.565 Y86.918 E.02631
G1 X94.132 Y87.656 E.02917
G1 X94.525 Y88.393 E.0262
G1 X94.801 Y89.186 E.02634
G1 X94.957 Y90.084 E.02858
G1 X94.95 Y91.088 E.03146
G1 X94.778 Y92.001 E.02912
G1 X94.459 Y92.852 E.02852
G1 X94.09 Y93.473 E.02265
G1 X93.566 Y94.028 E.02391
G1 X92.87 Y94.483 E.02607
M73 P10 R3
G1 X92.204 Y94.726 E.02222
G1 X91.451 Y94.826 E.02382
G1 X88.336 Y94.826 E.09769
G1 X87.267 Y94.631 E.03406
G1 X86.559 Y94.28 E.02478
G1 X85.905 Y93.725 E.0269
G1 X85.448 Y93.09 E.02452
G1 X85.13 Y92.291 E.02696
G1 X85.024 Y91.514 E.02459
G1 X85.035 Y88.664 E.08938
G1 X85.219 Y87.817 E.02715
G1 X85.584 Y87.086 E.02564
G1 X86.24 Y86.366 E.03053
M204 P1250
; printing object pcb_spacer_corner_1pcs.stl id:0 copy 0
G1 E-2.24 F4200
;WIPE_START
G1 F1920
G1 X86.611 Y86.132 E-.912
;WIPE_END
G1 E-.048 F4200
G1 Z.4 F2400
G1 X87.693 Y90.884
G1 Z.2
G1 E3.2
M204 P800
;TYPE:External perimeter
;WIDTH:0.571078
G1 F977
G1 X87.683 Y90.359 E.02304
M204 P1250
G1 E-2.24 F4200
;WIPE_START
G1 F1920
G1 X87.692 Y90.798 E-.912
;WIPE_END
G1 E-.048 F4200
G1 Z.4 F2400
G1 X88.691 Y92.173
G1 Z.2
G1 E3.2
M204 P800
;WIDTH:0.432304
G1 F977
G1 X88.71 Y92.226 E.00184
G1 X88.522 Y92.233 E.00611
G1 X88.128 Y92.18 E.01285
;WIDTH:0.435166
G1 X87.814 Y91.947 E.01276
G1 X87.633 Y91.605 E.01263
;WIDTH:0.419273
G1 X87.621 Y91.41 E.0061
;WIDTH:0.457225
G1 X87.639 Y91.278 E.00457
;WIDTH:0.495176
G1 X87.657 Y91.147 E.00499
;WIDTH:0.533127
G1 X87.675 Y91.015 E.00541
;WIDTH:0.571078
G1 X87.693 Y90.884 E.00583
G1 X87.709 Y90.917 E.00161
;WIDTH:0.557025
G1 X87.833 Y91.161 E.01171
;WIDTH:0.515017
G1 X87.958 Y91.405 E.01075
;WIDTH:0.473009
G1 X88.082 Y91.649 E.00979
;WIDTH:0.432304
G1 X88.464 Y92.017 E.01717
G1 X88.641 Y92.139 E.00696
M204 P1250
G1 X88.662 Y92.222 F2400
G1 E-2.24 F4200
;WIPE_START
G1 F1920
G1 X88.71 Y92.226 E-.23152
G1 X88.522 Y92.233 E-.39208
G1 X88.384 Y92.215 E-.28841
;WIPE_END
G1 E-.048 F4200
G1 Z.4 F2400
G1 X90.602 Y92.13
G1 Z.2
G1 E3.2
M204 P800
;WIDTH:0.499942
G1 F977
G1 X91.242 Y91.674 E.02988
;WIDTH:0.514603
G1 X91.484 Y91.374 E.01511
G1 X91.642 Y90.959 E.01741
;WIDTH:0.497177
G1 X91.68 Y90.302 E.02484
G1 X91.545 Y89.773 E.02065
;WIDTH:0.497353
G1 X91.331 Y89.37 E.01722
G1 X91.018 Y89.007 E.01812
;WIDTH:0.492487
G1 X90.735 Y88.79 E.01331
;WIDTH:0.489636
G1 X90.425 Y88.626 E.01305
;WIDTH:0.490784
M73 P11 R3
G1 X90.011 Y88.496 E.01613
G1 X89.517 Y88.46 E.01846
G1 X88.978 Y88.556 E.02039
;WIDTH:0.511905
G1 X88.696 Y88.686 E.01211
;WIDTH:0.521949
G1 X88.331 Y88.937 E.01767
G1 X88.061 Y89.326 E.01884
;WIDTH:0.501346
G1 X87.833 Y89.849 E.02175
;WIDTH:0.52949
G1 X87.758 Y90.104 E.01076
;WIDTH:0.557634
G1 X87.683 Y90.359 E.01138
G1 X87.667 Y90.115 E.01048
;WIDTH:0.52949
G1 X87.651 Y89.87 E.00991
;WIDTH:0.501346
G1 X87.678 Y89.39 E.01835
;WIDTH:0.508111
G1 X87.844 Y88.807 E.02344
;WIDTH:0.521949
G1 X88.033 Y88.565 E.01225
G1 X88.507 Y88.259 E.02246
;WIDTH:0.511905
G1 X89.106 Y88.056 E.02467
;WIDTH:0.505519
G1 X89.736 Y88.008 E.02432
;WIDTH:0.499329
G1 X90.281 Y88.097 E.02093
G1 X90.938 Y88.387 E.02728
;WIDTH:0.492487
G1 X91.354 Y88.709 E.01964
;WIDTH:0.497353
G1 X91.728 Y89.151 E.0219
G1 X91.979 Y89.642 E.02083
;WIDTH:0.497177
G1 X92.131 Y90.261 E.02409
;WIDTH:0.508374
G1 X92.127 Y90.812 E.02131
;WIDTH:0.514584
G1 X92 Y91.374 E.02259
;WIDTH:0.533496
G1 X91.766 Y91.832 E.02098
G1 X91.579 Y91.965 E.00935
;WIDTH:0.506241
G1 X91.392 Y92.097 E.00883
;WIDTH:0.478986
G1 X91.131 Y92.175 E.00987
;WIDTH:0.476112
G1 X90.578 Y92.212 E.01998
G1 X90.585 Y92.187 E.00092
M204 P1250
G1 X90.973 Y91.98 F2400
; stop printing object pcb_spacer_corner_1pcs.stl id:0 copy 0
M106 S84.15
;LAYER_CHANGE
;Z:0.35
;HEIGHT:0.15
;BEFORE_LAYER_CHANGE
G92 E0.0
;0.35


G1 E-2.24 F4200
;WIPE_START
G1 F1920
G1 X90.931 Y91.917 E-.912
;WIPE_END
G1 E-.048 F4200
G1 Z.4 F2400
;AFTER_LAYER_CHANGE
;0.35
G1 X90.931 Y95.955
G1 Z.35
G1 E3.2
;TYPE:Skirt/Brim
;WIDTH:0.42
G1 F900
G1 X88.251 Y95.955 E.06481
G1 X87.526 Y95.872 E.01765
G1 X86.826 Y95.674 E.01759
G1 X85.792 Y95.127 E.0283
G1 X85.028 Y94.442 E.02483
G1 X84.377 Y93.485 E.02798
G1 X84.019 Y92.514 E.02503
G1 X83.893 Y91.545 E.02363
G1 X83.926 Y88.396 E.07615
G1 X84.214 Y87.277 E.02796
G1 X84.675 Y86.411 E.02371
G1 X85.577 Y85.435 E.03214
G1 X86.866 Y84.644 E.03658
G1 X88.317 Y84.17 E.03692
G1 X89.729 Y84.043 E.0343
G1 X90.828 Y84.159 E.02672
M73 P12 R3
G1 X91.906 Y84.464 E.0271
G1 X92.827 Y84.898 E.02463
G1 X93.738 Y85.526 E.02675
G1 X94.468 Y86.231 E.02454
G1 X95.138 Y87.132 E.02716
G1 X95.602 Y88.033 E.02452
G1 X95.941 Y89.085 E.02672
G1 X96.099 Y90.199 E.02721
G1 X96.051 Y91.407 E.02925
G1 X95.812 Y92.49 E.02682
G1 X95.37 Y93.56 E.028
G1 X94.846 Y94.339 E.02269
G1 X94.161 Y95.003 E.02308
G1 X93.312 Y95.526 E.02412
G1 X92.419 Y95.838 E.02288
G1 X91.536 Y95.955 E.02153
G1 X90.991 Y95.955 E.01319
G1 X90.991 Y95.58 F2400
G1 F900
G1 X88.261 Y95.579 E.06602
G1 X87.597 Y95.502 E.01617
G1 X86.956 Y95.32 E.01612
G1 X86.012 Y94.821 E.02582
G1 X85.308 Y94.19 E.02286
G1 X84.715 Y93.316 E.02554
G1 X84.385 Y92.423 E.02304
G1 X84.27 Y91.535 E.02165
G1 X84.283 Y88.605 E.07085
G1 X84.506 Y87.57 E.02562
G1 X84.959 Y86.665 E.02447
G1 X85.811 Y85.731 E.03058
G1 X87.027 Y84.985 E.03448
G1 X88.388 Y84.54 E.03465
G1 X89.719 Y84.42 E.03231
G1 X90.759 Y84.529 E.0253
G1 X91.77 Y84.816 E.0254
M73 P13 R3
G1 X92.638 Y85.224 E.0232
G1 X93.5 Y85.819 E.02534
G1 X94.188 Y86.483 E.02312
G1 X94.816 Y87.328 E.02545
G1 X95.253 Y88.177 E.0231
G1 X95.574 Y89.172 E.0253
G1 X95.722 Y90.216 E.0255
G1 X95.678 Y91.355 E.02756
G1 X95.451 Y92.381 E.0254
G1 X95.037 Y93.382 E.0262
G1 X94.558 Y94.096 E.02079
G1 X93.93 Y94.704 E.02115
G1 X93.149 Y95.186 E.02221
G1 X92.33 Y95.472 E.02097
G1 X91.472 Y95.58 E.02092
G1 X91.051 Y95.58 E.01018
G1 X91.051 Y95.202 F2400
G1 F900
G1 X88.325 Y95.203 E.06591
G1 X87.138 Y94.985 E.02921
G1 X86.356 Y94.598 E.0211
G1 X85.624 Y93.977 E.02321
G1 X85.12 Y93.275 E.02089
G1 X84.764 Y92.382 E.02326
G1 X84.648 Y91.579 E.01963
G1 X84.659 Y88.634 E.07121
G1 X84.863 Y87.693 E.02328
G1 X85.271 Y86.875 E.02212
G1 X86.046 Y86.026 E.02779
G1 X87.187 Y85.326 E.03239
G1 X88.46 Y84.91 E.03238
G1 X89.709 Y84.797 E.03032
G1 X90.601 Y84.884 E.02168
G1 X91.555 Y85.138 E.02388
G1 X92.373 Y85.508 E.02171
G1 X93.189 Y86.053 E.02373
G1 X93.845 Y86.666 E.02171
M73 P14 R3
G1 X94.448 Y87.45 E.02392
G1 X94.904 Y88.32 E.02376
G1 X95.186 Y89.171 E.02168
G1 X95.34 Y90.148 E.02393
G1 X95.325 Y91.129 E.02372
G1 X95.118 Y92.181 E.02594
G1 X94.758 Y93.101 E.02388
G1 X94.27 Y93.852 E.02166
G1 X93.7 Y94.406 E.01922
G1 X93.033 Y94.823 E.01902
G1 X92.293 Y95.093 E.01906
G1 X91.515 Y95.202 E.01899
G1 X91.111 Y95.202 E.00979
G1 X91.111 Y94.826 F2400
G1 F900
G1 X88.336 Y94.826 E.06711
G1 X87.267 Y94.631 E.02628
G1 X86.559 Y94.28 E.01911
G1 X85.905 Y93.725 E.02075
G1 X85.448 Y93.09 E.01892
G1 X85.13 Y92.291 E.02079
G1 X85.024 Y91.514 E.01896
G1 X85.035 Y88.664 E.06895
G1 X85.219 Y87.817 E.02094
G1 X85.584 Y87.086 E.01977
G1 X86.28 Y86.321 E.025
G1 X87.348 Y85.667 E.03029
G1 X88.532 Y85.28 E.03011
G1 X89.699 Y85.174 E.02833
G1 X90.532 Y85.254 E.02026
G1 X91.43 Y85.494 E.02246
G1 X92.194 Y85.84 E.02029
G1 X92.952 Y86.345 E.02203
G1 X93.565 Y86.918 E.02029
G1 X94.132 Y87.656 E.0225
G1 X94.525 Y88.393 E.02021
G1 X94.801 Y89.186 E.02032
G1 X94.957 Y90.084 E.02204
G1 X94.95 Y91.088 E.02427
G1 X94.778 Y92.001 E.02246
M73 P15 R3
G1 X94.459 Y92.852 E.022
G1 X94.09 Y93.473 E.01747
G1 X93.566 Y94.028 E.01845
G1 X92.87 Y94.483 E.02011
G1 X92.204 Y94.726 E.01714
G1 X91.451 Y94.826 E.01838
G1 X91.171 Y94.826 E.00679
; printing object pcb_spacer_corner_1pcs.stl id:0 copy 0
G1 E-2.24 F4200
;WIPE_START
G1 F1920
G1 X90.732 Y94.826 E-.912
;WIPE_END
G1 E-.048 F4200
G1 Z.55 F2400
G1 X87.714 Y91.091
G1 Z.35
G1 E3.2
M204 P800
;TYPE:External perimeter
;WIDTH:0.627916
G1 F900
G1 X87.695 Y90.806 E.0106
;WIDTH:0.590619
G1 X87.677 Y90.521 E.00994
;WIDTH:0.556616
G1 X87.678 Y90.434 E.00286
M204 P1250
G1 E-2.24 F4200
;WIPE_START
G1 F1920
G1 X87.677 Y90.521 E-.18147
G1 X87.695 Y90.806 E-.59287
G1 X87.7 Y90.872 E-.13766
;WIPE_END
G1 E-.048 F4200
G1 Z.55 F2400
G1 X88.81 Y92.232
G1 Z.35
G1 E3.2
M204 P800
;WIDTH:0.434252
G1 F900
G1 X88.199 Y92.194 E.01534
G1 X87.901 Y92.039 E.00841
G1 X87.699 Y91.771 E.00843
;WIDTH:0.433662
G1 X87.636 Y91.529 E.00624
;WIDTH:0.482226
G1 X87.655 Y91.42 E.00313
;WIDTH:0.530789
G1 X87.675 Y91.31 E.00346
;WIDTH:0.579353
G1 X87.694 Y91.2 E.0038
;WIDTH:0.627916
G1 X87.714 Y91.091 E.00414
G1 X87.745 Y91.145 E.00231
;WIDTH:0.597088
G1 X87.842 Y91.283 E.00594
;WIDTH:0.555656
G1 X87.938 Y91.421 E.00551
;WIDTH:0.514225
G1 X88.034 Y91.56 E.00507
;WIDTH:0.472793
G1 X88.131 Y91.698 E.00463
;WIDTH:0.434252
G1 X88.375 Y91.958 E.00894
G1 X88.759 Y92.2 E.01138
M204 P1250
G1 X88.424 Y92.128 F2400
G1 E-2.24 F4200
;WIPE_START
G1 F1920
G1 X88.32 Y92.195 E-.912
;WIPE_END
G1 E-.048 F4200
G1 Z.55 F2400
G1 X87.734 Y90.256
G1 Z.35
G1 E3.2
M204 P800
;WIDTH:0.556616
G1 F900
G1 X87.678 Y90.434 E.0061
G1 X87.661 Y90.249 E.0061
;WIDTH:0.521077
G1 X87.643 Y90.063 E.00568
;WIDTH:0.485538
G1 X87.625 Y89.877 E.00527
;WIDTH:0.449999
G1 X87.642 Y88.83 E.0273
G1 X87.8 Y88.464 E.01036
G1 X88.111 Y88.232 E.01012
G1 X88.62 Y87.964 E.01499
G1 X89.165 Y87.816 E.01471
G1 X89.76 Y87.782 E.01554
G1 X90.316 Y87.878 E.0147
G1 X90.828 Y88.065 E.01421
G1 X91.365 Y88.415 E.01669
G1 X91.725 Y88.77 E.01319
G1 X91.988 Y89.149 E.012
G1 X92.24 Y89.722 E.01633
G1 X92.354 Y90.235 E.01369
G1 X92.354 Y90.809 E.01496
G1 X92.247 Y91.357 E.01454
G1 X92.085 Y91.773 E.01164
G1 X91.949 Y91.967 E.00615
G1 X91.765 Y92.113 E.00614
G1 X91.413 Y92.224 E.00961
G1 X90.427 Y92.225 E.02567
G1 X90.775 Y92.01 E.01063
G1 X91.085 Y91.691 E.01161
G1 X91.374 Y91.157 E.01581
G1 X91.467 Y90.66 E.01317
M73 P16 R3
G1 X91.404 Y90.05 E.01598
G1 X91.178 Y89.542 E.0145
G1 X90.702 Y89.036 E.01809
G1 X90.142 Y88.758 E.0163
G1 X89.647 Y88.686 E.01304
G1 X89.252 Y88.713 E.01031
G1 X88.885 Y88.817 E.00995
G1 X88.544 Y89.002 E.01011
G1 X88.318 Y89.192 E.00769
G1 X88.045 Y89.504 E.0108
G1 X87.844 Y89.9 E.01157
;WIDTH:0.485538
G1 X87.789 Y90.078 E.00527
;WIDTH:0.521077
G1 X87.751 Y90.199 E.00385
M204 P1250
G1 E-2.24 F4200
;WIPE_START
G1 F1920
G1 X87.678 Y90.434 E-.51208
G1 X87.661 Y90.249 E-.38739
G1 X87.66 Y90.243 E-.01253
;WIPE_END
G1 E-.048 F4200
G1 Z.55 F2400
G1 X88.166 Y88.732
G1 Z.35
G1 E3.2
M204 P800
;TYPE:Perimeter
;WIDTH:0.508568
G1 F900
G1 X88.634 Y88.444 E.01631
;WIDTH:0.506816
G1 X89.132 Y88.279 E.01554
;WIDTH:0.51285
G1 X89.656 Y88.233 E.01577
G1 X90.207 Y88.313 E.01669
;WIDTH:0.534688
G1 X90.597 Y88.463 E.0131
G1 X91.086 Y88.769 E.01808
;WIDTH:0.516118
G1 X91.467 Y89.175 E.0168
;WIDTH:0.535402
G1 X91.725 Y89.638 E.01663
G1 X91.871 Y90.08 E.0146
;WIDTH:0.520394
G1 X91.919 Y90.622 E.01658
G1 X91.814 Y91.24 E.01907
;WIDTH:0.53085
G1 X91.665 Y91.588 E.01179
G1 X91.6 Y91.686 E.00366
M204 P1250
; stop printing object pcb_spacer_corner_1pcs.stl id:0 copy 0
M106 S170.85
;LAYER_CHANGE
;Z:0.5
;HEIGHT:0.15
;BEFORE_LAYER_CHANGE
G92 E0.0
;0.5


G1 E-2.24 F4200
;WIPE_START
G1 F1920
G1 X91.665 Y91.588 E-.24441
G1 X91.792 Y91.293 E-.66759
;WIPE_END
G1 E-.048 F4200
G1 Z.55 F2400
;AFTER_LAYER_CHANGE
;0.5
G1 X95.648 Y92.888
G1 Z.5
G1 E3.2
;TYPE:Skirt/Brim
;WIDTH:0.42
G1 F900
G1 X95.37 Y93.56 E.01761
G1 X94.846 Y94.339 E.02269
G1 X94.161 Y95.003 E.02308
G1 X93.312 Y95.526 E.02412
G1 X92.419 Y95.838 E.02288
G1 X91.536 Y95.955 E.02153
G1 X88.251 Y95.955 E.07945
G1 X87.526 Y95.872 E.01765
