; generated by PrusaSlicer 2.5.0+win64 on 2022-10-14 at 18:20:23 UTC


;
;

;
;
; 

; external perimeters extrusion width = 0.45mm
; perimeters extrusion width = 0.45mm
; infill extrusion width = 0.45mm
; solid infill extrusion width = 0.45mm
; top infill extrusion width = 0.40mm
; support material extrusion width = 0.35mm
; first layer extrusion width = 0.42mm

M73 P0 R38
M201 X2500 Y2500 Z400 E5000 ; sets maximum accelerations, mm/sec^2
M203 X180 Y180 Z12 E80 ; sets maximum feedrates, mm / sec
M204 P1250 R1250 T2500 ; sets acceleration (P, T) and retract acceleration (R), mm/sec^2
M205 X8.00 Y8.00 Z2.00 E10.00 ; sets the jerk limits, mm/sec
M205 S0 T0 ; sets the minimum extruding and travel feed rate, mm/sec
M107
;TYPE:Custom
M862.3 P "MINI" ; printer model check
G90 ; use absolute coordinates
M83 ; extruder relative mode
M104 S170 ; set extruder temp for bed leveling
M140 S60 ; set bed temp
M109 R170 ; wait for bed leveling temp
M190 S60 ; wait for bed temp
M204 T1250 ; set travel acceleration
G28 ; home all without mesh bed level
G29 ; mesh bed leveling 
M204 T2500 ; restore travel acceleration
M104 S215 ; set extruder temp
G92 E0
G1 Y-2 X179 F2400
G1 Z3 F720
M109 S215 ; wait for extruder temp

; intro line
G1 X170 F1000
G1 Z0.2 F720
G1 X110 E8 F900
G1 X40 E10 F700
G92 E0

M221 S95 ; set flow
G21 ; set units to millimeters
G90 ; use absolute coordinates
M83 ; use relative distances for extrusion
M900 K0.2 ; Filament gcode LA 1.5
; ; Filament gcode LA 1.0
M107
;LAYER_CHANGE
;Z:0.2
;HEIGHT:0.2
;BEFORE_LAYER_CHANGE
G92 E0.0
;0.2


G1 E-3.2 F4200
G1 Z.2 F2400
;AFTER_LAYER_CHANGE
;0.2
G1 Z.4
G1 X80.061 Y60.812
G1 Z.2
G1 E3.2
M204 P800
;TYPE:Skirt/Brim
;WIDTH:0.42
G1 F1200
G1 X80.917 Y59.873 E.03984
G1 X81.849 Y59.031 E.0394
G1 X82.858 Y58.285 E.03934
G1 X83.935 Y57.641 E.03934
G1 X85.142 Y57.074 E.0418
G1 X86.325 Y56.658 E.03933
G1 X87.544 Y56.359 E.03935
M73 P0 R37
G1 X88.786 Y56.18 E.03934
G1 X90.057 Y56.123 E.0399
G1 X92.247 Y56.321 E.06895
G1 X94.3 Y56.862 E.06655
G1 X96.235 Y57.733 E.06653
G1 X98.012 Y58.919 E.06702
G1 X99.559 Y60.372 E.06653
G1 X100.887 Y62.123 E.06891
G1 X101.87 Y64.007 E.06661
G1 X102.533 Y66.043 E.06714
G1 X102.785 Y67.459 E.04511
G1 X102.877 Y68.893 E.04504
G1 X102.877 Y111 E1.32024
G1 X102.815 Y112.262 E.03962
G1 X102.632 Y113.501 E.03928
G1 X102.328 Y114.72 E.0394
G1 X101.88 Y115.968 E.04158
G1 X101.337 Y117.107 E.03957
G1 X100.691 Y118.178 E.03921
G1 X99.939 Y119.188 E.03948
G1 X99.083 Y120.127 E.03983
G1 X98.151 Y120.969 E.0394
G1 X97.142 Y121.715 E.03934
G1 X96.067 Y122.358 E.03928
G1 X94.931 Y122.896 E.0394
G1 X93.755 Y123.317 E.03917
G1 X92.533 Y123.625 E.03951
G1 X91.215 Y123.82 E.04177
G1 X89.961 Y123.877 E.03937
G1 X87.848 Y123.696 E.0665
G1 X85.78 Y123.166 E.06694
G1 X83.834 Y122.305 E.0667
G1 X82 Y121.09 E.06898
G1 X80.441 Y119.628 E.06702
G1 X79.113 Y117.877 E.0689
G1 X78.13 Y115.993 E.06661
M73 P1 R37
G1 X77.467 Y113.957 E.06713
G1 X77.214 Y112.532 E.04539
G1 X77.123 Y111.106 E.04482
G1 X77.123 Y69 E1.32019
G1 X77.185 Y67.738 E.03962
G1 X77.369 Y66.497 E.03934
G1 X77.672 Y65.279 E.03934
G1 X78.12 Y64.031 E.04158
G1 X78.663 Y62.894 E.0395
G1 X79.309 Y61.822 E.03926
G1 X80.025 Y60.86 E.0376
M204 P1250
; printing object right_endstop_mount_1pcs.stl id:0 copy 0
G1 E-2.24 F4200
;WIPE_START
G1 F1920
G1 X80.319 Y60.534 E-.912
;WIPE_END
G1 E-.048 F4200
G1 Z.4 F2400
G1 X92.621 Y69
G1 Z.2
G1 E3.2
M204 P800
;TYPE:Support material
G1 F1200
G1 X91.311 Y71.27 E.08218
G1 X88.689 Y71.27 E.08218
G1 X87.379 Y69 E.08218
G1 X88.689 Y66.73 E.08218
G1 X91.311 Y66.73 E.08218
G1 X92.593 Y68.951 E.08041
M204 P1250
G1 X92.095 Y69.572 F2400
M204 P800
G1 F1200
G1 X92.095 Y68.767 E.02524
G1 X91.676 Y68.042 E.02627
G1 X91.676 Y69.958 E.06011
G1 X91.257 Y70.684 E.02627
G1 X91.257 Y67.316 E.10561
G1 X91.115 Y67.069 E.00892
G1 X90.838 Y67.069 E.00868
G1 X90.838 Y70.931 E.12107
G1 X90.419 Y70.931 E.01314
G1 X90.419 Y67.069 E.12107
G1 X90 Y67.069 E.01314
G1 X90 Y70.931 E.12107
G1 X89.581 Y70.931 E.01314
G1 X89.581 Y67.069 E.12107
G1 X89.162 Y67.069 E.01314
G1 X89.162 Y70.931 E.12107
G1 X88.885 Y70.931 E.00868
G1 X88.743 Y70.684 E.00892
G1 X88.743 Y67.316 E.10561
G1 X88.324 Y68.041 E.02627
G1 X88.324 Y69.959 E.06011
G1 X87.905 Y69.233 E.02627
G1 X87.905 Y68.428 E.02524
M204 P1250
G1 E-2.24 F4200
;WIPE_START
G1 F1920
G1 X87.905 Y68.867 E-.912
;WIPE_END
G1 E-.048 F4200
G1 Z.4 F2400
G1 X92.621 Y111
G1 Z.2
G1 E3.2
M204 P800
G1 F1200
G1 X91.311 Y113.27 E.08218
G1 X88.689 Y113.27 E.08218
G1 X87.379 Y111 E.08219
G1 X88.689 Y108.73 E.08218
G1 X91.311 Y108.73 E.08219
G1 X92.593 Y110.951 E.08041
M204 P1250
G1 X92.095 Y111.572 F2400
M204 P800
G1 F1200
G1 X92.095 Y110.767 E.02524
G1 X91.676 Y110.041 E.02627
G1 X91.676 Y111.959 E.06011
G1 X91.257 Y112.684 E.02627
G1 X91.257 Y109.316 E.10561
G1 X91.115 Y109.069 E.00892
G1 X90.838 Y109.069 E.00868
G1 X90.838 Y112.931 E.12107
G1 X90.419 Y112.931 E.01314
G1 X90.419 Y109.069 E.12107
G1 X90 Y109.069 E.01314
G1 X90 Y112.931 E.12107
G1 X89.581 Y112.931 E.01314
G1 X89.581 Y109.069 E.12107
G1 X89.162 Y109.069 E.01314
G1 X89.162 Y112.931 E.12107
G1 X88.885 Y112.931 E.00868
G1 X88.743 Y112.684 E.00892
G1 X88.743 Y109.316 E.10561
G1 X88.324 Y110.042 E.02627
G1 X88.324 Y111.958 E.06011
G1 X87.905 Y111.233 E.02627
G1 X87.905 Y110.428 E.02524
M204 P1250
G1 E-2.24 F4200
;WIPE_START
G1 F1920
G1 X87.905 Y110.867 E-.912
;WIPE_END
G1 E-.048 F4200
G1 Z.4 F2400
G1 X80.341 Y112.019
G1 Z.2
G1 E3.2
M204 P800
;TYPE:Perimeter
;WIDTH:0.419999
G1 F1200
G1 X80.287 Y111.061 E.03008
G1 X80.287 Y69.015 E1.31832
G1 X80.334 Y68.055 E.03014
G1 X80.472 Y67.117 E.02972
G1 X80.7 Y66.2 E.02962
G1 X81.017 Y65.309 E.02967
G1 X81.418 Y64.453 E.02962
G1 X81.905 Y63.632 E.02993
G1 X82.194 Y63.22 E.01577
G1 X82.504 Y62.824 E.01577
G1 X83.145 Y62.12 E.02988
G1 X83.852 Y61.481 E.02988
G1 X84.25 Y61.172 E.01578
G1 X84.662 Y60.886 E.01572
G1 X85.484 Y60.402 E.02992
G1 X86.342 Y60.003 E.02967
G1 X87.235 Y59.69 E.02967
G1 X88.154 Y59.465 E.02967
G1 X89.098 Y59.329 E.02988
G1 X89.599 Y59.296 E.01577
G1 X90.105 Y59.288 E.01585
G1 X90.909 Y59.33 E.02525
G1 X91.702 Y59.438 E.0251
G1 X92.483 Y59.61 E.02508
G1 X93.319 Y59.872 E.02746
G1 X94.058 Y60.176 E.02504
G1 X94.835 Y60.577 E.02742
G1 X95.573 Y61.046 E.02742
G1 X96.419 Y61.721 E.03393
G1 X96.949 Y62.224 E.02292
G1 X97.431 Y62.754 E.02245
G1 X97.965 Y63.45 E.02751
G1 X98.392 Y64.12 E.0249
G1 X98.767 Y64.832 E.02524
G1 X99.108 Y65.641 E.02754
G1 X99.388 Y66.534 E.02934
G1 X99.547 Y67.242 E.02276
G1 X99.666 Y68.117 E.02769
G1 X99.713 Y69.019 E.02832
G1 X99.713 Y110.985 E1.3158
G1 X99.666 Y111.945 E.03014
G1 X99.528 Y112.881 E.02967
G1 X99.298 Y113.806 E.02988
G1 X99.141 Y114.284 E.01578
G1 X98.959 Y114.751 E.01572
G1 X98.547 Y115.612 E.02993
G1 X98.058 Y116.422 E.02967
G1 X97.492 Y117.181 E.02967
G1 X96.855 Y117.88 E.02967
G1 X96.153 Y118.515 E.02967
G1 X95.392 Y119.078 E.02967
G1 X94.58 Y119.564 E.02967
G1 X93.725 Y119.969 E.02967
G1 X92.835 Y120.289 E.02967
G1 X91.911 Y120.523 E.02988
G1 X91.415 Y120.609 E.01578
G1 X90.916 Y120.669 E.01577
G1 X89.962 Y120.712 E.02991
G1 X89.092 Y120.67 E.02734
G1 X88.298 Y120.562 E.02512
G1 X87.517 Y120.39 E.02508
G1 X86.682 Y120.128 E.02741
G1 X85.941 Y119.824 E.02513
G1 X85.228 Y119.459 E.02512
G1 X84.486 Y118.996 E.02741
G1 X83.848 Y118.516 E.02504
G1 X83.196 Y117.931 E.02746
G1 X82.65 Y117.348 E.02504
G1 X82.109 Y116.662 E.0274
G1 X81.669 Y115.993 E.02509
G1 X81.253 Y115.222 E.02746
G1 X80.936 Y114.489 E.02507
G1 X80.68 Y113.731 E.02507
G1 X80.472 Y112.881 E.02743
G1 X80.35 Y112.078 E.02548
M204 P1250
G1 X79.966 Y112.058 F2400
M204 P800
;TYPE:External perimeter
G1 F1200
G1 X79.91 Y111.071 E.03097
G1 X79.91 Y69.006 E1.31894
G1 X79.958 Y68.018 E.031
G1 X80.102 Y67.044 E.03087
G1 X80.339 Y66.092 E.03077
G1 X80.667 Y65.165 E.03083
G1 X81.084 Y64.276 E.03077
G1 X81.588 Y63.428 E.03095
G1 X81.891 Y62.996 E.01653
G1 X82.215 Y62.581 E.01653
G1 X82.879 Y61.852 E.0309
G1 X83.61 Y61.191 E.0309
G1 X84.027 Y60.868 E.01653
G1 X84.458 Y60.568 E.01648
G1 X85.308 Y60.067 E.03094
G1 X86.2 Y59.653 E.03082
G1 X87.128 Y59.328 E.03083
G1 X88.083 Y59.094 E.03082
G1 X89.058 Y58.954 E.0309
G1 X89.584 Y58.919 E.01652
G1 X90.112 Y58.911 E.01656
G1 X90.944 Y58.954 E.02614
G1 X91.769 Y59.066 E.02608
G1 X92.581 Y59.246 E.02608
G1 X93.447 Y59.517 E.02848
G1 X94.216 Y59.833 E.02606
G1 X95.023 Y60.249 E.02847
G1 X95.789 Y60.736 E.02846
G1 X96.245 Y61.084 E.01796
G1 X96.672 Y61.441 E.01746
G1 X97.224 Y61.966 E.0239
G1 X97.727 Y62.521 E.02347
G1 X98.28 Y63.243 E.02852
G1 X98.723 Y63.939 E.02587
G1 X99.112 Y64.681 E.02626
G1 X99.465 Y65.522 E.0286
G1 X99.754 Y66.446 E.03035
G1 X99.92 Y67.186 E.02379
G1 X100.043 Y68.096 E.02879
G1 X100.09 Y69.019 E.02898
G1 X100.09 Y110.994 E1.31609
G1 X100.042 Y111.982 E.031
M73 P2 R37
G1 X99.899 Y112.954 E.03082
G1 X99.661 Y113.911 E.0309
G1 X99.496 Y114.411 E.01654
G1 X99.305 Y114.901 E.01648
G1 X98.879 Y115.792 E.03095
G1 X98.371 Y116.633 E.03083
G1 X97.783 Y117.421 E.03082
G1 X97.121 Y118.148 E.03082
G1 X96.392 Y118.807 E.03082
G1 X95.602 Y119.392 E.03083
G1 X94.758 Y119.897 E.03083
G1 X93.87 Y120.318 E.03082
G1 X92.945 Y120.65 E.03082
G1 X91.989 Y120.892 E.0309
G1 X91.47 Y120.982 E.01653
G1 X90.947 Y121.045 E.01653
G1 X89.962 Y121.09 E.03091
G1 X89.057 Y121.046 E.0284
G1 X88.231 Y120.934 E.02612
G1 X87.419 Y120.754 E.02607
G1 X86.554 Y120.483 E.02843
G1 X85.783 Y120.167 E.02613
G1 X85.042 Y119.787 E.02612
G1 X84.273 Y119.307 E.02843
G1 X83.608 Y118.807 E.02606
G1 X82.932 Y118.201 E.02848
G1 X82.364 Y117.595 E.02606
G1 X81.802 Y116.883 E.02842
G1 X81.345 Y116.187 E.02611
G1 X80.914 Y115.387 E.02848
G1 X80.584 Y114.624 E.02607
G1 X80.317 Y113.836 E.02607
G1 X80.101 Y112.955 E.02847
G1 X79.975 Y112.117 E.02656
M204 P1250
G1 X80.29 Y111.823 F2400
G1 E-2.24 F4200
;WIPE_START
G1 F1920
G1 X79.948 Y111.679 E-.912
;WIPE_END
G1 E-.048 F4200
G1 Z.4 F2400
G1 X87.836 Y72.305
G1 Z.2
G1 E3.2
M204 P800
;TYPE:Perimeter
G1 F1200
G1 X86.079 Y69.283 E.1096
G1 X86.003 Y69.014 E.00876
G1 X86.045 Y68.786 E.00725
G1 X87.795 Y65.746 E.10999
G1 X87.997 Y65.541 E.00903
G1 X88.284 Y65.463 E.00933
G1 X91.716 Y65.463 E.10758
G1 X91.996 Y65.537 E.00909
G1 X92.198 Y65.733 E.00882
G1 X93.921 Y68.717 E.10804
G1 X93.997 Y69.003 E.00928
G1 X93.921 Y69.283 E.00908
G1 X92.205 Y72.254 E.10758
G1 X91.999 Y72.461 E.00916
G1 X91.716 Y72.537 E.0092
G1 X88.284 Y72.537 E.10758
G1 X88.121 Y72.513 E.00517
G1 X87.915 Y72.4 E.00738
G1 X87.875 Y72.351 E.00199
M204 P1250
G1 X88.121 Y72.066 F2400
M204 P800
;TYPE:External perimeter
G1 F1200
G1 X86.406 Y69.094 E.10758
G1 X86.394 Y68.929 E.0052
G1 X88.122 Y65.932 E.10845
G1 X88.238 Y65.846 E.00453
G1 X91.716 Y65.84 E.10904
G1 X91.859 Y65.906 E.00494
G1 X93.594 Y68.906 E.10867
G1 X93.613 Y69.05 E.00456
G1 X91.879 Y72.066 E.10907
G1 X91.751 Y72.157 E.00491
G1 X88.284 Y72.16 E.1087
G1 X88.23 Y72.152 E.00172
G1 X88.168 Y72.103 E.00248
M204 P1250
G1 X87.727 Y72.135 F2400
G1 E-2.24 F4200
;WIPE_START
G1 F1920
G1 X87.946 Y71.724 E-.912
;WIPE_END
G1 E-.048 F4200
G1 Z.4 F2400
G1 X94.829 Y85.179
G1 Z.2
G1 E3.2
M204 P800
;TYPE:Perimeter
G1 F1200
G1 X94.784 Y85.659 E.01509
G1 X94.559 Y86.221 E.01899
G1 X94.158 Y86.666 E.01879
G1 X93.981 Y86.795 E.00687
G1 X93.497 Y87.016 E.01668
G1 X92.988 Y87.084 E.01609
G1 X92.454 Y86.996 E.01697
G1 X92.012 Y86.799 E.01519
G1 X91.661 Y86.497 E.01452
G1 X91.339 Y86.034 E.01768
G1 X91.178 Y85.414 E.02008
G1 X91.171 Y85.195 E.00687
G1 X91.272 Y84.628 E.01805
G1 X91.506 Y84.194 E.01546
G1 X91.848 Y83.827 E.01576
G1 X92.268 Y83.565 E.01552
G1 X92.829 Y83.428 E.0181
G1 X93.278 Y83.434 E.01408
G1 X93.873 Y83.643 E.01977
G1 X94.06 Y83.758 E.00687
G1 X94.483 Y84.166 E.01844
G1 X94.541 Y84.263 E.00352
G1 X94.795 Y84.869 E.02062
G1 X94.822 Y85.12 E.0079
M204 P1250
G1 X94.459 Y85.214 F2400
M204 P800
;TYPE:External perimeter
G1 F1200
G1 X94.431 Y85.526 E.00981
G1 X94.24 Y86.021 E.01663
G1 X93.883 Y86.409 E.01656
G1 X93.376 Y86.658 E.01768
G1 X93.011 Y86.707 E.01155
G1 X92.516 Y86.624 E.01573
G1 X92.21 Y86.477 E.01065
G1 X91.969 Y86.279 E.00978
G1 X91.672 Y85.857 E.01619
G1 X91.545 Y85.33 E.01699
G1 X91.624 Y84.772 E.01768
G1 X91.781 Y84.451 E.01119
G1 X92.131 Y84.078 E.01603
G1 X92.435 Y83.907 E.01094
G1 X92.944 Y83.791 E.01637
G1 X93.271 Y83.819 E.01029
G1 X93.741 Y83.995 E.01573
G1 X94.156 Y84.363 E.0174
G1 X94.199 Y84.422 E.00227
G1 X94.422 Y84.921 E.01716
G1 X94.451 Y85.154 E.00736
M204 P1250
G1 X94.737 Y85.358 F2400
G1 E-2.24 F4200
;WIPE_START
G1 F1920
G1 X94.431 Y85.526 E-.77255
G1 X94.407 Y85.588 E-.13945
;WIPE_END
G1 E-.048 F4200
G1 Z.4 F2400
G1 X93.976 Y93.211
G1 Z.2
G1 E3.2
M204 P800
;TYPE:Perimeter
G1 F1200
G1 X94.244 Y93.401 E.01029
G1 X94.636 Y93.93 E.02065
G1 X94.723 Y94.134 E.00694
G1 X94.825 Y94.625 E.01573
G1 X94.827 Y94.846 E.00693
G1 X94.704 Y95.437 E.01895
G1 X94.385 Y95.946 E.01883
G1 X94.232 Y96.103 E.00688
G1 X93.75 Y96.427 E.0182
G1 X93.266 Y96.56 E.01573
G1 X92.721 Y96.564 E.01709
G1 X92.282 Y96.441 E.0143
G1 X91.798 Y96.13 E.01803
G1 X91.642 Y95.976 E.00687
G1 X91.323 Y95.499 E.01801
G1 X91.189 Y95.01 E.0159
G1 X91.189 Y94.443 E.01777
G1 X91.41 Y93.845 E.01999
G1 X91.531 Y93.66 E.00694
G1 X91.9 Y93.284 E.01651
G1 X92.319 Y93.045 E.01512
G1 X92.87 Y92.925 E.01768
G1 X93.319 Y92.941 E.01409
G1 X93.928 Y93.176 E.02047
M204 P1250
G1 X93.772 Y93.512 F2400
M204 P800
;TYPE:External perimeter
G1 F1200
G1 X94.046 Y93.736 E.01112
G1 X94.342 Y94.175 E.01659
G1 X94.456 Y94.702 E.01691
G1 X94.365 Y95.259 E.01771
G1 X94.069 Y95.74 E.01771
G1 X93.612 Y96.072 E.01771
G1 X93.262 Y96.183 E.0115
G1 X92.752 Y96.188 E.016
G1 X92.417 Y96.085 E.01098
G1 X91.989 Y95.802 E.0161
G1 X91.675 Y95.357 E.01708
G1 X91.566 Y95.007 E.0115
G1 X91.564 Y94.49 E.01622
G1 X91.76 Y93.985 E.01696
G1 X92.158 Y93.56 E.01827
G1 X92.465 Y93.395 E.01094
G1 X92.958 Y93.292 E.01578
G1 X93.302 Y93.325 E.01085
G1 X93.716 Y93.49 E.01397
M204 P1250
G1 X94.082 Y93.341 F2400
G1 E-2.24 F4200
;WIPE_START
G1 F1920
G1 X94.046 Y93.736 E-.85651
G1 X94.061 Y93.758 E-.05549
;WIPE_END
G1 E-.048 F4200
G1 Z.4 F2400
G1 X93.964 Y111.148
G1 Z.2
G1 E3.2
M204 P800
;TYPE:Perimeter
G1 F1200
G1 X93.948 Y111.229 E.00261
G1 X92.205 Y114.254 E.10946
G1 X92.006 Y114.457 E.0089
G1 X91.757 Y114.536 E.00819
G1 X88.284 Y114.537 E.10889
G1 X88.012 Y114.467 E.00881
G1 X87.802 Y114.266 E.00914
G1 X86.079 Y111.283 E.10801
G1 X86.004 Y111.032 E.00821
G1 X86.024 Y110.85 E.00575
G1 X86.079 Y110.717 E.0045
G1 X87.795 Y107.746 E.10758
G1 X87.984 Y107.55 E.00854
G1 X88.233 Y107.465 E.00825
G1 X91.716 Y107.463 E.1092
G1 X91.999 Y107.539 E.00919
G1 X92.205 Y107.746 E.00917
G1 X93.921 Y110.717 E.10758
G1 X93.997 Y110.986 E.00876
G1 X93.976 Y111.089 E.00329
M204 P1250
G1 X93.606 Y111.071 F2400
M204 P800
;TYPE:External perimeter
G1 F1200
G1 X91.878 Y114.068 E.10846
G1 X91.812 Y114.133 E.0029
G1 X91.28 Y114.16 E.01672
G1 X88.284 Y114.16 E.09392
G1 X88.143 Y114.097 E.00485
G1 X86.406 Y111.094 E.10877
G1 X86.387 Y110.95 E.00456
G1 X88.121 Y107.934 E.10907
G1 X88.251 Y107.843 E.00499
G1 X91.716 Y107.84 E.10862
G1 X91.859 Y107.906 E.00493
G1 X91.879 Y107.934 E.0011
G1 X93.594 Y110.906 E.10758
G1 X93.602 Y111.011 E.00332
M204 P1250
G1 X93.911 Y111.33 F2400
G1 E-2.24 F4200
;WIPE_START
G1 F1920
G1 X93.386 Y111.393 E-.912
;WIPE_END
G1 E-.048 F4200
G1 Z.4 F2400
G1 X97.918 Y63.585
G1 Z.2
G1 E3.2
M204 P800
;TYPE:Solid infill
;WIDTH:0.422251
G1 F1200
G1 X96.59 Y62.257 E.05926
G1 X96.028 Y61.749 E.02389
G1 X95.411 Y61.278 E.02447
G1 X94.694 Y60.822 E.0268
G1 X94.539 Y60.742 E.00551
G1 X98.254 Y64.457 E.16572
G1 X98.459 Y64.835 E.01356
G1 X98.743 Y65.483 E.02231
G1 X93.521 Y60.261 E.23291
G1 X93.223 Y60.139 E.01019
G1 X92.698 Y59.974 E.01735
G1 X99.032 Y66.309 E.28256
G1 X99.216 Y67.029 E.02343
G1 X91.975 Y59.788 E.32299
G1 X91.653 Y59.717 E.01041
G1 X91.323 Y59.672 E.01051
G1 X99.326 Y67.676 E.35702
G1 X99.377 Y68.012 E.01073
G1 X99.392 Y68.278 E.0084
G1 X90.718 Y59.603 E.38694
G1 X90.154 Y59.576 E.0178
G1 X99.424 Y68.846 E.4135
G1 X99.43 Y69.388 E.0171
G1 X89.62 Y59.578 E.4376
G1 X89.117 Y59.612 E.01588
G1 X99.43 Y69.925 E.46
G1 X99.43 Y70.461 E.01692
G1 X88.648 Y59.68 E.48093
