; generated by PrusaSlicer 2.5.0+win64 on 2022-10-14 at 18:20:32 UTC


;
;

;
;
; 

; external perimeters extrusion width = 0.45mm
; perimeters extrusion width = 0.45mm
; infill extrusion width = 0.45mm
; solid infill extrusion width = 0.45mm
; top infill extrusion width = 0.40mm
; support material extrusion width = 0.35mm
; first layer extrusion width = 0.42mm

M73 P0 R1
M201 X2500 Y2500 Z400 E5000 ; sets maximum accelerations, mm/sec^2
M203 X180 Y180 Z12 E80 ; sets maximum feedrates, mm / sec
M204 P1250 R1250 T2500 ; sets acceleration (P, T) and retract acceleration (R), mm/sec^2
M205 X8.00 Y8.00 Z2.00 E10.00 ; sets the jerk limits, mm/sec
M205 S0 T0 ; sets the minimum extruding and travel feed rate, mm/sec
M107
;TYPE:Custom
M862.3 P "MINI" ; printer model check
G90 ; use absolute coordinates
M83 ; extruder relative mode
M104 S170 ; set extruder temp for bed leveling
M140 S60 ; set bed temp
M109 R170 ; wait for bed leveling temp
M190 S60 ; wait for bed temp
M204 T1250 ; set travel acceleration
G28 ; home all without mesh bed level
G29 ; mesh bed leveling 
M204 T2500 ; restore travel acceleration
M104 S215 ; set extruder temp
G92 E0
G1 Y-2 X179 F2400
G1 Z3 F720
M109 S215 ; wait for extruder temp

; intro line
M73 P4 R1
G1 X170 F1000
G1 Z0.2 F720
M73 P5 R1
G1 X110 E8 F900
G1 X40 E10 F700
G92 E0

M221 S95 ; set flow
G21 ; set units to millimeters
G90 ; use absolute coordinates
M83 ; use relative distances for extrusion
M900 K0.2 ; Filament gcode LA 1.5
; ; Filament gcode LA 1.0
M107
;LAYER_CHANGE
;Z:0.2
;HEIGHT:0.2
;BEFORE_LAYER_CHANGE
G92 E0.0
;0.2


M73 P9 R1
G1 E-3.2 F4200
M73 P14 R1
G1 Z.2 F2400
;AFTER_LAYER_CHANGE
;0.2
G1 Z.4
G1 X85.675 Y85.406
G1 Z.2
M73 P17 R1
G1 E3.2
M204 P800
;TYPE:Skirt/Brim
;WIDTH:0.42
G1 F930
G1 X86.657 Y84.65 E.03883
G1 X87.767 Y84.099 E.03888
G1 X88.903 Y83.787 E.03694
G1 X90.172 Y83.693 E.0399
G1 X91.418 Y83.853 E.03938
G1 X92.557 Y84.232 E.03764
G1 X93.609 Y84.825 E.03786
G1 X94.561 Y85.641 E.03931
G1 X95.352 Y86.659 E.04042
M73 P18 R1
G1 X95.876 Y87.703 E.03663
G1 X96.201 Y88.842 E.03714
G1 X96.307 Y90.11 E.03991
G1 X96.173 Y91.302 E.0376
G1 X95.763 Y92.566 E.04167
G1 X95.205 Y93.564 E.03585
G1 X94.422 Y94.499 E.03824
G1 X93.451 Y95.28 E.03908
G1 X92.376 Y95.843 E.03805
G1 X91.078 Y96.215 E.04232
G1 X89.906 Y96.307 E.03686
G1 X88.724 Y96.177 E.03729
G1 X87.513 Y95.795 E.03981
M73 P19 R1
G1 X86.349 Y95.143 E.04186
G1 X85.426 Y94.343 E.03826
G1 X84.669 Y93.371 E.03864
G1 X84.123 Y92.289 E.03801
G1 X83.778 Y91.04 E.04063
G1 X83.694 Y89.859 E.03713
G1 X83.862 Y88.545 E.04152
G1 X84.237 Y87.432 E.03682
G1 X84.817 Y86.403 E.03704
G1 X85.636 Y85.451 E.03938
M204 P1250
G1 X85.92 Y85.695 F2400
M204 P800
G1 F930
G1 X86.857 Y84.969 E.03717
G1 X87.899 Y84.453 E.03644
G1 X88.965 Y84.158 E.03469
M73 P20 R1
G1 X90.162 Y84.07 E.03762
G1 X91.336 Y84.221 E.03712
G1 X92.405 Y84.577 E.03531
G1 X93.392 Y85.134 E.03552
G1 X94.29 Y85.903 E.03708
G1 X95.035 Y86.863 E.0381
G1 X95.526 Y87.845 E.03443
G1 X95.848 Y89.009 E.03786
G1 X95.93 Y90.11 E.03463
G1 X95.803 Y91.229 E.0353
G1 X95.42 Y92.41 E.03894
G1 X94.895 Y93.348 E.0337
G1 X94.155 Y94.232 E.03615
G1 X93.246 Y94.964 E.03659
M73 P21 R1
G1 X92.236 Y95.493 E.03576
G1 X91.018 Y95.843 E.03974
G1 X89.916 Y95.93 E.03464
G1 X88.806 Y95.809 E.03503
G1 X87.665 Y95.45 E.03751
G1 X86.564 Y94.833 E.03957
G1 X85.703 Y94.087 E.0357
G1 X84.989 Y93.171 E.03642
G1 X84.475 Y92.154 E.03573
G1 X84.15 Y90.979 E.03822
G1 X84.071 Y89.869 E.03491
G1 X84.23 Y88.627 E.03926
G1 X84.58 Y87.588 E.03437
G1 X85.124 Y86.622 E.03476
M73 P22 R1
G1 X85.881 Y85.741 E.03643
M204 P1250
G1 X86.166 Y85.985 F2400
M204 P800
G1 F930
G1 X87.008 Y85.319 E.03367
G1 X88.03 Y84.806 E.03585
G1 X89.027 Y84.53 E.03244
G1 X90.151 Y84.447 E.03535
G1 X91.254 Y84.589 E.03487
G1 X92.249 Y84.921 E.03288
G1 X93.175 Y85.442 E.0333
G1 X94.019 Y86.165 E.03484
G1 X94.718 Y87.067 E.03577
G1 X95.177 Y87.986 E.03224
G1 X95.476 Y89.069 E.03522
G1 X95.553 Y90.11 E.03272
G1 X95.433 Y91.155 E.033
M73 P23 R1
G1 X95.076 Y92.254 E.0362
G1 X94.586 Y93.133 E.03156
G1 X93.888 Y93.965 E.03406
G1 X93.041 Y94.647 E.0341
G1 X92.096 Y95.143 E.03347
G1 X90.957 Y95.47 E.03715
G1 X89.927 Y95.553 E.03241
G1 X88.888 Y95.441 E.03277
G1 X87.816 Y95.105 E.03521
G1 X86.876 Y94.591 E.03357
G1 X85.98 Y93.831 E.03686
G1 X85.308 Y92.972 E.03419
G1 X84.827 Y92.019 E.03345
G1 X84.522 Y90.919 E.03581
G1 X84.448 Y89.879 E.03269
M73 P24 R1
G1 X84.598 Y88.709 E.037
G1 X84.924 Y87.744 E.03191
G1 X85.431 Y86.841 E.03249
G1 X86.127 Y86.03 E.03348
M204 P1250
G1 X86.411 Y86.274 F2400
M204 P800
G1 F930
G1 X87.208 Y85.639 E.03195
G1 X88.161 Y85.16 E.03345
G1 X89.089 Y84.902 E.03019
G1 X90.141 Y84.824 E.03307
G1 X91.173 Y84.957 E.03262
G1 X92.097 Y85.266 E.03057
G1 X92.958 Y85.751 E.03095
G1 X93.748 Y86.427 E.03261
G1 X94.4 Y87.27 E.03344
G1 X94.828 Y88.128 E.03005
G1 X95.104 Y89.13 E.03257
M73 P25 R1
G1 X95.176 Y90.11 E.03082
G1 X95.063 Y91.082 E.0307
G1 X94.733 Y92.098 E.03347
G1 X94.277 Y92.917 E.02941
G1 X93.622 Y93.699 E.03197
G1 X92.836 Y94.331 E.03161
G1 X91.956 Y94.792 E.03118
G1 X90.897 Y95.098 E.03456
G1 X89.937 Y95.176 E.03019
G1 X88.969 Y95.072 E.03051
G1 X88.018 Y94.781 E.0312
G1 X87.161 Y94.328 E.03039
G1 X86.326 Y93.647 E.03379
G1 X85.684 Y92.859 E.03187
G1 X85.194 Y91.921 E.03318
G1 X84.908 Y90.932 E.03229
M73 P26 R1
G1 X84.825 Y89.889 E.03279
G1 X84.966 Y88.79 E.03473
G1 X85.267 Y87.9 E.02946
G1 X85.738 Y87.06 E.03022
G1 X86.372 Y86.32 E.03055
M204 P1250
; printing object short_screw_spacer_1pcs.stl id:0 copy 0
G1 E-2.24 F4200
;WIPE_START
G1 F1920
G1 X86.712 Y86.043 E-.912
;WIPE_END
G1 E-.048 F4200
G1 Z.4 F2400
G1 X88.517 Y88.074
G1 Z.2
G1 E3.2
M204 P800
;TYPE:External perimeter
;WIDTH:0.415691
G1 F930
G1 X88.986 Y87.792 E.01696
;WIDTH:0.423514
G1 X89.534 Y87.61 E.01825
G1 X90.046 Y87.566 E.01627
G1 X90.559 Y87.629 E.01636
;WIDTH:0.423296
G1 X90.979 Y87.77 E.01402
;WIDTH:0.42541
G1 X91.427 Y88.028 E.01643
G1 X91.764 Y88.32 E.01417
;WIDTH:0.42383
G1 X92.078 Y88.73 E.01636
;WIDTH:0.424164
G1 X92.288 Y89.167 E.01537
G1 X92.412 Y89.667 E.01632
;WIDTH:0.423808
G1 X92.425 Y89.838 E.00544
;WIDTH:0.415407
M73 P27 R1
G1 X92.408 Y90.327 E.01517
G1 X92.294 Y90.803 E.01514
;WIDTH:0.415254
G1 X92.119 Y91.185 E.01302
;WIDTH:0.415355
G1 X91.843 Y91.583 E.01498
G1 X91.515 Y91.9 E.01414
;WIDTH:0.415934
G1 X91.084 Y92.174 E.01583
G1 X90.682 Y92.329 E.01336
;WIDTH:0.415314
G1 X90.207 Y92.421 E.015
;WIDTH:0.415747
G1 X89.716 Y92.413 E.01521
G1 X89.304 Y92.325 E.01306
;WIDTH:0.41432
G1 X88.829 Y92.129 E.01587
G1 X88.38 Y91.809 E.01701
;WIDTH:0.418854
G1 X88.01 Y91.401 E.01724
;WIDTH:0.41942
G1 X87.757 Y90.949 E.0162
;WIDTH:0.422722
G1 X87.61 Y90.457 E.01621
G1 X87.568 Y89.946 E.01621
;WIDTH:0.427747
G1 X87.658 Y89.345 E.01945
G1 X87.813 Y88.935 E.01401
;WIDTH:0.417869
G1 X88.147 Y88.432 E.01884
;WIDTH:0.415691
G1 X88.474 Y88.115 E.0141
M204 P1250
G1 X88.732 Y88.378 F2400
M204 P800
;WIDTH:0.422245
G1 F930
G1 X89.256 Y88.082 E.01898
;WIDTH:0.423544
G1 X89.618 Y87.98 E.01189
G1 X90.054 Y87.946 E.01385
G1 X90.604 Y88.03 E.01761
;WIDTH:0.41561
G1 X91.016 Y88.21 E.01391
;WIDTH:0.42236
G1 X91.498 Y88.59 E.0194
G1 X91.84 Y89.075 E.01873
;WIDTH:0.415556
G1 X91.996 Y89.502 E.01407
;WIDTH:0.414096
G1 X92.057 Y89.896 E.01229
;WIDTH:0.423638
G1 X92.005 Y90.451 E.01766
G1 X91.89 Y90.812 E.01198
;WIDTH:0.423745
G1 X91.671 Y91.193 E.01394
M73 P28 R1
G1 X91.296 Y91.598 E.01749
;WIDTH:0.417105
G1 X90.865 Y91.868 E.01582
;WIDTH:0.42365
G1 X90.378 Y92.018 E.01614
G1 X90.008 Y92.054 E.01178
G1 X89.631 Y92.023 E.01196
;WIDTH:0.423483
G1 X89.207 Y91.894 E.01402
;WIDTH:0.424334
G1 X88.881 Y91.721 E.01171
G1 X88.542 Y91.449 E.01379
;WIDTH:0.422587
G1 X88.301 Y91.161 E.01183
;WIDTH:0.421329
G1 X88.114 Y90.83 E.01196
;WIDTH:0.422722
G1 X87.987 Y90.412 E.01382
G1 X87.946 Y89.982 E.01364
;WIDTH:0.422463
G1 X87.972 Y89.666 E.01
;WIDTH:0.420436
G1 X88.111 Y89.176 E.01599
G1 X88.445 Y88.652 E.0195
;WIDTH:0.415691
G1 X88.689 Y88.419 E.01045
M204 P1250
; stop printing object short_screw_spacer_1pcs.stl id:0 copy 0
M106 S84.15
;LAYER_CHANGE
;Z:0.35
;HEIGHT:0.15
;BEFORE_LAYER_CHANGE
G92 E0.0
;0.35


G1 E-2.24 F4200
;WIPE_START
G1 F1920
G1 X89.066 Y88.195 E-.912
;WIPE_END
G1 E-.048 F4200
G1 Z.4 F2400
;AFTER_LAYER_CHANGE
;0.35
G1 X87.18 Y84.39
G1 Z.35
G1 E3.2
;TYPE:Skirt/Brim
;WIDTH:0.42
G1 F900
G1 X87.767 Y84.099 E.01585
G1 X88.903 Y83.787 E.0285
G1 X90.172 Y83.693 E.03077
G1 X91.418 Y83.853 E.03037
M73 P29 R1
G1 X92.557 Y84.232 E.02903
G1 X93.609 Y84.825 E.0292
G1 X94.561 Y85.641 E.03032
G1 X95.352 Y86.659 E.03118
G1 X95.876 Y87.703 E.02825
G1 X96.201 Y88.842 E.02865
G1 X96.307 Y90.11 E.03078
G1 X96.173 Y91.302 E.029
G1 X95.763 Y92.566 E.03214
G1 X95.205 Y93.564 E.02765
G1 X94.422 Y94.499 E.0295
G1 X93.451 Y95.28 E.03014
G1 X92.376 Y95.843 E.02935
M73 P30 R1
G1 X91.078 Y96.215 E.03265
G1 X89.906 Y96.307 E.02843
G1 X88.724 Y96.177 E.02877
G1 X87.513 Y95.795 E.03071
G1 X86.349 Y95.143 E.03229
G1 X85.426 Y94.343 E.02951
G1 X84.669 Y93.371 E.02981
G1 X84.123 Y92.289 E.02932
G1 X83.778 Y91.04 E.03134
G1 X83.694 Y89.859 E.02864
G1 X83.862 Y88.545 E.03203
G1 X84.237 Y87.432 E.0284
G1 X84.817 Y86.403 E.02857
M73 P31 R1
G1 X85.675 Y85.406 E.03183
G1 X86.657 Y84.65 E.02995
G1 X87.126 Y84.417 E.01268
G1 X87.293 Y84.753 F2400
G1 F900
G1 X87.899 Y84.453 E.01635
G1 X88.965 Y84.158 E.02676
G1 X90.162 Y84.07 E.02902
G1 X91.336 Y84.221 E.02863
G1 X92.405 Y84.577 E.02724
G1 X93.392 Y85.134 E.0274
G1 X94.29 Y85.903 E.0286
G1 X95.035 Y86.863 E.02938
G1 X95.526 Y87.845 E.02656
G1 X95.848 Y89.009 E.02921
G1 X95.93 Y90.11 E.02671
M73 P32 R1
G1 X95.803 Y91.229 E.02723
G1 X95.42 Y92.41 E.03003
G1 X94.895 Y93.348 E.026
G1 X94.155 Y94.232 E.02788
G1 X93.246 Y94.964 E.02822
G1 X92.236 Y95.493 E.02758
G1 X91.018 Y95.843 E.03065
G1 X89.916 Y95.93 E.02672
G1 X88.806 Y95.809 E.02702
G1 X87.665 Y95.45 E.02893
G1 X86.564 Y94.833 E.03052
G1 X85.703 Y94.087 E.02754
G1 X84.989 Y93.171 E.02809
M73 P33 R1
G1 X84.475 Y92.154 E.02756
G1 X84.15 Y90.979 E.02948
G1 X84.071 Y89.869 E.02693
G1 X84.23 Y88.627 E.03028
G1 X84.58 Y87.588 E.02651
G1 X85.124 Y86.622 E.02682
G1 X85.932 Y85.682 E.02996
G1 X86.857 Y84.969 E.02827
G1 X87.239 Y84.78 E.01031
G1 X87.409 Y85.118 F2400
G1 F900
G1 X88.03 Y84.806 E.0168
G1 X89.027 Y84.53 E.02502
G1 X90.151 Y84.447 E.02726
G1 X91.254 Y84.589 E.0269
G1 X92.249 Y84.921 E.02536
G1 X93.175 Y85.442 E.02569
M73 P34 R1
G1 X94.019 Y86.165 E.02688
G1 X94.718 Y87.067 E.02759
G1 X95.177 Y87.986 E.02487
G1 X95.476 Y89.069 E.02717
G1 X95.553 Y90.11 E.02524
G1 X95.433 Y91.155 E.02545
G1 X95.076 Y92.254 E.02793
G1 X94.586 Y93.133 E.02434
G1 X93.888 Y93.965 E.02627
G1 X93.041 Y94.647 E.0263
G1 X92.096 Y95.143 E.02582
G1 X90.957 Y95.47 E.02865
G1 X89.927 Y95.553 E.025
G1 X88.888 Y95.441 E.02528
M73 P35 R1
G1 X87.816 Y95.105 E.02716
G1 X86.876 Y94.591 E.0259
G1 X85.98 Y93.831 E.02843
G1 X85.308 Y92.972 E.02637
G1 X84.827 Y92.019 E.0258
G1 X84.522 Y90.919 E.02762
G1 X84.448 Y89.879 E.02522
G1 X84.598 Y88.709 E.02854
G1 X84.924 Y87.744 E.02461
G1 X85.431 Y86.841 E.02506
G1 X86.188 Y85.959 E.0281
G1 X87.008 Y85.319 E.02516
G1 X87.355 Y85.145 E.0094
G1 X87.524 Y85.48 F2400
G1 F900
G1 X88.161 Y85.16 E.01725
G1 X89.089 Y84.902 E.02329
M73 P36 R1
G1 X90.141 Y84.824 E.02551
G1 X91.173 Y84.957 E.02516
G1 X92.097 Y85.266 E.02358
G1 X92.958 Y85.751 E.02388
G1 X93.748 Y86.427 E.02515
G1 X94.4 Y87.27 E.0258
G1 X94.828 Y88.128 E.02318
G1 X95.104 Y89.13 E.02512
G1 X95.176 Y90.11 E.02377
G1 X95.063 Y91.082 E.02368
G1 X94.733 Y92.098 E.02582
G1 X94.277 Y92.917 E.02269
G1 X93.622 Y93.699 E.02466
G1 X92.836 Y94.331 E.02438
G1 X91.956 Y94.792 E.02405
G1 X90.897 Y95.098 E.02666
M73 P37 R1
G1 X89.937 Y95.176 E.02329
G1 X88.969 Y95.072 E.02353
G1 X88.018 Y94.781 E.02407
G1 X87.161 Y94.328 E.02344
G1 X86.326 Y93.647 E.02606
G1 X85.684 Y92.859 E.02458
G1 X85.194 Y91.921 E.0256
G1 X84.908 Y90.932 E.0249
G1 X84.825 Y89.889 E.0253
G1 X84.966 Y88.79 E.02679
G1 X85.267 Y87.9 E.02272
G1 X85.738 Y87.06 E.02331
G1 X86.444 Y86.236 E.02624
G1 X87.208 Y85.639 E.02345
G1 X87.471 Y85.507 E.0071
; printing object short_screw_spacer_1pcs.stl id:0 copy 0
M73 P38 R1
G1 E-2.24 F4200
;WIPE_START
G1 F1920
G1 X87.863 Y85.31 E-.912
;WIPE_END
G1 E-.048 F4200
G1 Z.55 F2400
G1 X88.437 Y88.037
G1 Z.35
G1 E3.2
M204 P800
;TYPE:External perimeter
;WIDTH:0.560219
G1 F900
G1 X88.905 Y87.745 E.01818
;WIDTH:0.561059
G1 X89.381 Y87.568 E.01674
G1 X89.882 Y87.496 E.0167
;WIDTH:0.560092
G1 X90.448 Y87.532 E.01866
;WIDTH:0.562152
G1 X90.935 Y87.669 E.01673
G1 X91.383 Y87.907 E.01675
;WIDTH:0.566138
G1 X91.833 Y88.275 E.01936
;WIDTH:0.569419
G1 X92.14 Y88.683 E.01711
G1 X92.363 Y89.146 E.01721
;WIDTH:0.568411
G1 X92.49 Y89.663 E.01781
;WIDTH:0.56783
G1 X92.503 Y89.823 E.00535
;WIDTH:0.560879
G1 X92.483 Y90.363 E.01782
;WIDTH:0.560578
G1 X92.357 Y90.852 E.01666
;WIDTH:0.55919
G1 X92.134 Y91.31 E.01674
;WIDTH:0.560288
G1 X91.83 Y91.715 E.01668
;WIDTH:0.56356
G1 X91.405 Y92.08 E.01856
G1 X90.949 Y92.321 E.01709
;WIDTH:0.567172
G1 X90.392 Y92.483 E.01935
;WIDTH:0.567647
G1 X89.868 Y92.511 E.01752
;WIDTH:0.568523
G1 X89.374 Y92.432 E.01675
G1 X88.887 Y92.252 E.01734
;WIDTH:0.567122
M73 P39 R1
G1 X88.462 Y91.982 E.0168
;WIDTH:0.565902
G1 X88.022 Y91.536 E.02088
;WIDTH:0.561771
G1 X87.735 Y91.076 E.01789
;WIDTH:0.561202
G1 X87.567 Y90.608 E.01641
;WIDTH:0.561531
G1 X87.495 Y90.109 E.01662
G1 X87.517 Y89.67 E.01453
;WIDTH:0.561947
G1 X87.62 Y89.199 E.01592
;WIDTH:0.562077
G1 X87.829 Y88.743 E.01656
G1 X88.096 Y88.371 E.01515
;WIDTH:0.560219
G1 X88.394 Y88.079 E.01373
M204 P1250
G1 E-2.24 F4200
;WIPE_START
G1 F1920
G1 X88.761 Y87.839 E-.912
;WIPE_END
G1 E-.048 F4200
G1 Z.55 F2400
G1 X88.023 Y89.935
G1 Z.35
G1 E3.2
M204 P800
;WIDTH:0.567251
G1 F900
G1 X88.114 Y89.394 E.01831
;WIDTH:0.564146
G1 X88.328 Y88.936 E.01677
;WIDTH:0.568037
G1 X88.63 Y88.572 E.01581
;WIDTH:0.570113
G1 X88.908 Y88.354 E.01185
G1 X89.282 Y88.158 E.01416
;WIDTH:0.568647
G1 X89.619 Y88.057 E.01179
G1 X90.042 Y88.023 E.01419
G1 X90.458 Y88.073 E.014
;WIDTH:0.566955
G1 X90.808 Y88.189 E.01229
;WIDTH:0.565831
G1 X91.164 Y88.396 E.0137
;WIDTH:0.566138
G1 X91.433 Y88.631 E.01191
;WIDTH:0.569419
G1 X91.694 Y88.98 E.01458
G1 X91.849 Y89.296 E.01183
;WIDTH:0.568411
M73 P40 R1
G1 X91.958 Y89.715 E.01447
;WIDTH:0.56783
G1 X91.961 Y90.272 E.01861
;WIDTH:0.56142
G1 X91.849 Y90.708 E.01483
;WIDTH:0.559918
G1 X91.698 Y91.016 E.01132
;WIDTH:0.56877
G1 X91.338 Y91.454 E.01895
G1 X91.054 Y91.673 E.012
;WIDTH:0.568355
G1 X90.675 Y91.858 E.01413
;WIDTH:0.568242
G1 X90.324 Y91.952 E.01213
;WIDTH:0.567647
G1 X89.91 Y91.976 E.01385
G1 X89.582 Y91.934 E.01103
;WIDTH:0.567122
G1 X89.156 Y91.79 E.015
G1 X88.829 Y91.595 E.01271
;WIDTH:0.565902
G1 X88.422 Y91.192 E.01906
;WIDTH:0.561771
G1 X88.183 Y90.786 E.01556
;WIDTH:0.569253
G1 X88.045 Y90.292 E.0172
G1 X88.027 Y89.995 E.00995
M204 P1250
G1 X87.687 Y89.718 F2400
; stop printing object short_screw_spacer_1pcs.stl id:0 copy 0
M106 S170.85
;LAYER_CHANGE
;Z:0.5
;HEIGHT:0.15
;BEFORE_LAYER_CHANGE
G92 E0.0
;0.5


G1 E-2.24 F4200
;WIPE_START
G1 F1920
G1 X88.09 Y89.561 E-.912
;WIPE_END
G1 E-.048 F4200
G1 Z.55 F2400
;AFTER_LAYER_CHANGE
;0.5
G1 X83.802 Y89.013
G1 Z.5
G1 E3.2
;TYPE:Skirt/Brim
;WIDTH:0.42
G1 F900
G1 X83.862 Y88.545 E.01141
G1 X84.237 Y87.432 E.0284
G1 X84.817 Y86.403 E.02857
G1 X85.675 Y85.406 E.03183
M73 P41 R1
G1 X86.657 Y84.65 E.02995
G1 X87.767 Y84.099 E.02999
G1 X88.903 Y83.787 E.0285
G1 X90.172 Y83.693 E.03077
G1 X91.418 Y83.853 E.03037
G1 X92.557 Y84.232 E.02903
G1 X93.609 Y84.825 E.0292
G1 X94.561 Y85.641 E.03032
G1 X95.352 Y86.659 E.03118
G1 X95.876 Y87.703 E.02825
G1 X96.201 Y88.842 E.02865
G1 X96.307 Y90.11 E.03078
G1 X96.173 Y91.302 E.029
M73 P42 R1
G1 X95.763 Y92.566 E.03214
G1 X95.205 Y93.564 E.02765
G1 X94.422 Y94.499 E.0295
G1 X93.451 Y95.28 E.03014
G1 X92.376 Y95.843 E.02935
G1 X91.078 Y96.215 E.03265
G1 X89.906 Y96.307 E.02843
G1 X88.724 Y96.177 E.02877
G1 X87.513 Y95.795 E.03071
G1 X86.349 Y95.143 E.03229
G1 X85.426 Y94.343 E.02951
G1 X84.669 Y93.371 E.02981
M73 P43 R1
G1 X84.123 Y92.289 E.02932
G1 X83.778 Y91.04 E.03134
M73 P43 R0
